(.../pcb-gcode-3.6.0.4/pcb-gcode.ulp)
(Copyright 2005 - 2012 by John Johnson)
(See readme.txt for licensing terms.)
(This file generated from the board:)
(.../PCB-DAQ/Step-by-Step-DAQ/DAQ.brd)
(Current profile is .../pcb-gcode-3.6.0.4/profiles/emc.pp  )
(This file generated 15/06/2019 0:11)
(Settings from pcb-machine.h)
(  Tool Size)
(0.0070 )
(Z Axis Settings)
(  High     Up        Down     Drill)
(0.5000 	0.1000 	-0.0070 	-0.0320 )
(spindle on time = 3.0000)
(milling depth = -0.0100)
(text depth = -0.0050)
(tool change at 0.5000 0.6000 1.0000 )
(feed rate xy = F20.00 )
(feed rate z  = F10.00 )
(Settings from pcb-defaults.h)
(isolate min = 0.0010)
(isolate max = 0.0200)
(isolate step = 0.0050)
(Generated bottom outlines, bottom drill, )
(Unit of measure: inch)
(Inch Mode)
G20
(Absolute Coordinates)
G90
G00 X0.0000 Y0.0000 
M03
G04 P3.000000
G00 Z0.1000 
G00 X-0.4257 Y3.2335 
G01 Z-0.0070 F10.00 
G01 X-0.4181 Y3.2347 F20.00 
G01 X-0.4109 Y3.2370 
G01 X-0.4041 Y3.2405 
G01 X-0.3979 Y3.2450 
G01 X-0.3925 Y3.2504 
G01 X-0.3884 Y3.2560 
G01 X-0.3897 Y3.2560 
G01 X-0.3933 Y3.2510 
G01 X-0.3986 Y3.2457 
G01 X-0.4046 Y3.2414 
G01 X-0.4113 Y3.2380 
G01 X-0.4184 Y3.2356 
G01 X-0.4258 Y3.2345 
G01 X-0.4601 Y3.2345 
G01 X-0.4601 Y3.2335 
G01 X-0.4257 Y3.2335 
G00 Z0.1000 
G00 X-0.6222 Y3.1730 
G01 Z-0.0070 F10.00 
G01 X-0.6276 Y3.1676 F20.00 
G01 X-0.6321 Y3.1614 
G01 X-0.6356 Y3.1546 
G01 X-0.6379 Y3.1474 
G01 X-0.6391 Y3.1398 
G01 X-0.6391 Y3.1160 
G01 X-0.6381 Y3.1160 
G01 X-0.6381 Y3.1397 
G01 X-0.6369 Y3.1471 
G01 X-0.6346 Y3.1542 
G01 X-0.6312 Y3.1609 
G01 X-0.6268 Y3.1669 
G01 X-0.6216 Y3.1722 
G01 X-0.6185 Y3.1745 
G01 X-0.6185 Y3.1757 
G01 X-0.6222 Y3.1730 
G00 Z0.1000 
G00 X-0.5421 Y3.1398 
G01 Z-0.0070 F10.00 
G01 X-0.5433 Y3.1474 F20.00 
G01 X-0.5457 Y3.1546 
G01 X-0.5491 Y3.1614 
G01 X-0.5536 Y3.1676 
G01 X-0.5590 Y3.1730 
G01 X-0.5652 Y3.1775 
G01 X-0.5661 Y3.1779 
G01 X-0.5661 Y3.1768 
G01 X-0.5657 Y3.1766 
G01 X-0.5597 Y3.1722 
G01 X-0.5544 Y3.1669 
G01 X-0.5500 Y3.1609 
G01 X-0.5466 Y3.1542 
G01 X-0.5443 Y3.1471 
G01 X-0.5431 Y3.1397 
G01 X-0.5431 Y3.1054 
G01 X-0.5421 Y3.1054 
G01 X-0.5421 Y3.1398 
G00 Z0.1000 
G00 X-0.5193 Y3.2335 
G01 Z-0.0070 F10.00 
G01 X-0.4849 Y3.2335 F20.00 
G01 X-0.4849 Y3.2345 
G01 X-0.5192 Y3.2345 
G01 X-0.5211 Y3.2348 
G01 X-0.5220 Y3.2339 
G01 X-0.5193 Y3.2335 
G00 Z0.1000 
G00 X2.2970 Y1.8539 
G01 Z-0.0070 F10.00 
G01 X2.2968 Y1.8541 F20.00 
G01 X2.2965 Y1.8552 
G01 X2.2962 Y1.8562 
G01 X2.2962 Y1.8565 
G01 X2.2961 Y1.8568 
G01 X2.2961 Y1.8579 
G01 X2.2961 Y1.8590 
G01 X2.2961 Y1.8593 
G01 X2.2961 Y1.8671 
G01 X2.2624 Y1.9008 
G01 X2.2593 Y1.9039 
G01 X2.2589 Y1.9043 
G01 X2.2063 Y1.9043 
G01 X2.2059 Y1.9039 
G01 X2.2029 Y1.9009 
G01 X2.1694 Y1.8673 
G01 X2.1801 Y1.8673 
G01 X2.1815 Y1.8688 
G01 X2.1872 Y1.8726 
G01 X2.1934 Y1.8752 
G01 X2.2001 Y1.8765 
G01 X2.2082 Y1.8765 
G01 X2.2150 Y1.8833 
G01 X2.2502 Y1.8833 
G01 X2.2570 Y1.8765 
G01 X2.2669 Y1.8765 
G01 X2.2736 Y1.8752 
G01 X2.2798 Y1.8726 
G01 X2.2855 Y1.8688 
G01 X2.2903 Y1.8640 
G01 X2.2941 Y1.8583 
G01 X2.2967 Y1.8521 
G01 X2.2970 Y1.8504 
G01 X2.2977 Y1.8516 
G01 X2.2970 Y1.8539 
G00 Z0.1000 
G00 X1.9145 Y1.8671 
G01 Z-0.0070 F10.00 
G01 X1.9145 Y1.8580 F20.00 
G01 X1.9145 Y1.8577 
G01 X1.9145 Y1.8566 
G01 X1.9145 Y1.8555 
G01 X1.9144 Y1.8552 
G01 X1.9144 Y1.8550 
G01 X1.9140 Y1.8539 
G01 X1.9138 Y1.8528 
G01 X1.9136 Y1.8526 
G01 X1.9131 Y1.8511 
G01 X1.9138 Y1.8501 
G01 X1.9139 Y1.8497 
G01 X1.9143 Y1.8521 
G01 X1.9169 Y1.8583 
G01 X1.9207 Y1.8640 
G01 X1.9255 Y1.8688 
G01 X1.9312 Y1.8726 
G01 X1.9374 Y1.8752 
G01 X1.9441 Y1.8765 
G01 X1.9514 Y1.8765 
G01 X1.9514 Y1.8986 
G01 X1.9487 Y1.9013 
G01 X1.9145 Y1.8671 
G00 Z0.1000 
G00 X2.0043 Y1.9043 
G01 Z-0.0070 F10.00 
G01 X1.9924 Y1.9043 F20.00 
G01 X1.9924 Y1.8833 
G01 X1.9956 Y1.8833 
G01 X2.0024 Y1.8765 
G01 X2.0109 Y1.8765 
G01 X2.0176 Y1.8752 
G01 X2.0238 Y1.8726 
G01 X2.0295 Y1.8688 
G01 X2.0309 Y1.8673 
G01 X2.0412 Y1.8673 
G01 X2.0043 Y1.9043 
G00 Z0.1000 
G00 X-0.3606 Y2.0048 
G01 Z-0.0070 F10.00 
G01 X-0.3482 Y1.9924 F20.00 
G01 X-0.3482 Y1.9924 
G01 X-0.3474 Y1.9916 
G01 X-0.3466 Y1.9910 
G01 X-0.3459 Y1.9901 
G01 X-0.3419 Y1.9861 
G01 X-0.3388 Y1.9830 
G01 X-0.3234 Y1.9676 
G01 X-0.3145 Y1.9676 
G01 X-0.3145 Y1.9886 
G01 X-0.3147 Y1.9886 
G01 X-0.3374 Y2.0113 
G01 X-0.3381 Y2.0114 
G01 X-0.3426 Y2.0133 
G01 X-0.3466 Y2.0160 
G01 X-0.3606 Y2.0299 
G01 X-0.3606 Y2.0048 
G00 Z0.1000 
G00 X2.2311 Y2.9254 
G01 Z-0.0070 F10.00 
G01 X2.2677 Y2.9620 F20.00 
G01 X2.2380 Y2.9620 
G01 X2.2250 Y2.9490 
G01 X2.2250 Y2.9254 
G01 X2.2311 Y2.9254 
G00 Z0.1000 
G00 X2.2683 Y3.0110 
G01 Z-0.0070 F10.00 
G01 X2.2683 Y3.0123 F20.00 
G01 X2.2126 Y3.0524 
G01 X2.1785 Y3.0524 
G01 X2.1597 Y3.0336 
G01 X2.1578 Y3.0317 
G01 X2.1554 Y3.0303 
G01 X2.1527 Y3.0296 
G01 X2.1499 Y3.0296 
G01 X2.1473 Y3.0303 
G01 X2.1449 Y3.0317 
G01 X2.1429 Y3.0336 
G01 X2.1227 Y3.0539 
G01 X2.1030 Y3.0539 
G01 X2.1023 Y3.0538 
G01 X2.1016 Y3.0539 
G01 X2.1009 Y3.0539 
G01 X2.1002 Y3.0540 
G01 X2.0995 Y3.0541 
G01 X2.0989 Y3.0544 
G01 X2.0982 Y3.0546 
G01 X2.0976 Y3.0549 
G01 X2.0806 Y3.0620 
G01 X2.0524 Y3.0620 
G01 X2.0498 Y3.0627 
G01 X2.0474 Y3.0641 
G01 X2.0459 Y3.0656 
G01 X1.9850 Y3.0656 
G01 X1.9460 Y3.0265 
G01 X1.9455 Y3.0243 
G01 X1.9437 Y3.0199 
G01 X1.9410 Y3.0159 
G01 X1.9400 Y3.0149 
G01 X1.9400 Y2.9919 
G01 X1.9750 Y2.9569 
G01 X2.0278 Y2.9569 
G01 X2.0298 Y2.9580 
G01 X2.0305 Y2.9582 
G01 X2.0324 Y2.9587 
G01 X2.0352 Y2.9587 
G01 X2.0369 Y2.9583 
G01 X2.0379 Y2.9580 
G01 X2.0382 Y2.9578 
G01 X2.0403 Y2.9566 
G01 X2.0422 Y2.9547 
G01 X2.0434 Y2.9536 
G01 X2.0464 Y2.9505 
G01 X2.0701 Y2.9269 
G01 X2.1227 Y2.9269 
G01 X2.1238 Y2.9280 
G01 X2.1253 Y2.9295 
G01 X2.1283 Y2.9325 
G01 X2.1434 Y2.9476 
G01 X2.1458 Y2.9490 
G01 X2.1484 Y2.9497 
G01 X2.1512 Y2.9497 
G01 X2.1538 Y2.9490 
G01 X2.1539 Y2.9490 
G01 X2.1563 Y2.9476 
G01 X2.1582 Y2.9456 
G01 X2.1760 Y2.9279 
G01 X2.1760 Y2.9575 
G01 X2.1623 Y2.9713 
G01 X2.1623 Y3.0065 
G01 X2.1872 Y3.0314 
G01 X2.2224 Y3.0314 
G01 X2.2428 Y3.0110 
G01 X2.2683 Y3.0110 
G00 Z0.1000 
G00 X2.0691 Y3.0410 
G01 Z-0.0070 F10.00 
G01 X2.0739 Y3.0410 F20.00 
G01 X2.0786 Y3.0401 
G01 X2.0831 Y3.0382 
G01 X2.0871 Y3.0355 
G01 X2.0898 Y3.0329 
G01 X2.1140 Y3.0329 
G01 X2.1389 Y3.0080 
G01 X2.1389 Y2.9728 
G01 X2.1140 Y2.9479 
G01 X2.0788 Y2.9479 
G01 X2.0539 Y2.9728 
G01 X2.0539 Y2.9920 
G01 X2.0330 Y2.9920 
G01 X2.0189 Y2.9779 
G01 X1.9837 Y2.9779 
G01 X1.9588 Y3.0028 
G01 X1.9588 Y3.0380 
G01 X1.9837 Y3.0629 
G01 X2.0189 Y3.0629 
G01 X2.0408 Y3.0410 
G01 X2.0691 Y3.0410 
G00 Z0.1000 
G00 X0.6034 Y1.8555 
G01 Z-0.0070 F10.00 
G01 X0.6034 Y1.8532 F20.00 
G01 X0.6255 Y1.8312 
G01 X0.6355 Y1.8211 
G01 X0.6406 Y1.8160 
G01 X0.6932 Y1.8160 
G01 X0.6983 Y1.8211 
G01 X0.7014 Y1.8242 
G01 X0.7059 Y1.8287 
G01 X0.7304 Y1.8532 
G01 X0.7304 Y1.8655 
G01 X0.7258 Y1.8609 
G01 X0.7220 Y1.8571 
G01 X0.7173 Y1.8544 
G01 X0.7121 Y1.8530 
G01 X0.7005 Y1.8530 
G01 X0.6845 Y1.8370 
G01 X0.6493 Y1.8370 
G01 X0.6309 Y1.8555 
G01 X0.6034 Y1.8555 
G00 Z0.1000 
G00 X1.4780 Y1.8258 
G01 Z-0.0070 F10.00 
G01 X1.4780 Y1.8277 F20.00 
G01 X1.4732 Y1.8325 
G01 X1.4546 Y1.8325 
G01 X1.4546 Y1.8210 
G01 X1.4732 Y1.8210 
G01 X1.4780 Y1.8258 
G00 Z0.1000 
G00 X1.4780 Y1.8613 
G01 Z-0.0070 F10.00 
G01 X1.4780 Y1.8632 F20.00 
G01 X1.4732 Y1.8681 
G01 X1.4546 Y1.8681 
G01 X1.4546 Y1.8565 
G01 X1.4732 Y1.8565 
G01 X1.4780 Y1.8613 
G00 Z0.1000 
G00 X1.1379 Y1.8258 
G01 Z-0.0070 F10.00 
G01 X1.1427 Y1.8210 F20.00 
G01 X1.1443 Y1.8210 
G01 X1.1400 Y1.8253 
G01 X1.1384 Y1.8281 
G01 X1.1379 Y1.8299 
G01 X1.1379 Y1.8258 
G00 Z0.1000 
G00 X1.1612 Y1.8632 
G01 Z-0.0070 F10.00 
G01 X1.1564 Y1.8681 F20.00 
G01 X1.1427 Y1.8681 
G01 X1.1379 Y1.8632 
G01 X1.1379 Y1.8354 
G01 X1.1384 Y1.8373 
G01 X1.1400 Y1.8401 
G01 X1.1422 Y1.8423 
G01 X1.1449 Y1.8439 
G01 X1.1480 Y1.8447 
G01 X1.1511 Y1.8447 
G01 X1.1542 Y1.8439 
G01 X1.1569 Y1.8423 
G01 X1.1612 Y1.8380 
G01 X1.1612 Y1.8632 
G00 Z0.1000 
G00 X1.0704 Y1.8631 
G01 Z-0.0070 F10.00 
G01 X1.0638 Y1.8565 F20.00 
G01 X1.0769 Y1.8565 
G01 X1.0704 Y1.8631 
G00 Z0.1000 
G00 X0.9795 Y1.8210 
G01 Z-0.0070 F10.00 
G01 X0.9981 Y1.8210 F20.00 
G01 X1.0029 Y1.8258 
G01 X1.0029 Y1.8632 
G01 X0.9981 Y1.8681 
G01 X0.9795 Y1.8681 
G01 X0.9795 Y1.8210 
G00 Z0.1000 
G00 X1.7450 Y1.8210 
G01 Z-0.0070 F10.00 
G01 X1.7635 Y1.8210 F20.00 
G01 X1.7684 Y1.8258 
G01 X1.7684 Y1.8632 
G01 X1.7635 Y1.8681 
G01 X1.7450 Y1.8681 
G01 X1.7450 Y1.8210 
G00 Z0.1000 
G00 X0.4034 Y1.8532 
G01 Z-0.0070 F10.00 
G01 X0.4254 Y1.8312 F20.00 
G01 X0.4254 Y1.8312 
G01 X0.4284 Y1.8281 
G01 X0.4324 Y1.8242 
G01 X0.4354 Y1.8212 
G01 X0.4405 Y1.8160 
G01 X0.4932 Y1.8160 
G01 X0.4983 Y1.8211 
G01 X0.5013 Y1.8242 
G01 X0.5083 Y1.8312 
G01 X0.5304 Y1.8532 
G01 X0.5304 Y1.8555 
G01 X0.5029 Y1.8555 
G01 X0.4845 Y1.8370 
G01 X0.4492 Y1.8370 
G01 X0.4308 Y1.8555 
G01 X0.4034 Y1.8555 
G01 X0.4034 Y1.8532 
G00 Z0.1000 
G00 X0.3730 Y3.0466 
G01 Z-0.0070 F10.00 
G01 X0.3730 Y3.0794 F20.00 
G01 X0.3961 Y3.1025 
G01 X0.4289 Y3.1025 
G01 X0.4520 Y3.0794 
G01 X0.4520 Y3.0466 
G01 X0.4490 Y3.0436 
G01 X0.4490 Y3.0236 
G01 X0.4706 Y3.0020 
G01 X0.4944 Y3.0020 
G01 X0.4991 Y3.0011 
G01 X0.5036 Y2.9992 
G01 X0.5076 Y2.9965 
G01 X0.5110 Y2.9931 
G01 X0.5390 Y2.9651 
G01 X0.5417 Y2.9611 
G01 X0.5436 Y2.9566 
G01 X0.5445 Y2.9519 
G01 X0.5445 Y2.9442 
G01 X0.5470 Y2.9404 
G01 X0.5483 Y2.9374 
G01 X0.5639 Y2.9218 
G01 X0.5639 Y2.8866 
G01 X0.5505 Y2.8732 
G01 X0.5505 Y2.8710 
G01 X0.5493 Y2.8651 
G01 X0.5470 Y2.8596 
G01 X0.5437 Y2.8546 
G01 X0.5394 Y2.8503 
G01 X0.5344 Y2.8470 
G01 X0.5289 Y2.8447 
G01 X0.5230 Y2.8435 
G01 X0.5170 Y2.8435 
G01 X0.5111 Y2.8447 
G01 X0.5056 Y2.8470 
G01 X0.5006 Y2.8503 
G01 X0.4963 Y2.8546 
G01 X0.4930 Y2.8596 
G01 X0.4907 Y2.8651 
G01 X0.4895 Y2.8710 
G01 X0.4895 Y2.8760 
G01 X0.4789 Y2.8866 
G01 X0.4789 Y2.9218 
G01 X0.4903 Y2.9332 
G01 X0.4907 Y2.9349 
G01 X0.4930 Y2.9404 
G01 X0.4935 Y2.9413 
G01 X0.4819 Y2.9530 
G01 X0.4581 Y2.9530 
G01 X0.4534 Y2.9539 
G01 X0.4489 Y2.9558 
G01 X0.4449 Y2.9585 
G01 X0.4089 Y2.9945 
G01 X0.4055 Y2.9979 
G01 X0.4028 Y3.0019 
G01 X0.4009 Y3.0064 
G01 X0.4000 Y3.0111 
G01 X0.4000 Y3.0235 
G01 X0.3961 Y3.0235 
G01 X0.3730 Y3.0466 
G00 Z0.1000 
G00 X1.9806 Y2.6622 
G01 Z-0.0070 F10.00 
G01 X2.0158 Y2.6622 F20.00 
G01 X2.0407 Y2.6373 
G01 X2.0407 Y2.6021 
G01 X2.0158 Y2.5772 
G01 X1.9806 Y2.5772 
G01 X1.9659 Y2.5920 
G01 X1.7926 Y2.5920 
G01 X1.7879 Y2.5929 
G01 X1.7834 Y2.5948 
G01 X1.7794 Y2.5975 
G01 X1.7149 Y2.6620 
G01 X0.6821 Y2.6620 
G01 X0.6531 Y2.6330 
G01 X0.6291 Y2.6090 
G01 X0.4056 Y2.3855 
G01 X0.4016 Y2.3828 
G01 X0.3971 Y2.3809 
G01 X0.3924 Y2.3800 
G01 X0.0521 Y2.3800 
G01 X0.0445 Y2.3724 
G01 X0.0445 Y2.3442 
G01 X0.0470 Y2.3404 
G01 X0.0493 Y2.3349 
G01 X0.0505 Y2.3290 
G01 X0.0505 Y2.3257 
G01 X0.0607 Y2.3155 
G01 X0.0607 Y2.2803 
G01 X0.0503 Y2.2699 
G01 X0.0493 Y2.2651 
G01 X0.0470 Y2.2596 
G01 X0.0437 Y2.2546 
G01 X0.0394 Y2.2503 
G01 X0.0344 Y2.2470 
G01 X0.0289 Y2.2447 
G01 X0.0230 Y2.2435 
G01 X0.0170 Y2.2435 
G01 X0.0111 Y2.2447 
G01 X0.0056 Y2.2470 
G01 X0.0006 Y2.2503 
G01 X-0.0037 Y2.2546 
G01 X-0.0070 Y2.2596 
G01 X-0.0093 Y2.2651 
G01 X-0.0094 Y2.2653 
G01 X-0.0243 Y2.2803 
G01 X-0.0243 Y2.3155 
G01 X-0.0104 Y2.3294 
G01 X-0.0093 Y2.3349 
G01 X-0.0070 Y2.3404 
G01 X-0.0045 Y2.3442 
G01 X-0.0045 Y2.3849 
G01 X-0.0036 Y2.3896 
G01 X-0.0017 Y2.3941 
G01 X0.0010 Y2.3981 
G01 X0.0230 Y2.4201 
G01 X0.0264 Y2.4235 
G01 X0.0304 Y2.4262 
G01 X0.0349 Y2.4281 
G01 X0.0396 Y2.4290 
G01 X0.3799 Y2.4290 
G01 X0.5945 Y2.6436 
G01 X0.6185 Y2.6676 
G01 X0.6564 Y2.7055 
G01 X0.6604 Y2.7082 
G01 X0.6649 Y2.7101 
G01 X0.6696 Y2.7110 
G01 X1.7274 Y2.7110 
G01 X1.7321 Y2.7101 
G01 X1.7366 Y2.7082 
G01 X1.7406 Y2.7055 
G01 X1.7440 Y2.7021 
G01 X1.8051 Y2.6410 
G01 X1.9594 Y2.6410 
G01 X1.9806 Y2.6622 
G00 Z0.1000 
G00 X-0.3310 Y2.6314 
G01 Z-0.0070 F10.00 
G01 X-0.3310 Y2.6559 F20.00 
G01 X-0.3311 Y2.6560 
G01 X-0.3320 Y2.6607 
G01 X-0.3320 Y2.7010 
G01 X-0.4568 Y2.7010 
G01 X-0.5402 Y2.6044 
G01 X-0.5408 Y2.6029 
G01 X-0.5435 Y2.5989 
G01 X-0.5665 Y2.5759 
G01 X-0.5665 Y2.2361 
G01 X-0.4884 Y2.1580 
G01 X-0.4850 Y2.1546 
G01 X-0.4823 Y2.1506 
G01 X-0.4804 Y2.1461 
G01 X-0.4795 Y2.1414 
G01 X-0.4795 Y1.8083 
G01 X-0.4493 Y1.7735 
G01 X2.3512 Y1.7735 
G01 X2.4205 Y1.8052 
G01 X2.4205 Y3.1464 
G01 X2.3023 Y3.2500 
G01 X1.2217 Y3.2500 
G01 X1.2207 Y3.2449 
G01 X1.2181 Y3.2387 
G01 X1.2143 Y3.2330 
G01 X1.2095 Y3.2282 
G01 X1.2038 Y3.2244 
G01 X1.1976 Y3.2218 
G01 X1.1909 Y3.2205 
G01 X1.1841 Y3.2205 
G01 X1.1774 Y3.2218 
G01 X1.1712 Y3.2244 
G01 X1.1655 Y3.2282 
G01 X1.1607 Y3.2330 
G01 X1.1569 Y3.2387 
G01 X1.1543 Y3.2449 
G01 X1.1530 Y3.2516 
G01 X1.1530 Y3.3184 
G01 X1.1543 Y3.3251 
G01 X1.1569 Y3.3313 
G01 X1.1607 Y3.3370 
G01 X1.1655 Y3.3418 
G01 X1.1712 Y3.3456 
G01 X1.1774 Y3.3482 
G01 X1.1841 Y3.3495 
G01 X1.1909 Y3.3495 
G01 X1.1976 Y3.3482 
G01 X1.2038 Y3.3456 
G01 X1.2095 Y3.3418 
G01 X1.2143 Y3.3370 
G01 X1.2181 Y3.3313 
G01 X1.2207 Y3.3251 
G01 X1.2220 Y3.3184 
G01 X1.2220 Y3.2990 
G01 X2.3107 Y3.2990 
G01 X2.3123 Y3.2991 
G01 X2.3131 Y3.2990 
G01 X2.3139 Y3.2990 
G01 X2.3155 Y3.2987 
G01 X2.3171 Y3.2985 
G01 X2.3179 Y3.2982 
G01 X2.3186 Y3.2981 
G01 X2.3201 Y3.2974 
G01 X2.3217 Y3.2969 
G01 X2.3224 Y3.2965 
G01 X2.3231 Y3.2962 
G01 X2.3244 Y3.2953 
G01 X2.3258 Y3.2945 
G01 X2.3264 Y3.2940 
G01 X2.3271 Y3.2935 
G01 X2.3283 Y3.2924 
G01 X2.4599 Y3.1770 
G01 X2.4606 Y3.1765 
G01 X2.4618 Y3.1754 
G01 X2.4630 Y3.1743 
G01 X2.4635 Y3.1737 
G01 X2.4640 Y3.1731 
G01 X2.4649 Y3.1718 
G01 X2.4659 Y3.1705 
G01 X2.4663 Y3.1698 
G01 X2.4667 Y3.1691 
G01 X2.4673 Y3.1676 
G01 X2.4680 Y3.1662 
G01 X2.4682 Y3.1654 
G01 X2.4686 Y3.1646 
G01 X2.4689 Y3.1631 
G01 X2.4693 Y3.1615 
G01 X2.4693 Y3.1607 
G01 X2.4695 Y3.1599 
G01 X2.4695 Y3.1583 
G01 X2.4696 Y3.1567 
G01 X2.4695 Y3.1559 
G01 X2.4695 Y1.7899 
G01 X2.4696 Y1.7880 
G01 X2.4695 Y1.7875 
G01 X2.4695 Y1.7871 
G01 X2.4691 Y1.7852 
G01 X2.4688 Y1.7832 
G01 X2.4686 Y1.7828 
G01 X2.4686 Y1.7824 
G01 X2.4678 Y1.7805 
G01 X2.4671 Y1.7787 
G01 X2.4669 Y1.7783 
G01 X2.4667 Y1.7779 
G01 X2.4656 Y1.7763 
G01 X2.4646 Y1.7746 
G01 X2.4643 Y1.7743 
G01 X2.4640 Y1.7739 
G01 X2.4626 Y1.7725 
G01 X2.4613 Y1.7711 
G01 X2.4609 Y1.7708 
G01 X2.4606 Y1.7705 
G01 X2.4590 Y1.7694 
G01 X2.4574 Y1.7682 
G01 X2.4570 Y1.7680 
G01 X2.4566 Y1.7678 
G01 X2.4548 Y1.7670 
G01 X2.3685 Y1.7275 
G01 X2.3681 Y1.7273 
G01 X2.3663 Y1.7265 
G01 X2.3645 Y1.7257 
G01 X2.3641 Y1.7256 
G01 X2.3636 Y1.7254 
G01 X2.3617 Y1.7251 
G01 X2.3598 Y1.7246 
G01 X2.3594 Y1.7246 
G01 X2.3589 Y1.7245 
G01 X2.3569 Y1.7245 
G01 X2.3550 Y1.7244 
G01 X2.3545 Y1.7245 
G01 X-0.4590 Y1.7245 
G01 X-0.4598 Y1.7244 
G01 X-0.4614 Y1.7245 
G01 X-0.4629 Y1.7245 
G01 X-0.4638 Y1.7247 
G01 X-0.4647 Y1.7247 
G01 X-0.4661 Y1.7251 
G01 X-0.4676 Y1.7254 
G01 X-0.4685 Y1.7258 
G01 X-0.4693 Y1.7260 
G01 X-0.4707 Y1.7267 
G01 X-0.4721 Y1.7273 
G01 X-0.4728 Y1.7278 
G01 X-0.4736 Y1.7282 
G01 X-0.4748 Y1.7291 
G01 X-0.4761 Y1.7300 
G01 X-0.4767 Y1.7306 
G01 X-0.4774 Y1.7311 
G01 X-0.4784 Y1.7323 
G01 X-0.4795 Y1.7334 
G01 X-0.4800 Y1.7341 
G01 X-0.5174 Y1.7773 
G01 X-0.5230 Y1.7829 
G01 X-0.5257 Y1.7869 
G01 X-0.5276 Y1.7914 
G01 X-0.5285 Y1.7961 
G01 X-0.5285 Y2.1289 
G01 X-0.6100 Y2.2104 
G01 X-0.6127 Y2.2144 
G01 X-0.6146 Y2.2189 
G01 X-0.6155 Y2.2236 
G01 X-0.6155 Y2.5884 
G01 X-0.6146 Y2.5931 
G01 X-0.6127 Y2.5976 
G01 X-0.6100 Y2.6016 
G01 X-0.6066 Y2.6050 
G01 X-0.5843 Y2.6273 
G01 X-0.5842 Y2.6276 
G01 X-0.5834 Y2.6289 
G01 X-0.5826 Y2.6302 
G01 X-0.5820 Y2.6309 
G01 X-0.5815 Y2.6316 
G01 X-0.5805 Y2.6327 
G01 X-0.4875 Y2.7404 
G01 X-0.4870 Y2.7411 
G01 X-0.4860 Y2.7422 
G01 X-0.4850 Y2.7433 
G01 X-0.4843 Y2.7439 
G01 X-0.4836 Y2.7445 
G01 X-0.4824 Y2.7454 
G01 X-0.4812 Y2.7463 
G01 X-0.4804 Y2.7467 
G01 X-0.4796 Y2.7472 
G01 X-0.4782 Y2.7478 
G01 X-0.4769 Y2.7485 
G01 X-0.4760 Y2.7487 
G01 X-0.4751 Y2.7491 
G01 X-0.4737 Y2.7494 
G01 X-0.4722 Y2.7498 
G01 X-0.4713 Y2.7498 
G01 X-0.4704 Y2.7500 
G01 X-0.4689 Y2.7500 
G01 X-0.4674 Y2.7501 
G01 X-0.4665 Y2.7500 
G01 X-0.3156 Y2.7500 
G01 X-0.3109 Y2.7491 
G01 X-0.3064 Y2.7472 
G01 X-0.3024 Y2.7445 
G01 X-0.2919 Y2.7340 
G01 X-0.2885 Y2.7306 
G01 X-0.2858 Y2.7266 
G01 X-0.2839 Y2.7221 
G01 X-0.2830 Y2.7174 
G01 X-0.2830 Y2.6915 
G01 X-0.2709 Y2.6915 
G01 X-0.2460 Y2.6666 
G01 X-0.2460 Y2.6314 
G01 X-0.2709 Y2.6065 
G01 X-0.3061 Y2.6065 
G01 X-0.3310 Y2.6314 
G00 Z0.1000 
G00 X0.8885 Y2.4382 
G01 Z-0.0070 F10.00 
G01 X0.8923 Y2.4404 F20.00 
G01 X0.8965 Y2.4415 
G01 X1.2996 Y2.4415 
G01 X1.3005 Y2.4413 
G01 X1.3038 Y2.4404 
G01 X1.3076 Y2.4382 
G01 X1.3107 Y2.4351 
G01 X1.3129 Y2.4314 
G01 X1.3140 Y2.4272 
G01 X1.3140 Y2.4228 
G01 X1.3137 Y2.4220 
G01 X1.3129 Y2.4186 
G01 X1.3107 Y2.4149 
G01 X1.3076 Y2.4118 
G01 X1.2913 Y2.3955 
G01 X1.2788 Y2.3830 
G01 X1.2761 Y2.3764 
G01 X1.2758 Y2.3754 
G01 X1.2753 Y2.3744 
G01 X1.2748 Y2.3734 
G01 X1.2742 Y2.3725 
G01 X1.2736 Y2.3716 
G01 X1.2729 Y2.3708 
G01 X1.2722 Y2.3700 
G01 X1.2713 Y2.3693 
G01 X1.2706 Y2.3685 
G01 X1.2696 Y2.3680 
G01 X1.2688 Y2.3673 
G01 X1.2677 Y2.3669 
G01 X1.2668 Y2.3664 
G01 X1.2657 Y2.3661 
G01 X1.2647 Y2.3657 
G01 X1.2637 Y2.3655 
G01 X1.2626 Y2.3652 
G01 X1.2615 Y2.3652 
G01 X1.2604 Y2.3651 
G01 X1.2593 Y2.3652 
G01 X1.2583 Y2.3652 
G01 X1.2572 Y2.3655 
G01 X1.2561 Y2.3657 
G01 X1.2551 Y2.3661 
G01 X1.2541 Y2.3664 
G01 X1.2531 Y2.3669 
G01 X1.2521 Y2.3673 
G01 X1.2512 Y2.3680 
G01 X1.2503 Y2.3685 
G01 X1.2495 Y2.3693 
G01 X1.2489 Y2.3698 
G01 X1.2302 Y2.3775 
G01 X1.2098 Y2.3775 
G01 X1.1908 Y2.3697 
G01 X1.1832 Y2.3620 
G01 X1.1804 Y2.3592 
G01 X1.1801 Y2.3590 
G01 X1.1764 Y2.3568 
G01 X1.1733 Y2.3560 
G01 X1.1722 Y2.3557 
G01 X1.1678 Y2.3557 
G01 X1.1636 Y2.3568 
G01 X1.1600 Y2.3589 
G01 X1.1568 Y2.3620 
G01 X1.1492 Y2.3697 
G01 X1.1302 Y2.3775 
G01 X1.1098 Y2.3775 
G01 X1.0908 Y2.3697 
G01 X1.0832 Y2.3620 
G01 X1.0804 Y2.3592 
G01 X1.0801 Y2.3590 
G01 X1.0764 Y2.3568 
G01 X1.0733 Y2.3560 
G01 X1.0722 Y2.3557 
G01 X1.0678 Y2.3557 
G01 X1.0636 Y2.3568 
G01 X1.0600 Y2.3589 
G01 X1.0568 Y2.3620 
G01 X1.0492 Y2.3697 
G01 X1.0302 Y2.3775 
G01 X1.0098 Y2.3775 
G01 X0.9908 Y2.3697 
G01 X0.9832 Y2.3620 
G01 X0.9804 Y2.3592 
G01 X0.9801 Y2.3590 
G01 X0.9764 Y2.3568 
G01 X0.9733 Y2.3560 
G01 X0.9722 Y2.3557 
G01 X0.9678 Y2.3557 
G01 X0.9636 Y2.3568 
G01 X0.9600 Y2.3589 
G01 X0.9568 Y2.3620 
G01 X0.9492 Y2.3697 
G01 X0.9302 Y2.3775 
G01 X0.9098 Y2.3775 
G01 X0.8893 Y2.3690 
G01 X0.8884 Y2.3685 
G01 X0.8873 Y2.3682 
G01 X0.8863 Y2.3678 
G01 X0.8852 Y2.3676 
G01 X0.8842 Y2.3674 
G01 X0.8831 Y2.3674 
G01 X0.8820 Y2.3672 
G01 X0.8809 Y2.3674 
G01 X0.8798 Y2.3674 
G01 X0.8788 Y2.3676 
G01 X0.8777 Y2.3678 
G01 X0.8767 Y2.3682 
G01 X0.8756 Y2.3685 
G01 X0.8747 Y2.3690 
G01 X0.8737 Y2.3694 
G01 X0.8728 Y2.3701 
G01 X0.8719 Y2.3707 
G01 X0.8711 Y2.3714 
G01 X0.8702 Y2.3721 
G01 X0.8696 Y2.3730 
G01 X0.8688 Y2.3737 
G01 X0.8683 Y2.3747 
G01 X0.8676 Y2.3755 
G01 X0.8672 Y2.3765 
G01 X0.8666 Y2.3775 
G01 X0.8663 Y2.3785 
G01 X0.8659 Y2.3796 
G01 X0.8658 Y2.3806 
G01 X0.8655 Y2.3817 
G01 X0.8655 Y2.3828 
G01 X0.8654 Y2.3839 
G01 X0.8655 Y2.3849 
G01 X0.8655 Y2.4105 
G01 X0.8666 Y2.4147 
G01 X0.8688 Y2.4184 
G01 X0.8719 Y2.4215 
G01 X0.8885 Y2.4382 
G00 Z0.1000 
G00 X-0.6462 Y1.8175 
G01 Z-0.0070 F10.00 
G01 X-0.6454 Y1.8173 F20.00 
G01 X-0.6420 Y1.8164 
G01 X-0.6383 Y1.8142 
G01 X-0.6352 Y1.8111 
G01 X-0.6266 Y1.8025 
G01 X-0.5764 Y1.8025 
G01 X-0.5762 Y1.8028 
G01 X-0.5730 Y1.8046 
G01 X-0.5724 Y1.8050 
G01 X-0.5705 Y1.8055 
G01 X-0.5682 Y1.8061 
G01 X-0.5638 Y1.8061 
G01 X-0.5596 Y1.8050 
G01 X-0.5559 Y1.8028 
G01 X-0.5528 Y1.7998 
G01 X-0.5510 Y1.7966 
G01 X-0.5506 Y1.7960 
G01 X-0.5501 Y1.7941 
G01 X-0.5495 Y1.7918 
G01 X-0.5495 Y1.7894 
G01 X-0.5436 Y1.7753 
G01 X-0.5431 Y1.7744 
G01 X-0.5428 Y1.7733 
G01 X-0.5424 Y1.7723 
G01 X-0.5423 Y1.7712 
G01 X-0.5420 Y1.7702 
G01 X-0.5420 Y1.7691 
G01 X-0.5418 Y1.7680 
G01 X-0.5420 Y1.7669 
G01 X-0.5420 Y1.7658 
G01 X-0.5423 Y1.7648 
G01 X-0.5424 Y1.7637 
G01 X-0.5428 Y1.7627 
G01 X-0.5431 Y1.7616 
G01 X-0.5436 Y1.7607 
G01 X-0.5441 Y1.7597 
G01 X-0.5447 Y1.7588 
G01 X-0.5453 Y1.7579 
G01 X-0.5460 Y1.7571 
G01 X-0.5467 Y1.7562 
G01 X-0.5476 Y1.7556 
G01 X-0.5483 Y1.7548 
G01 X-0.5493 Y1.7543 
G01 X-0.5502 Y1.7536 
G01 X-0.5512 Y1.7532 
G01 X-0.5521 Y1.7526 
G01 X-0.5532 Y1.7523 
G01 X-0.5542 Y1.7519 
G01 X-0.5552 Y1.7518 
G01 X-0.5563 Y1.7515 
G01 X-0.5574 Y1.7515 
G01 X-0.5585 Y1.7514 
G01 X-0.5596 Y1.7515 
G01 X-0.8534 Y1.7515 
G01 X-0.8576 Y1.7526 
G01 X-0.8613 Y1.7548 
G01 X-0.8644 Y1.7579 
G01 X-0.8666 Y1.7616 
G01 X-0.8677 Y1.7658 
G01 X-0.8677 Y1.8044 
G01 X-0.8679 Y1.8055 
G01 X-0.8677 Y1.8066 
G01 X-0.8677 Y1.8077 
G01 X-0.8674 Y1.8087 
G01 X-0.8673 Y1.8098 
G01 X-0.8669 Y1.8108 
G01 X-0.8666 Y1.8119 
G01 X-0.8660 Y1.8128 
G01 X-0.8656 Y1.8138 
G01 X-0.8650 Y1.8147 
G01 X-0.8644 Y1.8156 
G01 X-0.8636 Y1.8164 
G01 X-0.8630 Y1.8173 
G01 X-0.8621 Y1.8179 
G01 X-0.8613 Y1.8187 
G01 X-0.8604 Y1.8193 
G01 X-0.8595 Y1.8199 
G01 X-0.8585 Y1.8203 
G01 X-0.8576 Y1.8209 
G01 X-0.8565 Y1.8212 
G01 X-0.8555 Y1.8216 
G01 X-0.8544 Y1.8217 
G01 X-0.8534 Y1.8220 
G01 X-0.8523 Y1.8220 
G01 X-0.8512 Y1.8221 
G01 X-0.8501 Y1.8220 
G01 X-0.8490 Y1.8220 
G01 X-0.8480 Y1.8217 
G01 X-0.8469 Y1.8216 
G01 X-0.8459 Y1.8212 
G01 X-0.8448 Y1.8209 
G01 X-0.8439 Y1.8203 
G01 X-0.8371 Y1.8175 
G01 X-0.6462 Y1.8175 
G00 Z0.1000 
G00 X-0.1262 Y2.0120 
G01 Z-0.0070 F10.00 
G01 X-0.1304 Y2.0131 F20.00 
G01 X-0.1341 Y2.0153 
G01 X-0.1372 Y2.0184 
G01 X-0.1394 Y2.0221 
G01 X-0.1405 Y2.0263 
G01 X-0.1405 Y2.0502 
G01 X-0.1402 Y2.0513 
G01 X-0.1394 Y2.0544 
G01 X-0.1372 Y2.0582 
G01 X-0.1341 Y2.0612 
G01 X-0.1304 Y2.0634 
G01 X-0.1262 Y2.0645 
G01 X-0.1218 Y2.0645 
G01 X-0.1208 Y2.0642 
G01 X-0.1176 Y2.0634 
G01 X-0.1139 Y2.0612 
G01 X-0.1108 Y2.0582 
G01 X-0.1051 Y2.0525 
G01 X-0.0553 Y2.0525 
G01 X-0.0511 Y2.0514 
G01 X-0.0474 Y2.0492 
G01 X-0.0443 Y2.0461 
G01 X-0.0421 Y2.0424 
G01 X-0.0410 Y2.0382 
G01 X-0.0410 Y2.0263 
G01 X-0.0421 Y2.0221 
G01 X-0.0443 Y2.0184 
G01 X-0.0474 Y2.0153 
G01 X-0.0511 Y2.0131 
G01 X-0.0553 Y2.0120 
G01 X-0.0597 Y2.0120 
G01 X-0.1262 Y2.0120 
G00 Z0.1000 
G00 X1.7759 Y1.8897 
G01 Z-0.0070 F10.00 
G01 X1.7759 Y1.8897 F20.00 
G01 X1.7761 Y1.8894 
G01 X1.7877 Y1.8778 
G01 X1.7897 Y1.8758 
G01 X1.7900 Y1.8756 
G01 X1.7915 Y1.8728 
G01 X1.7924 Y1.8698 
G01 X1.7924 Y1.8193 
G01 X1.7923 Y1.8191 
G01 X1.7915 Y1.8162 
G01 X1.7900 Y1.8135 
G01 X1.7877 Y1.8112 
G01 X1.7759 Y1.7994 
G01 X1.7731 Y1.7978 
G01 X1.7730 Y1.7978 
G01 X1.7701 Y1.7970 
G01 X1.7314 Y1.7970 
G01 X1.7283 Y1.7978 
G01 X1.7256 Y1.7994 
G01 X1.7234 Y1.8016 
G01 X1.7218 Y1.8044 
G01 X1.7210 Y1.8074 
G01 X1.7210 Y1.8816 
G01 X1.7218 Y1.8847 
G01 X1.7234 Y1.8874 
G01 X1.7256 Y1.8897 
G01 X1.7283 Y1.8912 
G01 X1.7314 Y1.8921 
G01 X1.7701 Y1.8921 
G01 X1.7731 Y1.8912 
G01 X1.7759 Y1.8897 
G00 Z0.1000 
G00 X1.7055 Y1.7970 
G01 Z-0.0070 F10.00 
G01 X1.6786 Y1.7970 F20.00 
G01 X1.6756 Y1.7978 
G01 X1.6728 Y1.7994 
G01 X1.6706 Y1.8016 
G01 X1.6690 Y1.8044 
G01 X1.6682 Y1.8074 
G01 X1.6682 Y1.8106 
G01 X1.6690 Y1.8136 
G01 X1.6706 Y1.8164 
G01 X1.6728 Y1.8186 
G01 X1.6756 Y1.8202 
G01 X1.6786 Y1.8210 
G01 X1.6800 Y1.8210 
G01 X1.6800 Y1.8681 
G01 X1.6786 Y1.8681 
G01 X1.6756 Y1.8689 
G01 X1.6728 Y1.8705 
G01 X1.6706 Y1.8727 
G01 X1.6690 Y1.8754 
G01 X1.6682 Y1.8785 
G01 X1.6682 Y1.8816 
G01 X1.6690 Y1.8847 
G01 X1.6706 Y1.8874 
G01 X1.6728 Y1.8897 
G01 X1.6756 Y1.8912 
G01 X1.6786 Y1.8921 
G01 X1.7055 Y1.8921 
G01 X1.7085 Y1.8912 
G01 X1.7112 Y1.8897 
G01 X1.7135 Y1.8874 
G01 X1.7151 Y1.8847 
G01 X1.7159 Y1.8816 
G01 X1.7159 Y1.8785 
G01 X1.7151 Y1.8754 
G01 X1.7135 Y1.8727 
G01 X1.7112 Y1.8705 
G01 X1.7085 Y1.8689 
G01 X1.7055 Y1.8681 
G01 X1.7040 Y1.8681 
G01 X1.7040 Y1.8210 
G01 X1.7055 Y1.8210 
G01 X1.7085 Y1.8202 
G01 X1.7112 Y1.8186 
G01 X1.7135 Y1.8164 
G01 X1.7151 Y1.8136 
G01 X1.7159 Y1.8106 
G01 X1.7159 Y1.8074 
G01 X1.7151 Y1.8044 
G01 X1.7135 Y1.8016 
G01 X1.7112 Y1.7994 
G01 X1.7085 Y1.7978 
G01 X1.7055 Y1.7970 
G00 Z0.1000 
G00 X1.6130 Y1.8816 
G01 Z-0.0070 F10.00 
G01 X1.6130 Y1.8565 F20.00 
G01 X1.6364 Y1.8565 
G01 X1.6364 Y1.8816 
G01 X1.6372 Y1.8847 
G01 X1.6388 Y1.8874 
G01 X1.6410 Y1.8897 
G01 X1.6437 Y1.8912 
G01 X1.6468 Y1.8921 
G01 X1.6500 Y1.8921 
G01 X1.6530 Y1.8912 
G01 X1.6557 Y1.8897 
G01 X1.6580 Y1.8874 
G01 X1.6596 Y1.8847 
G01 X1.6604 Y1.8816 
G01 X1.6604 Y1.8074 
G01 X1.6596 Y1.8044 
G01 X1.6580 Y1.8016 
G01 X1.6557 Y1.7994 
G01 X1.6530 Y1.7978 
G01 X1.6500 Y1.7970 
G01 X1.6468 Y1.7970 
G01 X1.6437 Y1.7978 
G01 X1.6410 Y1.7994 
G01 X1.6388 Y1.8016 
G01 X1.6372 Y1.8044 
G01 X1.6364 Y1.8074 
G01 X1.6364 Y1.8325 
G01 X1.6130 Y1.8325 
G01 X1.6130 Y1.8074 
G01 X1.6122 Y1.8044 
G01 X1.6106 Y1.8016 
G01 X1.6084 Y1.7994 
G01 X1.6056 Y1.7978 
G01 X1.6026 Y1.7970 
G01 X1.5994 Y1.7970 
G01 X1.5964 Y1.7978 
G01 X1.5936 Y1.7994 
G01 X1.5914 Y1.8016 
G01 X1.5898 Y1.8044 
G01 X1.5890 Y1.8074 
G01 X1.5890 Y1.8816 
G01 X1.5898 Y1.8847 
G01 X1.5914 Y1.8874 
G01 X1.5936 Y1.8897 
G01 X1.5964 Y1.8912 
G01 X1.5994 Y1.8921 
G01 X1.6026 Y1.8921 
G01 X1.6056 Y1.8912 
G01 X1.6084 Y1.8897 
G01 X1.6106 Y1.8874 
G01 X1.6122 Y1.8847 
G01 X1.6130 Y1.8816 
G00 Z0.1000 
G00 X1.5708 Y1.8325 
G01 Z-0.0070 F10.00 
G01 X1.5202 Y1.8325 F20.00 
G01 X1.5172 Y1.8333 
G01 X1.5144 Y1.8349 
G01 X1.5122 Y1.8372 
G01 X1.5106 Y1.8399 
G01 X1.5098 Y1.8430 
G01 X1.5098 Y1.8461 
G01 X1.5106 Y1.8492 
G01 X1.5122 Y1.8519 
G01 X1.5144 Y1.8541 
G01 X1.5172 Y1.8557 
G01 X1.5202 Y1.8565 
G01 X1.5708 Y1.8565 
G01 X1.5738 Y1.8557 
G01 X1.5766 Y1.8541 
G01 X1.5788 Y1.8519 
G01 X1.5804 Y1.8492 
G01 X1.5812 Y1.8461 
G01 X1.5812 Y1.8430 
G01 X1.5804 Y1.8399 
G01 X1.5788 Y1.8372 
G01 X1.5766 Y1.8349 
G01 X1.5738 Y1.8333 
G01 X1.5708 Y1.8325 
G00 Z0.1000 
G00 X1.0104 Y1.8897 
G01 Z-0.0070 F10.00 
G01 X1.0104 Y1.8897 F20.00 
G01 X1.0106 Y1.8894 
G01 X1.0222 Y1.8778 
G01 X1.0243 Y1.8758 
G01 X1.0245 Y1.8756 
G01 X1.0261 Y1.8728 
G01 X1.0269 Y1.8698 
G01 X1.0269 Y1.8193 
G01 X1.0268 Y1.8191 
G01 X1.0261 Y1.8162 
G01 X1.0245 Y1.8135 
G01 X1.0222 Y1.8112 
G01 X1.0104 Y1.7994 
G01 X1.0077 Y1.7978 
G01 X1.0075 Y1.7978 
G01 X1.0046 Y1.7970 
G01 X0.9659 Y1.7970 
G01 X0.9629 Y1.7978 
G01 X0.9601 Y1.7994 
G01 X0.9579 Y1.8016 
G01 X0.9563 Y1.8044 
G01 X0.9555 Y1.8074 
G01 X0.9555 Y1.8816 
G01 X0.9563 Y1.8847 
G01 X0.9579 Y1.8874 
G01 X0.9601 Y1.8897 
G01 X0.9629 Y1.8912 
G01 X0.9659 Y1.8921 
G01 X1.0046 Y1.8921 
G01 X1.0077 Y1.8912 
G01 X1.0104 Y1.8897 
G00 Z0.1000 
G00 X1.0587 Y1.8074 
G01 Z-0.0070 F10.00 
G01 X1.0579 Y1.8044 F20.00 
G01 X1.0563 Y1.8016 
G01 X1.0541 Y1.7994 
G01 X1.0513 Y1.7978 
G01 X1.0483 Y1.7970 
G01 X1.0451 Y1.7970 
G01 X1.0421 Y1.7978 
G01 X1.0393 Y1.7994 
G01 X1.0371 Y1.8016 
G01 X1.0355 Y1.8044 
G01 X1.0347 Y1.8074 
G01 X1.0347 Y1.8580 
G01 X1.0355 Y1.8610 
G01 X1.0371 Y1.8637 
G01 X1.0608 Y1.8874 
G01 X1.0630 Y1.8897 
G01 X1.0657 Y1.8912 
G01 X1.0688 Y1.8921 
G01 X1.0720 Y1.8921 
G01 X1.0750 Y1.8912 
G01 X1.0777 Y1.8897 
G01 X1.1014 Y1.8660 
G01 X1.1037 Y1.8637 
G01 X1.1052 Y1.8610 
G01 X1.1061 Y1.8580 
G01 X1.1061 Y1.8074 
G01 X1.1052 Y1.8044 
G01 X1.1037 Y1.8016 
G01 X1.1014 Y1.7994 
G01 X1.0987 Y1.7978 
G01 X1.0956 Y1.7970 
G01 X1.0925 Y1.7970 
G01 X1.0894 Y1.7978 
G01 X1.0867 Y1.7994 
G01 X1.0845 Y1.8016 
G01 X1.0829 Y1.8044 
G01 X1.0821 Y1.8074 
G01 X1.0821 Y1.8325 
G01 X1.0587 Y1.8325 
G01 X1.0587 Y1.8074 
G00 Z0.1000 
G00 X1.1139 Y1.8666 
G01 Z-0.0070 F10.00 
G01 X1.1139 Y1.8698 F20.00 
G01 X1.1147 Y1.8728 
G01 X1.1163 Y1.8756 
G01 X1.1281 Y1.8874 
G01 X1.1304 Y1.8897 
G01 X1.1331 Y1.8912 
G01 X1.1361 Y1.8921 
G01 X1.1630 Y1.8921 
G01 X1.1659 Y1.8913 
G01 X1.1660 Y1.8912 
G01 X1.1688 Y1.8897 
G01 X1.1806 Y1.8778 
G01 X1.1829 Y1.8756 
G01 X1.1844 Y1.8728 
G01 X1.1852 Y1.8699 
G01 X1.1852 Y1.8698 
G01 X1.1852 Y1.8193 
G01 X1.1844 Y1.8162 
G01 X1.1837 Y1.8149 
G01 X1.1844 Y1.8136 
G01 X1.1852 Y1.8106 
G01 X1.1852 Y1.8074 
G01 X1.1844 Y1.8044 
G01 X1.1829 Y1.8016 
G01 X1.1806 Y1.7994 
G01 X1.1779 Y1.7978 
G01 X1.1748 Y1.7970 
G01 X1.1717 Y1.7970 
G01 X1.1686 Y1.7978 
G01 X1.1673 Y1.7986 
G01 X1.1661 Y1.7979 
G01 X1.1630 Y1.7970 
G01 X1.1361 Y1.7970 
G01 X1.1331 Y1.7978 
G01 X1.1304 Y1.7994 
G01 X1.1163 Y1.8135 
G01 X1.1147 Y1.8162 
G01 X1.1139 Y1.8193 
G01 X1.1139 Y1.8224 
G01 X1.1139 Y1.8666 
G00 Z0.1000 
G00 X1.2723 Y1.8816 
G01 Z-0.0070 F10.00 
G01 X1.2731 Y1.8847 F20.00 
G01 X1.2746 Y1.8874 
G01 X1.2769 Y1.8897 
G01 X1.2796 Y1.8912 
G01 X1.2827 Y1.8921 
G01 X1.2858 Y1.8921 
G01 X1.2889 Y1.8912 
G01 X1.2916 Y1.8897 
G01 X1.2939 Y1.8874 
G01 X1.2954 Y1.8847 
G01 X1.2963 Y1.8816 
G01 X1.2963 Y1.8258 
G01 X1.3011 Y1.8210 
G01 X1.3148 Y1.8210 
G01 X1.3196 Y1.8258 
G01 X1.3196 Y1.8816 
G01 X1.3204 Y1.8847 
G01 X1.3220 Y1.8874 
G01 X1.3243 Y1.8897 
G01 X1.3270 Y1.8912 
G01 X1.3300 Y1.8921 
G01 X1.3332 Y1.8921 
G01 X1.3363 Y1.8912 
G01 X1.3390 Y1.8897 
G01 X1.3412 Y1.8874 
G01 X1.3428 Y1.8847 
G01 X1.3436 Y1.8816 
G01 X1.3436 Y1.8193 
G01 X1.3436 Y1.8191 
G01 X1.3428 Y1.8162 
G01 X1.3413 Y1.8135 
G01 X1.3390 Y1.8112 
G01 X1.3271 Y1.7994 
G01 X1.3244 Y1.7978 
G01 X1.3243 Y1.7978 
G01 X1.3214 Y1.7970 
G01 X1.2945 Y1.7970 
G01 X1.2915 Y1.7978 
G01 X1.2887 Y1.7994 
G01 X1.2865 Y1.8016 
G01 X1.2746 Y1.8135 
G01 X1.2731 Y1.8162 
G01 X1.2723 Y1.8193 
G01 X1.2723 Y1.8224 
G01 X1.2723 Y1.8816 
G00 Z0.1000 
G00 X1.4063 Y1.8897 
G01 Z-0.0070 F10.00 
G01 X1.4063 Y1.8897 F20.00 
G01 X1.4066 Y1.8894 
G01 X1.4204 Y1.8756 
G01 X1.4220 Y1.8728 
G01 X1.4228 Y1.8698 
G01 X1.4228 Y1.8666 
G01 X1.4220 Y1.8636 
G01 X1.4204 Y1.8608 
G01 X1.4182 Y1.8586 
G01 X1.4154 Y1.8570 
G01 X1.4124 Y1.8562 
G01 X1.4092 Y1.8562 
G01 X1.4062 Y1.8570 
G01 X1.4034 Y1.8586 
G01 X1.3940 Y1.8681 
G01 X1.3803 Y1.8681 
G01 X1.3754 Y1.8632 
G01 X1.3754 Y1.8613 
G01 X1.3803 Y1.8565 
G01 X1.4005 Y1.8565 
G01 X1.4035 Y1.8557 
G01 X1.4036 Y1.8557 
G01 X1.4063 Y1.8541 
G01 X1.4182 Y1.8423 
G01 X1.4204 Y1.8401 
G01 X1.4220 Y1.8373 
G01 X1.4228 Y1.8344 
G01 X1.4228 Y1.8343 
G01 X1.4228 Y1.8193 
G01 X1.4220 Y1.8162 
G01 X1.4204 Y1.8135 
G01 X1.4202 Y1.8133 
G01 X1.4182 Y1.8112 
G01 X1.4066 Y1.7996 
G01 X1.4063 Y1.7994 
G01 X1.4037 Y1.7979 
G01 X1.4005 Y1.7970 
G01 X1.3737 Y1.7970 
G01 X1.3706 Y1.7978 
G01 X1.3679 Y1.7994 
G01 X1.3538 Y1.8135 
G01 X1.3523 Y1.8162 
G01 X1.3514 Y1.8193 
G01 X1.3514 Y1.8224 
G01 X1.3523 Y1.8255 
G01 X1.3538 Y1.8282 
G01 X1.3561 Y1.8304 
G01 X1.3588 Y1.8320 
G01 X1.3619 Y1.8328 
G01 X1.3650 Y1.8328 
G01 X1.3681 Y1.8320 
G01 X1.3708 Y1.8304 
G01 X1.3803 Y1.8210 
G01 X1.3940 Y1.8210 
G01 X1.3988 Y1.8258 
G01 X1.3988 Y1.8277 
G01 X1.3940 Y1.8325 
G01 X1.3737 Y1.8325 
G01 X1.3736 Y1.8326 
G01 X1.3706 Y1.8333 
G01 X1.3680 Y1.8349 
G01 X1.3657 Y1.8372 
G01 X1.3538 Y1.8490 
G01 X1.3523 Y1.8517 
G01 X1.3522 Y1.8519 
G01 X1.3514 Y1.8548 
G01 X1.3514 Y1.8698 
G01 X1.3523 Y1.8728 
G01 X1.3538 Y1.8756 
G01 X1.3561 Y1.8778 
G01 X1.3679 Y1.8897 
G01 X1.3706 Y1.8912 
G01 X1.3737 Y1.8921 
G01 X1.4005 Y1.8921 
G01 X1.4036 Y1.8912 
G01 X1.4063 Y1.8897 
G00 Z0.1000 
G00 X1.4442 Y1.7970 
G01 Z-0.0070 F10.00 
G01 X1.4410 Y1.7970 F20.00 
G01 X1.4380 Y1.7978 
G01 X1.4353 Y1.7994 
G01 X1.4330 Y1.8016 
G01 X1.4314 Y1.8044 
G01 X1.4306 Y1.8074 
G01 X1.4306 Y1.8816 
G01 X1.4314 Y1.8847 
G01 X1.4330 Y1.8874 
G01 X1.4353 Y1.8897 
G01 X1.4380 Y1.8912 
G01 X1.4410 Y1.8921 
G01 X1.4797 Y1.8921 
G01 X1.4827 Y1.8913 
G01 X1.4828 Y1.8912 
G01 X1.4855 Y1.8897 
G01 X1.4974 Y1.8778 
G01 X1.4996 Y1.8756 
G01 X1.5012 Y1.8728 
G01 X1.5020 Y1.8699 
G01 X1.5020 Y1.8698 
G01 X1.5020 Y1.8548 
G01 X1.5012 Y1.8517 
G01 X1.4996 Y1.8490 
G01 X1.4951 Y1.8445 
G01 X1.4974 Y1.8423 
G01 X1.4996 Y1.8401 
G01 X1.5012 Y1.8373 
G01 X1.5020 Y1.8344 
G01 X1.5020 Y1.8343 
G01 X1.5020 Y1.8193 
G01 X1.5012 Y1.8162 
G01 X1.4996 Y1.8135 
G01 X1.4994 Y1.8133 
G01 X1.4974 Y1.8112 
G01 X1.4857 Y1.7996 
G01 X1.4855 Y1.7994 
G01 X1.4829 Y1.7979 
G01 X1.4797 Y1.7970 
G01 X1.4442 Y1.7970 
G00 Z0.1000 
G00 X0.6455 Y2.0834 
G01 Z-0.0070 F10.00 
G01 X0.6305 Y2.0984 F20.00 
G01 X0.6305 Y2.1202 
G01 X0.6055 Y2.1402 
G01 X0.6044 Y2.1410 
G01 X0.6036 Y2.1417 
G01 X0.6028 Y2.1424 
G01 X0.6019 Y2.1434 
G01 X0.6010 Y2.1444 
G01 X0.6004 Y2.1453 
G01 X0.5997 Y2.1461 
G01 X0.5990 Y2.1473 
G01 X0.5983 Y2.1484 
G01 X0.5979 Y2.1494 
G01 X0.5974 Y2.1503 
G01 X0.5970 Y2.1516 
G01 X0.5964 Y2.1529 
G01 X0.5962 Y2.1539 
G01 X0.5959 Y2.1549 
G01 X0.5958 Y2.1563 
G01 X0.5955 Y2.1576 
G01 X0.5955 Y2.1586 
G01 X0.5954 Y2.1597 
G01 X0.5955 Y2.1611 
G01 X0.5955 Y2.2558 
G01 X0.5930 Y2.2596 
G01 X0.5907 Y2.2651 
G01 X0.5906 Y2.2656 
G01 X0.5759 Y2.2803 
G01 X0.5759 Y2.3155 
G01 X0.5895 Y2.3291 
G01 X0.5907 Y2.3349 
G01 X0.5930 Y2.3404 
G01 X0.5963 Y2.3454 
G01 X0.6006 Y2.3497 
G01 X0.6056 Y2.3530 
G01 X0.6111 Y2.3553 
G01 X0.6170 Y2.3565 
G01 X0.6230 Y2.3565 
G01 X0.6289 Y2.3553 
G01 X0.6344 Y2.3530 
G01 X0.6394 Y2.3497 
G01 X0.6437 Y2.3454 
G01 X0.6470 Y2.3404 
G01 X0.6493 Y2.3349 
G01 X0.6505 Y2.3290 
G01 X0.6505 Y2.3259 
G01 X0.6609 Y2.3155 
G01 X0.6609 Y2.2803 
G01 X0.6502 Y2.2696 
G01 X0.6493 Y2.2651 
G01 X0.6470 Y2.2596 
G01 X0.6445 Y2.2558 
G01 X0.6445 Y2.1718 
G01 X0.6547 Y2.1636 
G01 X0.6574 Y2.1655 
G01 X0.6623 Y2.1675 
G01 X0.6674 Y2.1685 
G01 X0.6726 Y2.1685 
G01 X0.6777 Y2.1675 
G01 X0.6826 Y2.1655 
G01 X0.6869 Y2.1626 
G01 X0.6906 Y2.1589 
G01 X0.6914 Y2.1577 
G01 X0.7155 Y2.1336 
G01 X0.7155 Y2.0984 
G01 X0.6945 Y2.0774 
G01 X0.6945 Y2.0091 
G01 X0.7094 Y1.9941 
G01 X0.7094 Y1.9589 
G01 X0.6845 Y1.9340 
G01 X0.6493 Y1.9340 
G01 X0.6244 Y1.9589 
G01 X0.6244 Y1.9941 
G01 X0.6455 Y2.0152 
G01 X0.6455 Y2.0834 
G00 Z0.1000 
G00 X1.7505 Y2.3290 
G01 Z-0.0070 F10.00 
G01 X1.7505 Y2.3233 F20.00 
G01 X1.7583 Y2.3155 
G01 X1.7583 Y2.2803 
G01 X1.7505 Y2.2724 
G01 X1.7505 Y2.2710 
G01 X1.7493 Y2.2651 
G01 X1.7470 Y2.2596 
G01 X1.7445 Y2.2558 
G01 X1.7445 Y2.1843 
G01 X1.7468 Y2.1820 
G01 X1.7506 Y2.1763 
G01 X1.7532 Y2.1701 
G01 X1.7545 Y2.1634 
G01 X1.7545 Y2.1617 
G01 X1.7644 Y2.1518 
G01 X1.7644 Y2.1166 
G01 X1.7545 Y2.1067 
G01 X1.7545 Y2.0966 
G01 X1.7532 Y2.0899 
G01 X1.7506 Y2.0837 
G01 X1.7468 Y2.0780 
G01 X1.7420 Y2.0732 
G01 X1.7363 Y2.0694 
G01 X1.7301 Y2.0668 
G01 X1.7234 Y2.0655 
G01 X1.7166 Y2.0655 
G01 X1.7099 Y2.0668 
G01 X1.7037 Y2.0694 
G01 X1.6980 Y2.0732 
G01 X1.6932 Y2.0780 
G01 X1.6894 Y2.0837 
G01 X1.6868 Y2.0899 
G01 X1.6855 Y2.0966 
G01 X1.6855 Y2.1105 
G01 X1.6794 Y2.1166 
G01 X1.6794 Y2.1518 
G01 X1.6855 Y2.1579 
G01 X1.6855 Y2.1634 
G01 X1.6868 Y2.1701 
G01 X1.6894 Y2.1763 
G01 X1.6932 Y2.1820 
G01 X1.6955 Y2.1843 
G01 X1.6955 Y2.2558 
G01 X1.6930 Y2.2596 
G01 X1.6922 Y2.2614 
G01 X1.6733 Y2.2803 
G01 X1.6733 Y2.3155 
G01 X1.6902 Y2.3323 
G01 X1.6907 Y2.3349 
G01 X1.6930 Y2.3404 
G01 X1.6963 Y2.3454 
G01 X1.7006 Y2.3497 
G01 X1.7056 Y2.3530 
G01 X1.7111 Y2.3553 
G01 X1.7170 Y2.3565 
G01 X1.7230 Y2.3565 
G01 X1.7289 Y2.3553 
G01 X1.7344 Y2.3530 
G01 X1.7394 Y2.3497 
G01 X1.7437 Y2.3454 
G01 X1.7470 Y2.3404 
G01 X1.7493 Y2.3349 
G01 X1.7505 Y2.3290 
G00 Z0.1000 
G00 X1.5505 Y2.3290 
G01 Z-0.0070 F10.00 
G01 X1.5505 Y2.3232 F20.00 
G01 X1.5582 Y2.3155 
G01 X1.5582 Y2.2803 
G01 X1.5505 Y2.2725 
G01 X1.5505 Y2.2710 
G01 X1.5493 Y2.2651 
G01 X1.5470 Y2.2596 
G01 X1.5445 Y2.2558 
G01 X1.5445 Y2.1843 
G01 X1.5468 Y2.1820 
G01 X1.5506 Y2.1763 
G01 X1.5532 Y2.1701 
G01 X1.5545 Y2.1634 
G01 X1.5545 Y2.1616 
G01 X1.5643 Y2.1518 
G01 X1.5643 Y2.1166 
G01 X1.5545 Y2.1068 
G01 X1.5545 Y2.0966 
G01 X1.5532 Y2.0899 
G01 X1.5506 Y2.0837 
G01 X1.5468 Y2.0780 
G01 X1.5420 Y2.0732 
G01 X1.5363 Y2.0694 
G01 X1.5301 Y2.0668 
G01 X1.5234 Y2.0655 
G01 X1.5166 Y2.0655 
G01 X1.5099 Y2.0668 
G01 X1.5037 Y2.0694 
G01 X1.4980 Y2.0732 
G01 X1.4932 Y2.0780 
G01 X1.4894 Y2.0837 
G01 X1.4868 Y2.0899 
G01 X1.4855 Y2.0966 
G01 X1.4855 Y2.1104 
G01 X1.4793 Y2.1166 
G01 X1.4793 Y2.1518 
G01 X1.4855 Y2.1580 
G01 X1.4855 Y2.1634 
G01 X1.4868 Y2.1701 
G01 X1.4894 Y2.1763 
G01 X1.4932 Y2.1820 
G01 X1.4955 Y2.1843 
G01 X1.4955 Y2.2558 
G01 X1.4930 Y2.2596 
G01 X1.4923 Y2.2612 
G01 X1.4732 Y2.2803 
G01 X1.4732 Y2.3155 
G01 X1.4902 Y2.3324 
G01 X1.4907 Y2.3349 
G01 X1.4930 Y2.3404 
G01 X1.4963 Y2.3454 
G01 X1.5006 Y2.3497 
G01 X1.5056 Y2.3530 
G01 X1.5111 Y2.3553 
G01 X1.5170 Y2.3565 
G01 X1.5230 Y2.3565 
G01 X1.5289 Y2.3553 
G01 X1.5344 Y2.3530 
G01 X1.5394 Y2.3497 
G01 X1.5437 Y2.3454 
G01 X1.5470 Y2.3404 
G01 X1.5493 Y2.3349 
G01 X1.5505 Y2.3290 
G00 Z0.1000 
G00 X1.3505 Y2.3290 
G01 Z-0.0070 F10.00 
G01 X1.3505 Y2.3231 F20.00 
G01 X1.3582 Y2.3155 
G01 X1.3582 Y2.2803 
G01 X1.3505 Y2.2726 
G01 X1.3505 Y2.2710 
G01 X1.3493 Y2.2651 
G01 X1.3470 Y2.2596 
G01 X1.3437 Y2.2546 
G01 X1.3394 Y2.2503 
G01 X1.3344 Y2.2470 
G01 X1.3289 Y2.2447 
G01 X1.3230 Y2.2435 
G01 X1.3170 Y2.2435 
G01 X1.3111 Y2.2447 
G01 X1.3056 Y2.2470 
G01 X1.3006 Y2.2503 
G01 X1.2963 Y2.2546 
G01 X1.2930 Y2.2596 
G01 X1.2923 Y2.2611 
G01 X1.2732 Y2.2803 
G01 X1.2732 Y2.3155 
G01 X1.2902 Y2.3325 
G01 X1.2907 Y2.3349 
G01 X1.2930 Y2.3404 
G01 X1.2935 Y2.3412 
G01 X1.2935 Y2.3622 
G01 X1.2949 Y2.3674 
G01 X1.2976 Y2.3721 
G01 X1.3014 Y2.3759 
G01 X1.3464 Y2.4209 
G01 X1.3511 Y2.4236 
G01 X1.3563 Y2.4250 
G01 X1.8642 Y2.4250 
G01 X1.8694 Y2.4236 
G01 X1.8741 Y2.4209 
G01 X1.8779 Y2.4171 
G01 X1.9010 Y2.3940 
G01 X1.9031 Y2.3936 
G01 X1.9076 Y2.3917 
G01 X1.9116 Y2.3890 
G01 X2.0146 Y2.2860 
G01 X2.0671 Y2.2860 
G01 X2.0758 Y2.2947 
G01 X2.1110 Y2.2947 
G01 X2.1359 Y2.2698 
G01 X2.1359 Y2.2346 
G01 X2.1110 Y2.2097 
G01 X2.0758 Y2.2097 
G01 X2.0509 Y2.2346 
G01 X2.0509 Y2.2370 
G01 X2.0021 Y2.2370 
G01 X1.9974 Y2.2379 
G01 X1.9929 Y2.2398 
G01 X1.9889 Y2.2425 
G01 X1.8770 Y2.3544 
G01 X1.8743 Y2.3584 
G01 X1.8724 Y2.3629 
G01 X1.8720 Y2.3650 
G01 X1.8530 Y2.3840 
G01 X1.3675 Y2.3840 
G01 X1.3357 Y2.3522 
G01 X1.3394 Y2.3497 
G01 X1.3437 Y2.3454 
G01 X1.3470 Y2.3404 
G01 X1.3493 Y2.3349 
G01 X1.3505 Y2.3290 
G00 Z0.1000 
G00 X1.1505 Y2.3290 
G01 Z-0.0070 F10.00 
G01 X1.1505 Y2.3252 F20.00 
G01 X1.1602 Y2.3155 
G01 X1.1602 Y2.2803 
G01 X1.1504 Y2.2704 
G01 X1.1493 Y2.2651 
G01 X1.1470 Y2.2596 
G01 X1.1445 Y2.2558 
G01 X1.1445 Y2.2501 
G01 X1.1856 Y2.2090 
G01 X1.1890 Y2.2056 
G01 X1.1917 Y2.2016 
G01 X1.1936 Y2.1971 
G01 X1.1945 Y2.1924 
G01 X1.1945 Y2.1843 
G01 X1.1968 Y2.1820 
G01 X1.2006 Y2.1763 
G01 X1.2032 Y2.1701 
G01 X1.2045 Y2.1634 
G01 X1.2045 Y2.1599 
G01 X1.2127 Y2.1518 
G01 X1.2127 Y2.1166 
G01 X1.2045 Y2.1084 
G01 X1.2045 Y2.0966 
G01 X1.2032 Y2.0899 
G01 X1.2006 Y2.0837 
G01 X1.1968 Y2.0780 
G01 X1.1920 Y2.0732 
G01 X1.1863 Y2.0694 
G01 X1.1801 Y2.0668 
G01 X1.1734 Y2.0655 
G01 X1.1666 Y2.0655 
G01 X1.1599 Y2.0668 
G01 X1.1537 Y2.0694 
G01 X1.1480 Y2.0732 
G01 X1.1432 Y2.0780 
G01 X1.1394 Y2.0837 
G01 X1.1368 Y2.0899 
G01 X1.1355 Y2.0966 
G01 X1.1355 Y2.1087 
G01 X1.1277 Y2.1166 
G01 X1.1277 Y2.1518 
G01 X1.1355 Y2.1596 
G01 X1.1355 Y2.1634 
G01 X1.1368 Y2.1701 
G01 X1.1394 Y2.1763 
G01 X1.1432 Y2.1820 
G01 X1.1010 Y2.2244 
G01 X1.0983 Y2.2284 
G01 X1.0964 Y2.2329 
G01 X1.0955 Y2.2376 
G01 X1.0955 Y2.2558 
G01 X1.0930 Y2.2596 
G01 X1.0909 Y2.2646 
G01 X1.0752 Y2.2803 
G01 X1.0752 Y2.3155 
G01 X1.0897 Y2.3299 
G01 X1.0907 Y2.3349 
G01 X1.0930 Y2.3404 
G01 X1.0963 Y2.3454 
G01 X1.1006 Y2.3497 
G01 X1.1056 Y2.3530 
G01 X1.1111 Y2.3553 
G01 X1.1170 Y2.3565 
G01 X1.1230 Y2.3565 
G01 X1.1289 Y2.3553 
G01 X1.1344 Y2.3530 
G01 X1.1394 Y2.3497 
G01 X1.1437 Y2.3454 
G01 X1.1470 Y2.3404 
G01 X1.1493 Y2.3349 
G01 X1.1505 Y2.3290 
G00 Z0.1000 
G00 X0.9505 Y2.3290 
G01 Z-0.0070 F10.00 
G01 X0.9505 Y2.3230 F20.00 
G01 X0.9580 Y2.3155 
G01 X0.9580 Y2.2803 
G01 X0.9505 Y2.2728 
G01 X0.9505 Y2.2710 
G01 X0.9493 Y2.2651 
G01 X0.9470 Y2.2596 
G01 X0.9445 Y2.2558 
G01 X0.9445 Y2.2308 
G01 X0.9709 Y2.2044 
G01 X0.9736 Y2.2003 
G01 X0.9754 Y2.1959 
G01 X0.9758 Y2.1939 
G01 X0.9803 Y2.1921 
G01 X0.9860 Y2.1883 
G01 X0.9908 Y2.1835 
G01 X0.9946 Y2.1778 
G01 X0.9972 Y2.1716 
G01 X0.9985 Y2.1649 
G01 X0.9985 Y2.1537 
G01 X1.0005 Y2.1518 
G01 X1.0005 Y2.1166 
G01 X0.9985 Y2.1146 
G01 X0.9985 Y2.0981 
G01 X0.9972 Y2.0914 
G01 X0.9946 Y2.0852 
G01 X0.9908 Y2.0795 
G01 X0.9860 Y2.0747 
G01 X0.9803 Y2.0709 
G01 X0.9741 Y2.0683 
G01 X0.9674 Y2.0670 
G01 X0.9606 Y2.0670 
G01 X0.9539 Y2.0683 
G01 X0.9477 Y2.0709 
G01 X0.9420 Y2.0747 
G01 X0.9372 Y2.0795 
G01 X0.9334 Y2.0852 
G01 X0.9310 Y2.0910 
G01 X0.9302 Y2.0923 
G01 X0.9283 Y2.0967 
G01 X0.9274 Y2.1014 
G01 X0.9274 Y2.1046 
G01 X0.9155 Y2.1166 
G01 X0.9155 Y2.1518 
G01 X0.9274 Y2.1637 
G01 X0.9274 Y2.1786 
G01 X0.9010 Y2.2050 
G01 X0.8983 Y2.2090 
G01 X0.8964 Y2.2135 
G01 X0.8955 Y2.2182 
G01 X0.8955 Y2.2558 
G01 X0.8930 Y2.2596 
G01 X0.8924 Y2.2608 
G01 X0.8730 Y2.2803 
G01 X0.8730 Y2.3155 
G01 X0.8902 Y2.3327 
G01 X0.8907 Y2.3349 
G01 X0.8930 Y2.3404 
G01 X0.8963 Y2.3454 
G01 X0.9006 Y2.3497 
G01 X0.9056 Y2.3530 
G01 X0.9111 Y2.3553 
G01 X0.9170 Y2.3565 
G01 X0.9230 Y2.3565 
G01 X0.9289 Y2.3553 
G01 X0.9344 Y2.3530 
G01 X0.9394 Y2.3497 
G01 X0.9437 Y2.3454 
G01 X0.9470 Y2.3404 
G01 X0.9493 Y2.3349 
G01 X0.9505 Y2.3290 
G00 Z0.1000 
G00 X0.8505 Y2.3290 
G01 Z-0.0070 F10.00 
G01 X0.8505 Y2.3260 F20.00 
G01 X0.8610 Y2.3155 
G01 X0.8610 Y2.2803 
G01 X0.8502 Y2.2695 
G01 X0.8493 Y2.2651 
G01 X0.8470 Y2.2596 
G01 X0.8437 Y2.2546 
G01 X0.8394 Y2.2503 
G01 X0.8344 Y2.2470 
G01 X0.8289 Y2.2447 
G01 X0.8230 Y2.2435 
G01 X0.8170 Y2.2435 
G01 X0.8111 Y2.2447 
G01 X0.8056 Y2.2470 
G01 X0.8006 Y2.2503 
G01 X0.7963 Y2.2546 
G01 X0.7930 Y2.2596 
G01 X0.7907 Y2.2651 
G01 X0.7905 Y2.2657 
G01 X0.7760 Y2.2803 
G01 X0.7760 Y2.3155 
G01 X0.7895 Y2.3290 
G01 X0.7907 Y2.3349 
G01 X0.7930 Y2.3404 
G01 X0.7955 Y2.3442 
G01 X0.7955 Y2.4364 
G01 X0.7964 Y2.4411 
G01 X0.7983 Y2.4456 
G01 X0.8010 Y2.4496 
G01 X0.8574 Y2.5060 
G01 X0.8614 Y2.5087 
G01 X0.8659 Y2.5106 
G01 X0.8706 Y2.5115 
G01 X1.9074 Y2.5115 
G01 X1.9121 Y2.5106 
G01 X1.9166 Y2.5087 
G01 X1.9206 Y2.5060 
G01 X2.0276 Y2.3990 
G01 X2.1834 Y2.3990 
G01 X2.1881 Y2.3981 
G01 X2.1926 Y2.3962 
G01 X2.1966 Y2.3935 
G01 X2.2536 Y2.3365 
G01 X2.2570 Y2.3331 
G01 X2.2597 Y2.3291 
G01 X2.2616 Y2.3246 
G01 X2.2625 Y2.3199 
G01 X2.2625 Y2.1629 
G01 X2.2724 Y2.1530 
G01 X2.3269 Y2.1530 
G01 X2.3575 Y2.1836 
G01 X2.3575 Y2.4369 
G01 X2.3584 Y2.4416 
G01 X2.3590 Y2.4430 
G01 X2.3590 Y3.0848 
G01 X2.2739 Y3.1585 
G01 X1.1496 Y3.1585 
G01 X1.1449 Y3.1594 
G01 X1.1404 Y3.1613 
G01 X1.1364 Y3.1640 
G01 X1.1330 Y3.1674 
G01 X1.0867 Y3.2136 
G01 X1.0475 Y3.1744 
G01 X1.0475 Y3.1148 
G01 X1.0492 Y3.1130 
G01 X1.0530 Y3.1074 
G01 X1.0556 Y3.1011 
G01 X1.0569 Y3.0944 
G01 X1.0569 Y3.0878 
G01 X1.0642 Y3.0806 
G01 X1.0642 Y3.0454 
G01 X1.0569 Y3.0382 
G01 X1.0569 Y3.0276 
G01 X1.0556 Y3.0210 
G01 X1.0530 Y3.0147 
G01 X1.0492 Y3.0090 
G01 X1.0469 Y3.0067 
G01 X1.0469 Y2.9406 
G01 X1.0470 Y2.9404 
G01 X1.0493 Y2.9349 
G01 X1.0497 Y2.9332 
G01 X1.0611 Y2.9218 
G01 X1.0611 Y2.8866 
G01 X1.0505 Y2.8760 
G01 X1.0505 Y2.8710 
G01 X1.0493 Y2.8651 
G01 X1.0470 Y2.8596 
G01 X1.0437 Y2.8546 
G01 X1.0394 Y2.8503 
G01 X1.0344 Y2.8470 
G01 X1.0289 Y2.8447 
G01 X1.0230 Y2.8435 
G01 X1.0170 Y2.8435 
G01 X1.0111 Y2.8447 
G01 X1.0056 Y2.8470 
G01 X1.0006 Y2.8503 
G01 X0.9963 Y2.8546 
G01 X0.9930 Y2.8596 
G01 X0.9907 Y2.8651 
G01 X0.9895 Y2.8710 
G01 X0.9895 Y2.8732 
G01 X0.9761 Y2.8866 
G01 X0.9761 Y2.9218 
G01 X0.9917 Y2.9374 
G01 X0.9930 Y2.9404 
G01 X0.9955 Y2.9442 
G01 X0.9955 Y3.0092 
G01 X0.9919 Y3.0147 
G01 X0.9893 Y3.0210 
G01 X0.9879 Y3.0276 
G01 X0.9879 Y3.0366 
G01 X0.9792 Y3.0454 
G01 X0.9792 Y3.0806 
G01 X0.9879 Y3.0894 
G01 X0.9879 Y3.0944 
G01 X0.9893 Y3.1011 
G01 X0.9919 Y3.1074 
G01 X0.9955 Y3.1128 
G01 X0.9955 Y3.1839 
G01 X0.9964 Y3.1886 
G01 X0.9983 Y3.1931 
G01 X1.0010 Y3.1971 
G01 X1.0012 Y3.1973 
G01 X1.0013 Y3.1976 
G01 X1.0040 Y3.2016 
G01 X1.0074 Y3.2050 
G01 X1.0532 Y3.2508 
G01 X1.0530 Y3.2516 
G01 X1.0530 Y3.3184 
G01 X1.0543 Y3.3251 
G01 X1.0569 Y3.3313 
G01 X1.0607 Y3.3370 
G01 X1.0655 Y3.3418 
G01 X1.0712 Y3.3456 
G01 X1.0774 Y3.3482 
G01 X1.0841 Y3.3495 
G01 X1.0909 Y3.3495 
G01 X1.0976 Y3.3482 
G01 X1.1038 Y3.3456 
G01 X1.1095 Y3.3418 
G01 X1.1143 Y3.3370 
G01 X1.1181 Y3.3313 
G01 X1.1207 Y3.3251 
G01 X1.1220 Y3.3184 
G01 X1.1220 Y3.2516 
G01 X1.1213 Y3.2483 
G01 X1.1621 Y3.2075 
G01 X2.2821 Y3.2075 
G01 X2.2836 Y3.2076 
G01 X2.2845 Y3.2075 
G01 X2.2854 Y3.2075 
G01 X2.2869 Y3.2072 
G01 X2.2884 Y3.2070 
G01 X2.2893 Y3.2067 
G01 X2.2901 Y3.2066 
G01 X2.2916 Y3.2060 
G01 X2.2930 Y3.2055 
G01 X2.2938 Y3.2051 
G01 X2.2946 Y3.2047 
G01 X2.2959 Y3.2039 
G01 X2.2972 Y3.2031 
G01 X2.2979 Y3.2025 
G01 X2.2986 Y3.2020 
G01 X2.2997 Y3.2009 
G01 X2.3984 Y3.1155 
G01 X2.3991 Y3.1150 
G01 X2.4002 Y3.1139 
G01 X2.4014 Y3.1129 
G01 X2.4019 Y3.1122 
G01 X2.4025 Y3.1116 
G01 X2.4034 Y3.1103 
G01 X2.4043 Y3.1091 
G01 X2.4047 Y3.1083 
G01 X2.4052 Y3.1076 
G01 X2.4058 Y3.1062 
G01 X2.4065 Y3.1048 
G01 X2.4067 Y3.1040 
G01 X2.4071 Y3.1031 
G01 X2.4074 Y3.1016 
G01 X2.4078 Y3.1002 
G01 X2.4078 Y3.0993 
G01 X2.4080 Y3.0984 
G01 X2.4080 Y3.0969 
G01 X2.4081 Y3.0954 
G01 X2.4080 Y3.0945 
G01 X2.4080 Y2.4141 
G01 X2.4071 Y2.4094 
G01 X2.4065 Y2.4080 
G01 X2.4065 Y2.1711 
G01 X2.4056 Y2.1664 
G01 X2.4037 Y2.1619 
G01 X2.4010 Y2.1579 
G01 X2.3526 Y2.1095 
G01 X2.3486 Y2.1068 
G01 X2.3441 Y2.1049 
G01 X2.3394 Y2.1040 
G01 X2.2649 Y2.1040 
G01 X2.2506 Y2.0898 
G01 X2.2154 Y2.0898 
G01 X2.1905 Y2.1147 
G01 X2.1905 Y2.1499 
G01 X2.2135 Y2.1729 
G01 X2.2135 Y2.3074 
G01 X2.1709 Y2.3500 
G01 X2.0151 Y2.3500 
G01 X2.0104 Y2.3509 
G01 X2.0059 Y2.3528 
G01 X2.0019 Y2.3555 
G01 X1.9985 Y2.3589 
G01 X1.8949 Y2.4625 
G01 X0.8831 Y2.4625 
G01 X0.8445 Y2.4239 
G01 X0.8445 Y2.3442 
G01 X0.8470 Y2.3404 
G01 X0.8493 Y2.3349 
G01 X0.8505 Y2.3290 
G00 Z0.1000 
G00 X0.4505 Y2.3290 
G01 Z-0.0070 F10.00 
G01 X0.4505 Y2.3258 F20.00 
G01 X0.4608 Y2.3155 
G01 X0.4608 Y2.2803 
G01 X0.4502 Y2.2697 
G01 X0.4493 Y2.2651 
G01 X0.4470 Y2.2596 
G01 X0.4437 Y2.2546 
G01 X0.4394 Y2.2503 
G01 X0.4344 Y2.2470 
G01 X0.4289 Y2.2447 
G01 X0.4230 Y2.2435 
G01 X0.4175 Y2.2435 
G01 X0.4175 Y2.1381 
G01 X0.4166 Y2.1334 
G01 X0.4147 Y2.1289 
G01 X0.4120 Y2.1249 
G01 X0.4086 Y2.1215 
G01 X0.3805 Y2.0934 
G01 X0.3771 Y2.0900 
G01 X0.3731 Y2.0873 
G01 X0.3686 Y2.0854 
G01 X0.3639 Y2.0845 
G01 X0.3299 Y2.0845 
G01 X0.3064 Y2.0610 
G01 X0.2670 Y2.0610 
G01 X0.2392 Y2.0888 
G01 X0.2392 Y2.1282 
G01 X0.2670 Y2.1560 
G01 X0.3064 Y2.1560 
G01 X0.3288 Y2.1335 
G01 X0.3514 Y2.1335 
G01 X0.3685 Y2.1506 
G01 X0.3685 Y2.2754 
G01 X0.3694 Y2.2801 
G01 X0.3713 Y2.2846 
G01 X0.3740 Y2.2886 
G01 X0.3758 Y2.2905 
G01 X0.3758 Y2.3155 
G01 X0.3895 Y2.3292 
G01 X0.3907 Y2.3349 
G01 X0.3930 Y2.3404 
G01 X0.3963 Y2.3454 
G01 X0.4006 Y2.3497 
G01 X0.4056 Y2.3530 
G01 X0.4111 Y2.3553 
G01 X0.4170 Y2.3565 
G01 X0.4230 Y2.3565 
G01 X0.4289 Y2.3553 
G01 X0.4344 Y2.3530 
G01 X0.4394 Y2.3497 
G01 X0.4437 Y2.3454 
G01 X0.4470 Y2.3404 
G01 X0.4493 Y2.3349 
G01 X0.4505 Y2.3290 
G00 Z0.1000 
G00 X0.3505 Y2.3290 
G01 Z-0.0070 F10.00 
G01 X0.3505 Y2.3228 F20.00 
G01 X0.3578 Y2.3155 
G01 X0.3578 Y2.2803 
G01 X0.3505 Y2.2730 
G01 X0.3505 Y2.2710 
G01 X0.3493 Y2.2651 
G01 X0.3470 Y2.2596 
G01 X0.3445 Y2.2558 
G01 X0.3445 Y2.2361 
G01 X0.3436 Y2.2314 
G01 X0.3417 Y2.2269 
G01 X0.3390 Y2.2229 
G01 X0.2976 Y2.1815 
G01 X0.2936 Y2.1788 
G01 X0.2891 Y2.1769 
G01 X0.2844 Y2.1760 
G01 X0.2796 Y2.1760 
G01 X0.2749 Y2.1769 
G01 X0.2704 Y2.1788 
G01 X0.2686 Y2.1800 
G01 X0.2245 Y2.1800 
G01 X0.2095 Y2.1650 
G01 X0.2095 Y2.1628 
G01 X0.2108 Y2.1615 
G01 X0.2146 Y2.1558 
G01 X0.2172 Y2.1496 
G01 X0.2185 Y2.1429 
G01 X0.2185 Y2.1360 
G01 X0.2254 Y2.1292 
G01 X0.2254 Y2.0939 
G01 X0.2185 Y2.0870 
G01 X0.2185 Y2.0761 
G01 X0.2172 Y2.0694 
G01 X0.2146 Y2.0632 
G01 X0.2108 Y2.0575 
G01 X0.2060 Y2.0527 
G01 X0.2003 Y2.0489 
G01 X0.1941 Y2.0463 
G01 X0.1874 Y2.0450 
G01 X0.1806 Y2.0450 
G01 X0.1739 Y2.0463 
G01 X0.1677 Y2.0489 
G01 X0.1620 Y2.0527 
G01 X0.1572 Y2.0575 
G01 X0.1534 Y2.0632 
G01 X0.1508 Y2.0694 
G01 X0.1495 Y2.0761 
G01 X0.1495 Y2.0848 
G01 X0.1404 Y2.0939 
G01 X0.1404 Y2.1292 
G01 X0.1495 Y2.1383 
G01 X0.1495 Y2.1429 
G01 X0.1508 Y2.1496 
G01 X0.1534 Y2.1558 
G01 X0.1572 Y2.1615 
G01 X0.1620 Y2.1663 
G01 X0.1677 Y2.1701 
G01 X0.1685 Y2.1704 
G01 X0.1685 Y2.1762 
G01 X0.1699 Y2.1814 
G01 X0.1726 Y2.1861 
G01 X0.1764 Y2.1899 
G01 X0.1996 Y2.2131 
G01 X0.2034 Y2.2169 
G01 X0.2081 Y2.2196 
G01 X0.2133 Y2.2210 
G01 X0.2679 Y2.2210 
G01 X0.2955 Y2.2486 
G01 X0.2955 Y2.2558 
G01 X0.2930 Y2.2596 
G01 X0.2926 Y2.2604 
G01 X0.2728 Y2.2803 
G01 X0.2728 Y2.3155 
G01 X0.2903 Y2.3330 
G01 X0.2907 Y2.3349 
G01 X0.2930 Y2.3404 
G01 X0.2963 Y2.3454 
G01 X0.3006 Y2.3497 
G01 X0.3056 Y2.3530 
G01 X0.3111 Y2.3553 
G01 X0.3170 Y2.3565 
G01 X0.3230 Y2.3565 
G01 X0.3289 Y2.3553 
G01 X0.3344 Y2.3530 
G01 X0.3394 Y2.3497 
G01 X0.3437 Y2.3454 
G01 X0.3470 Y2.3404 
G01 X0.3493 Y2.3349 
G01 X0.3505 Y2.3290 
G00 Z0.1000 
G00 X-0.0495 Y2.3290 
G01 Z-0.0070 F10.00 
G01 X-0.0495 Y2.3287 F20.00 
G01 X-0.0363 Y2.3155 
G01 X-0.0363 Y2.2803 
G01 X-0.0505 Y2.2661 
G01 X-0.0507 Y2.2651 
G01 X-0.0530 Y2.2596 
G01 X-0.0535 Y2.2588 
G01 X-0.0535 Y2.1508 
G01 X-0.0363 Y2.1336 
G01 X-0.0363 Y2.0984 
G01 X-0.0612 Y2.0735 
G01 X-0.0964 Y2.0735 
G01 X-0.1213 Y2.0984 
G01 X-0.1213 Y2.1336 
G01 X-0.1025 Y2.1524 
G01 X-0.1025 Y2.2534 
G01 X-0.1037 Y2.2546 
G01 X-0.1070 Y2.2596 
G01 X-0.1093 Y2.2651 
G01 X-0.1101 Y2.2691 
G01 X-0.1213 Y2.2803 
G01 X-0.1213 Y2.3155 
G01 X-0.1105 Y2.3263 
G01 X-0.1105 Y2.3290 
G01 X-0.1093 Y2.3349 
G01 X-0.1070 Y2.3404 
G01 X-0.1037 Y2.3454 
G01 X-0.0994 Y2.3497 
G01 X-0.0944 Y2.3530 
G01 X-0.0889 Y2.3553 
G01 X-0.0830 Y2.3565 
G01 X-0.0770 Y2.3565 
G01 X-0.0711 Y2.3553 
G01 X-0.0656 Y2.3530 
G01 X-0.0606 Y2.3497 
G01 X-0.0563 Y2.3454 
G01 X-0.0530 Y2.3404 
G01 X-0.0507 Y2.3349 
G01 X-0.0495 Y2.3290 
G00 Z0.1000 
G00 X0.0505 Y2.8710 
G01 Z-0.0070 F10.00 
G01 X0.0493 Y2.8651 F20.00 
G01 X0.0470 Y2.8596 
G01 X0.0437 Y2.8546 
G01 X0.0394 Y2.8503 
G01 X0.0344 Y2.8470 
G01 X0.0289 Y2.8447 
G01 X0.0230 Y2.8435 
G01 X0.0170 Y2.8435 
G01 X0.0111 Y2.8447 
G01 X0.0056 Y2.8470 
G01 X0.0006 Y2.8503 
G01 X-0.0037 Y2.8546 
G01 X-0.0070 Y2.8596 
G01 X-0.0093 Y2.8651 
G01 X-0.0105 Y2.8710 
G01 X-0.0105 Y2.8728 
G01 X-0.0243 Y2.8866 
G01 X-0.0243 Y2.9218 
G01 X-0.0080 Y2.9381 
G01 X-0.0070 Y2.9404 
G01 X-0.0045 Y2.9442 
G01 X-0.0045 Y2.9939 
G01 X-0.0036 Y2.9986 
G01 X-0.0020 Y3.0024 
G01 X-0.0020 Y3.0264 
G01 X-0.0011 Y3.0311 
G01 X0.0008 Y3.0356 
G01 X0.0035 Y3.0396 
G01 X0.0069 Y3.0430 
G01 X0.0474 Y3.0835 
G01 X0.0514 Y3.0862 
G01 X0.0559 Y3.0881 
G01 X0.0606 Y3.0890 
G01 X0.0652 Y3.0890 
G01 X0.0675 Y3.0913 
G01 X0.0675 Y3.0995 
G01 X0.0688 Y3.1061 
G01 X0.0714 Y3.1124 
G01 X0.0752 Y3.1181 
G01 X0.0800 Y3.1229 
G01 X0.0857 Y3.1266 
G01 X0.0919 Y3.1292 
G01 X0.0986 Y3.1306 
G01 X0.1054 Y3.1306 
G01 X0.1121 Y3.1292 
G01 X0.1183 Y3.1266 
G01 X0.1240 Y3.1229 
G01 X0.1288 Y3.1181 
G01 X0.1326 Y3.1124 
G01 X0.1352 Y3.1061 
G01 X0.1365 Y3.0995 
G01 X0.1365 Y3.0957 
G01 X0.1467 Y3.0855 
G01 X0.1467 Y3.0503 
G01 X0.1365 Y3.0401 
G01 X0.1365 Y3.0327 
G01 X0.1352 Y3.0260 
G01 X0.1326 Y3.0197 
G01 X0.1288 Y3.0141 
G01 X0.1240 Y3.0093 
G01 X0.1183 Y3.0055 
G01 X0.1121 Y3.0029 
G01 X0.1054 Y3.0016 
G01 X0.0986 Y3.0016 
G01 X0.0919 Y3.0029 
G01 X0.0857 Y3.0055 
G01 X0.0800 Y3.0093 
G01 X0.0752 Y3.0141 
G01 X0.0714 Y3.0197 
G01 X0.0688 Y3.0260 
G01 X0.0675 Y3.0327 
G01 X0.0675 Y3.0344 
G01 X0.0470 Y3.0139 
G01 X0.0470 Y2.9916 
G01 X0.0461 Y2.9869 
G01 X0.0445 Y2.9831 
G01 X0.0445 Y2.9442 
G01 X0.0470 Y2.9404 
G01 X0.0493 Y2.9349 
G01 X0.0498 Y2.9327 
G01 X0.0607 Y2.9218 
G01 X0.0607 Y2.8866 
G01 X0.0505 Y2.8764 
G01 X0.0505 Y2.8710 
G00 Z0.1000 
G00 X0.1505 Y2.8710 
G01 Z-0.0070 F10.00 
G01 X0.1493 Y2.8651 F20.00 
G01 X0.1470 Y2.8596 
G01 X0.1445 Y2.8558 
G01 X0.1445 Y2.6076 
G01 X0.1436 Y2.6029 
G01 X0.1417 Y2.5984 
G01 X0.1390 Y2.5944 
G01 X0.0790 Y2.5344 
G01 X0.0756 Y2.5310 
G01 X0.0716 Y2.5283 
G01 X0.0671 Y2.5264 
G01 X0.0624 Y2.5255 
G01 X-0.2115 Y2.5255 
G01 X-0.2116 Y2.5255 
G01 X-0.2139 Y2.5255 
G01 X-0.2162 Y2.5255 
G01 X-0.2163 Y2.5255 
G01 X-0.2525 Y2.5259 
G01 X-0.2684 Y2.5100 
G01 X-0.3036 Y2.5100 
G01 X-0.3285 Y2.5349 
G01 X-0.3285 Y2.5701 
G01 X-0.3036 Y2.5950 
G01 X-0.2684 Y2.5950 
G01 X-0.2482 Y2.5748 
G01 X-0.2137 Y2.5745 
G01 X0.0499 Y2.5745 
G01 X0.0955 Y2.6201 
G01 X0.0955 Y2.8558 
G01 X0.0930 Y2.8596 
G01 X0.0907 Y2.8651 
G01 X0.0895 Y2.8710 
G01 X0.0895 Y2.8719 
G01 X0.0748 Y2.8866 
G01 X0.0748 Y2.9218 
G01 X0.0926 Y2.9396 
G01 X0.0930 Y2.9404 
G01 X0.0963 Y2.9454 
G01 X0.1006 Y2.9497 
G01 X0.1056 Y2.9530 
G01 X0.1111 Y2.9553 
G01 X0.1170 Y2.9565 
G01 X0.1230 Y2.9565 
G01 X0.1289 Y2.9553 
G01 X0.1344 Y2.9530 
G01 X0.1394 Y2.9497 
G01 X0.1437 Y2.9454 
G01 X0.1470 Y2.9404 
G01 X0.1493 Y2.9349 
G01 X0.1500 Y2.9316 
G01 X0.1598 Y2.9218 
G01 X0.1598 Y2.8866 
G01 X0.1505 Y2.8772 
G01 X0.1505 Y2.8710 
G00 Z0.1000 
G00 X0.2505 Y2.8710 
G01 Z-0.0070 F10.00 
G01 X0.2493 Y2.8651 F20.00 
G01 X0.2470 Y2.8596 
G01 X0.2445 Y2.8558 
G01 X0.2445 Y2.5676 
G01 X0.2436 Y2.5629 
G01 X0.2417 Y2.5584 
G01 X0.2390 Y2.5544 
G01 X0.2356 Y2.5510 
G01 X0.1356 Y2.4510 
G01 X0.1316 Y2.4483 
G01 X0.1271 Y2.4464 
G01 X0.1224 Y2.4455 
G01 X-0.3354 Y2.4455 
G01 X-0.3401 Y2.4464 
G01 X-0.3446 Y2.4483 
G01 X-0.3486 Y2.4510 
G01 X-0.3913 Y2.4937 
G01 X-0.3940 Y2.4977 
G01 X-0.3959 Y2.5022 
G01 X-0.3968 Y2.5069 
G01 X-0.3968 Y2.5081 
G01 X-0.4041 Y2.5081 
G01 X-0.4290 Y2.5329 
G01 X-0.4290 Y2.5682 
G01 X-0.4041 Y2.5931 
G01 X-0.3689 Y2.5931 
G01 X-0.3598 Y2.5840 
G01 X-0.3586 Y2.5840 
G01 X-0.3391 Y2.5645 
G01 X-0.3391 Y2.5370 
G01 X-0.3478 Y2.5283 
G01 X-0.3478 Y2.5195 
G01 X-0.3229 Y2.4945 
G01 X0.1099 Y2.4945 
G01 X0.1955 Y2.5801 
G01 X0.1955 Y2.8558 
G01 X0.1930 Y2.8596 
G01 X0.1907 Y2.8651 
G01 X0.1895 Y2.8710 
G01 X0.1895 Y2.8750 
G01 X0.1779 Y2.8866 
G01 X0.1779 Y2.9218 
G01 X0.1906 Y2.9345 
G01 X0.1907 Y2.9349 
G01 X0.1930 Y2.9404 
G01 X0.1963 Y2.9454 
G01 X0.2006 Y2.9497 
G01 X0.2056 Y2.9530 
G01 X0.2111 Y2.9553 
G01 X0.2170 Y2.9565 
G01 X0.2230 Y2.9565 
G01 X0.2289 Y2.9553 
G01 X0.2344 Y2.9530 
G01 X0.2394 Y2.9497 
G01 X0.2437 Y2.9454 
G01 X0.2470 Y2.9404 
G01 X0.2490 Y2.9357 
G01 X0.2629 Y2.9218 
G01 X0.2629 Y2.8866 
G01 X0.2505 Y2.8742 
G01 X0.2505 Y2.8710 
G00 Z0.1000 
G00 X0.3505 Y2.8710 
G01 Z-0.0070 F10.00 
G01 X0.3493 Y2.8651 F20.00 
G01 X0.3470 Y2.8596 
G01 X0.3437 Y2.8546 
G01 X0.3394 Y2.8503 
G01 X0.3344 Y2.8470 
G01 X0.3289 Y2.8447 
G01 X0.3230 Y2.8435 
G01 X0.3170 Y2.8435 
G01 X0.3111 Y2.8447 
G01 X0.3056 Y2.8470 
G01 X0.3006 Y2.8503 
G01 X0.2963 Y2.8546 
G01 X0.2930 Y2.8596 
G01 X0.2907 Y2.8651 
G01 X0.2898 Y2.8696 
G01 X0.2728 Y2.8866 
G01 X0.2728 Y2.9218 
G01 X0.2842 Y2.9332 
G01 X0.2734 Y2.9440 
G01 X0.2631 Y2.9440 
G01 X0.2584 Y2.9449 
G01 X0.2539 Y2.9468 
G01 X0.2499 Y2.9495 
G01 X0.2377 Y2.9617 
G01 X0.2374 Y2.9618 
G01 X0.2334 Y2.9645 
G01 X0.1957 Y3.0021 
G01 X0.1919 Y3.0029 
G01 X0.1857 Y3.0055 
G01 X0.1800 Y3.0093 
G01 X0.1752 Y3.0141 
G01 X0.1714 Y3.0197 
G01 X0.1688 Y3.0260 
G01 X0.1675 Y3.0327 
G01 X0.1675 Y3.0415 
G01 X0.1587 Y3.0503 
G01 X0.1587 Y3.0855 
G01 X0.1675 Y3.0943 
G01 X0.1675 Y3.0995 
G01 X0.1688 Y3.1061 
G01 X0.1714 Y3.1124 
G01 X0.1752 Y3.1181 
G01 X0.1800 Y3.1229 
G01 X0.1857 Y3.1266 
G01 X0.1919 Y3.1292 
G01 X0.1986 Y3.1306 
G01 X0.2054 Y3.1306 
G01 X0.2121 Y3.1292 
G01 X0.2183 Y3.1266 
G01 X0.2240 Y3.1229 
G01 X0.2288 Y3.1181 
G01 X0.2326 Y3.1124 
G01 X0.2352 Y3.1061 
G01 X0.2365 Y3.0995 
G01 X0.2365 Y3.0927 
G01 X0.2437 Y3.0855 
G01 X0.2437 Y3.0503 
G01 X0.2365 Y3.0431 
G01 X0.2365 Y3.0327 
G01 X0.2362 Y3.0310 
G01 X0.2618 Y3.0053 
G01 X0.2621 Y3.0052 
G01 X0.2661 Y3.0025 
G01 X0.2695 Y2.9991 
G01 X0.2756 Y2.9930 
G01 X0.2859 Y2.9930 
G01 X0.2906 Y2.9921 
G01 X0.2951 Y2.9902 
G01 X0.2991 Y2.9875 
G01 X0.3025 Y2.9841 
G01 X0.3330 Y2.9536 
G01 X0.3344 Y2.9530 
G01 X0.3394 Y2.9497 
G01 X0.3437 Y2.9454 
G01 X0.3470 Y2.9404 
G01 X0.3493 Y2.9349 
G01 X0.3505 Y2.9291 
G01 X0.3578 Y2.9218 
G01 X0.3578 Y2.8866 
G01 X0.3505 Y2.8793 
G01 X0.3505 Y2.8710 
G00 Z0.1000 
G00 X0.4505 Y2.8710 
G01 Z-0.0070 F10.00 
G01 X0.4493 Y2.8651 F20.00 
G01 X0.4470 Y2.8596 
G01 X0.4437 Y2.8546 
G01 X0.4394 Y2.8503 
G01 X0.4344 Y2.8470 
G01 X0.4289 Y2.8447 
G01 X0.4230 Y2.8435 
G01 X0.4170 Y2.8435 
G01 X0.4111 Y2.8447 
G01 X0.4056 Y2.8470 
G01 X0.4006 Y2.8503 
G01 X0.3963 Y2.8546 
G01 X0.3930 Y2.8596 
G01 X0.3907 Y2.8651 
G01 X0.3895 Y2.8710 
G01 X0.3895 Y2.8729 
G01 X0.3758 Y2.8866 
G01 X0.3758 Y2.9218 
G01 X0.3807 Y2.9266 
G01 X0.3470 Y2.9604 
G01 X0.3443 Y2.9644 
G01 X0.3424 Y2.9689 
G01 X0.3415 Y2.9736 
G01 X0.3415 Y2.9884 
G01 X0.3354 Y2.9945 
G01 X0.3320 Y2.9979 
G01 X0.3293 Y3.0019 
G01 X0.3277 Y3.0057 
G01 X0.3241 Y3.0093 
G01 X0.3183 Y3.0055 
G01 X0.3121 Y3.0029 
G01 X0.3054 Y3.0016 
G01 X0.2986 Y3.0016 
G01 X0.2919 Y3.0029 
G01 X0.2857 Y3.0055 
G01 X0.2800 Y3.0093 
G01 X0.2752 Y3.0141 
G01 X0.2714 Y3.0197 
G01 X0.2688 Y3.0260 
G01 X0.2675 Y3.0327 
G01 X0.2675 Y3.0446 
G01 X0.2618 Y3.0503 
G01 X0.2618 Y3.0855 
G01 X0.2675 Y3.0912 
G01 X0.2675 Y3.0995 
G01 X0.2688 Y3.1061 
G01 X0.2714 Y3.1124 
G01 X0.2752 Y3.1181 
G01 X0.2800 Y3.1229 
G01 X0.2857 Y3.1266 
G01 X0.2919 Y3.1292 
G01 X0.2986 Y3.1306 
G01 X0.3054 Y3.1306 
G01 X0.3121 Y3.1292 
G01 X0.3183 Y3.1266 
G01 X0.3240 Y3.1229 
G01 X0.3288 Y3.1181 
G01 X0.3326 Y3.1124 
G01 X0.3352 Y3.1061 
G01 X0.3365 Y3.0995 
G01 X0.3365 Y3.0958 
G01 X0.3468 Y3.0855 
G01 X0.3468 Y3.0559 
G01 X0.3700 Y3.0327 
G01 X0.3727 Y3.0287 
G01 X0.3743 Y3.0249 
G01 X0.3850 Y3.0141 
G01 X0.3877 Y3.0101 
G01 X0.3896 Y3.0056 
G01 X0.3905 Y3.0009 
G01 X0.3905 Y2.9861 
G01 X0.4201 Y2.9565 
G01 X0.4230 Y2.9565 
G01 X0.4289 Y2.9553 
G01 X0.4344 Y2.9530 
G01 X0.4394 Y2.9497 
G01 X0.4437 Y2.9454 
G01 X0.4470 Y2.9404 
G01 X0.4493 Y2.9349 
G01 X0.4497 Y2.9329 
G01 X0.4608 Y2.9218 
G01 X0.4608 Y2.8866 
G01 X0.4505 Y2.8762 
G01 X0.4505 Y2.8710 
G00 Z0.1000 
G00 X0.6505 Y2.8710 
G01 Z-0.0070 F10.00 
G01 X0.6493 Y2.8651 F20.00 
G01 X0.6470 Y2.8596 
G01 X0.6437 Y2.8546 
G01 X0.6394 Y2.8503 
G01 X0.6344 Y2.8470 
G01 X0.6289 Y2.8447 
G01 X0.6230 Y2.8435 
G01 X0.6170 Y2.8435 
G01 X0.6111 Y2.8447 
G01 X0.6056 Y2.8470 
G01 X0.6006 Y2.8503 
G01 X0.5963 Y2.8546 
G01 X0.5930 Y2.8596 
G01 X0.5907 Y2.8651 
G01 X0.5895 Y2.8710 
G01 X0.5895 Y2.8730 
G01 X0.5759 Y2.8866 
G01 X0.5759 Y2.9218 
G01 X0.5918 Y2.9377 
G01 X0.5930 Y2.9404 
G01 X0.5955 Y2.9442 
G01 X0.5955 Y3.0118 
G01 X0.5932 Y3.0141 
G01 X0.5894 Y3.0197 
G01 X0.5868 Y3.0260 
G01 X0.5855 Y3.0327 
G01 X0.5855 Y3.0528 
G01 X0.5820 Y3.0563 
G01 X0.5820 Y3.0915 
G01 X0.5855 Y3.0951 
G01 X0.5855 Y3.0995 
G01 X0.5868 Y3.1061 
G01 X0.5894 Y3.1124 
G01 X0.5932 Y3.1181 
G01 X0.5980 Y3.1229 
G01 X0.6037 Y3.1266 
G01 X0.6099 Y3.1292 
G01 X0.6166 Y3.1306 
G01 X0.6234 Y3.1306 
G01 X0.6301 Y3.1292 
G01 X0.6363 Y3.1266 
G01 X0.6420 Y3.1229 
G01 X0.6468 Y3.1181 
G01 X0.6506 Y3.1124 
G01 X0.6532 Y3.1061 
G01 X0.6534 Y3.1052 
G01 X0.6670 Y3.0915 
G01 X0.6670 Y3.0563 
G01 X0.6545 Y3.0438 
G01 X0.6545 Y3.0327 
G01 X0.6532 Y3.0260 
G01 X0.6506 Y3.0197 
G01 X0.6468 Y3.0141 
G01 X0.6445 Y3.0118 
G01 X0.6445 Y2.9442 
G01 X0.6470 Y2.9404 
G01 X0.6493 Y2.9349 
G01 X0.6497 Y2.9330 
G01 X0.6609 Y2.9218 
G01 X0.6609 Y2.8866 
G01 X0.6505 Y2.8761 
G01 X0.6505 Y2.8710 
G00 Z0.1000 
G00 X1.1505 Y2.8710 
G01 Z-0.0070 F10.00 
G01 X1.1493 Y2.8651 F20.00 
G01 X1.1470 Y2.8596 
G01 X1.1437 Y2.8546 
G01 X1.1394 Y2.8503 
G01 X1.1344 Y2.8470 
G01 X1.1289 Y2.8447 
G01 X1.1230 Y2.8435 
G01 X1.1170 Y2.8435 
G01 X1.1111 Y2.8447 
G01 X1.1056 Y2.8470 
G01 X1.1006 Y2.8503 
G01 X1.0963 Y2.8546 
G01 X1.0930 Y2.8596 
G01 X1.0907 Y2.8651 
G01 X1.0897 Y2.8700 
G01 X1.0752 Y2.8844 
G01 X1.0752 Y2.9197 
G01 X1.0908 Y2.9353 
G01 X1.0930 Y2.9404 
G01 X1.0955 Y2.9442 
G01 X1.0955 Y3.0118 
G01 X1.0932 Y3.0141 
G01 X1.0894 Y3.0197 
G01 X1.0868 Y3.0260 
G01 X1.0855 Y3.0327 
G01 X1.0855 Y3.0439 
G01 X1.0792 Y3.0503 
G01 X1.0792 Y3.0855 
G01 X1.0855 Y3.0918 
G01 X1.0855 Y3.0995 
G01 X1.0868 Y3.1061 
G01 X1.0894 Y3.1124 
G01 X1.0932 Y3.1181 
G01 X1.0980 Y3.1229 
G01 X1.1037 Y3.1266 
G01 X1.1099 Y3.1292 
G01 X1.1166 Y3.1306 
G01 X1.1234 Y3.1306 
G01 X1.1301 Y3.1292 
G01 X1.1363 Y3.1266 
G01 X1.1420 Y3.1229 
G01 X1.1468 Y3.1181 
G01 X1.1506 Y3.1124 
G01 X1.1532 Y3.1061 
G01 X1.1545 Y3.0995 
G01 X1.1545 Y3.0951 
G01 X1.1642 Y3.0855 
G01 X1.1642 Y3.0503 
G01 X1.1545 Y3.0406 
G01 X1.1545 Y3.0327 
G01 X1.1532 Y3.0260 
G01 X1.1506 Y3.0197 
G01 X1.1468 Y3.0141 
G01 X1.1445 Y3.0118 
G01 X1.1445 Y2.9442 
G01 X1.1470 Y2.9404 
G01 X1.1493 Y2.9349 
G01 X1.1504 Y2.9295 
G01 X1.1602 Y2.9197 
G01 X1.1602 Y2.8844 
G01 X1.1505 Y2.8747 
G01 X1.1505 Y2.8710 
G00 Z0.1000 
G00 X1.3505 Y2.8710 
G01 Z-0.0070 F10.00 
G01 X1.3493 Y2.8651 F20.00 
G01 X1.3470 Y2.8596 
G01 X1.3437 Y2.8546 
G01 X1.3394 Y2.8503 
G01 X1.3344 Y2.8470 
G01 X1.3289 Y2.8447 
G01 X1.3230 Y2.8435 
G01 X1.3170 Y2.8435 
G01 X1.3111 Y2.8447 
G01 X1.3056 Y2.8470 
G01 X1.3006 Y2.8503 
G01 X1.2963 Y2.8546 
G01 X1.2930 Y2.8596 
G01 X1.2907 Y2.8651 
G01 X1.2895 Y2.8710 
G01 X1.2895 Y2.8763 
G01 X1.2792 Y2.8866 
G01 X1.2792 Y2.9218 
G01 X1.2903 Y2.9328 
G01 X1.2907 Y2.9349 
G01 X1.2930 Y2.9404 
G01 X1.2955 Y2.9442 
G01 X1.2955 Y3.0118 
G01 X1.2932 Y3.0141 
G01 X1.2894 Y3.0197 
G01 X1.2868 Y3.0260 
G01 X1.2855 Y3.0327 
G01 X1.2855 Y3.0440 
G01 X1.2792 Y3.0503 
G01 X1.2792 Y3.0855 
G01 X1.2855 Y3.0917 
G01 X1.2855 Y3.0995 
G01 X1.2868 Y3.1061 
G01 X1.2894 Y3.1124 
G01 X1.2932 Y3.1181 
G01 X1.2980 Y3.1229 
G01 X1.3037 Y3.1266 
G01 X1.3099 Y3.1292 
G01 X1.3166 Y3.1306 
G01 X1.3234 Y3.1306 
G01 X1.3301 Y3.1292 
G01 X1.3363 Y3.1266 
G01 X1.3420 Y3.1229 
G01 X1.3468 Y3.1181 
G01 X1.3506 Y3.1124 
G01 X1.3532 Y3.1061 
G01 X1.3545 Y3.0995 
G01 X1.3545 Y3.0952 
G01 X1.3642 Y3.0855 
G01 X1.3642 Y3.0503 
G01 X1.3545 Y3.0405 
G01 X1.3545 Y3.0327 
G01 X1.3532 Y3.0260 
G01 X1.3506 Y3.0197 
G01 X1.3468 Y3.0141 
G01 X1.3445 Y3.0118 
G01 X1.3445 Y2.9442 
G01 X1.3470 Y2.9404 
G01 X1.3481 Y2.9379 
G01 X1.3642 Y2.9218 
G01 X1.3642 Y2.8866 
G01 X1.3505 Y2.8728 
G01 X1.3505 Y2.8710 
G00 Z0.1000 
G00 X1.5505 Y2.8710 
G01 Z-0.0070 F10.00 
G01 X1.5493 Y2.8651 F20.00 
G01 X1.5470 Y2.8596 
G01 X1.5437 Y2.8546 
G01 X1.5394 Y2.8503 
G01 X1.5344 Y2.8470 
G01 X1.5289 Y2.8447 
G01 X1.5230 Y2.8435 
G01 X1.5170 Y2.8435 
G01 X1.5111 Y2.8447 
G01 X1.5056 Y2.8470 
G01 X1.5006 Y2.8503 
G01 X1.4963 Y2.8546 
G01 X1.4930 Y2.8596 
G01 X1.4907 Y2.8651 
G01 X1.4895 Y2.8710 
G01 X1.4895 Y2.8764 
G01 X1.4793 Y2.8866 
G01 X1.4793 Y2.9218 
G01 X1.4902 Y2.9327 
G01 X1.4907 Y2.9349 
G01 X1.4930 Y2.9404 
G01 X1.4955 Y2.9442 
G01 X1.4955 Y3.0118 
G01 X1.4932 Y3.0141 
G01 X1.4894 Y3.0197 
G01 X1.4868 Y3.0260 
G01 X1.4855 Y3.0327 
G01 X1.4855 Y3.0441 
G01 X1.4793 Y3.0503 
G01 X1.4793 Y3.0855 
G01 X1.4855 Y3.0917 
G01 X1.4855 Y3.0995 
G01 X1.4868 Y3.1061 
G01 X1.4894 Y3.1124 
G01 X1.4932 Y3.1181 
G01 X1.4980 Y3.1229 
G01 X1.5037 Y3.1266 
G01 X1.5099 Y3.1292 
G01 X1.5166 Y3.1306 
G01 X1.5234 Y3.1306 
G01 X1.5301 Y3.1292 
G01 X1.5363 Y3.1266 
G01 X1.5420 Y3.1229 
G01 X1.5468 Y3.1181 
G01 X1.5506 Y3.1124 
G01 X1.5532 Y3.1061 
G01 X1.5545 Y3.0995 
G01 X1.5545 Y3.0953 
G01 X1.5643 Y3.0855 
G01 X1.5643 Y3.0503 
G01 X1.5545 Y3.0405 
G01 X1.5545 Y3.0327 
G01 X1.5532 Y3.0260 
G01 X1.5506 Y3.0197 
G01 X1.5468 Y3.0141 
G01 X1.5445 Y3.0118 
G01 X1.5445 Y2.9442 
G01 X1.5470 Y2.9404 
G01 X1.5480 Y2.9381 
G01 X1.5643 Y2.9218 
G01 X1.5643 Y2.8866 
G01 X1.5505 Y2.8728 
G01 X1.5505 Y2.8710 
G00 Z0.1000 
G00 X1.7493 Y2.8651 
G01 Z-0.0070 F10.00 
G01 X1.7470 Y2.8596 F20.00 
G01 X1.7437 Y2.8546 
G01 X1.7394 Y2.8503 
G01 X1.7344 Y2.8470 
G01 X1.7289 Y2.8447 
G01 X1.7230 Y2.8435 
G01 X1.7170 Y2.8435 
G01 X1.7111 Y2.8447 
G01 X1.7056 Y2.8470 
G01 X1.7006 Y2.8503 
G01 X1.6963 Y2.8546 
G01 X1.6930 Y2.8596 
G01 X1.6907 Y2.8651 
G01 X1.6895 Y2.8710 
G01 X1.6895 Y2.8725 
G01 X1.6794 Y2.8826 
G01 X1.6794 Y2.9178 
G01 X1.6895 Y2.9280 
G01 X1.6895 Y2.9290 
G01 X1.6907 Y2.9349 
G01 X1.6930 Y2.9404 
G01 X1.6955 Y2.9442 
G01 X1.6955 Y3.0118 
G01 X1.6932 Y3.0141 
G01 X1.6894 Y3.0197 
G01 X1.6868 Y3.0260 
G01 X1.6855 Y3.0327 
G01 X1.6855 Y3.0442 
G01 X1.6794 Y3.0503 
G01 X1.6794 Y3.0855 
G01 X1.6855 Y3.0916 
G01 X1.6855 Y3.0995 
G01 X1.6868 Y3.1061 
G01 X1.6894 Y3.1124 
G01 X1.6932 Y3.1181 
G01 X1.6980 Y3.1229 
G01 X1.7037 Y3.1266 
G01 X1.7099 Y3.1292 
G01 X1.7166 Y3.1306 
G01 X1.7234 Y3.1306 
G01 X1.7301 Y3.1292 
G01 X1.7363 Y3.1266 
G01 X1.7420 Y3.1229 
G01 X1.7468 Y3.1181 
G01 X1.7506 Y3.1124 
G01 X1.7532 Y3.1061 
G01 X1.7545 Y3.0995 
G01 X1.7545 Y3.0954 
G01 X1.7644 Y3.0855 
G01 X1.7644 Y3.0503 
G01 X1.7545 Y3.0404 
G01 X1.7545 Y3.0327 
G01 X1.7532 Y3.0260 
G01 X1.7506 Y3.0197 
G01 X1.7468 Y3.0141 
G01 X1.7445 Y3.0118 
G01 X1.7445 Y2.9442 
G01 X1.7470 Y2.9404 
G01 X1.7493 Y2.9349 
G01 X1.7498 Y2.9324 
G01 X1.7644 Y2.9178 
G01 X1.7644 Y2.8826 
G01 X1.7499 Y2.8682 
G01 X1.7493 Y2.8651 
G00 Z0.1000 
G00 X2.1230 Y2.7053 
G01 Z-0.0070 F10.00 
G01 X2.1412 Y2.6871 F20.00 
G01 X2.1412 Y2.6519 
G01 X2.1163 Y2.6270 
G01 X2.0811 Y2.6270 
G01 X2.0562 Y2.6519 
G01 X2.0562 Y2.6871 
G01 X2.0740 Y2.7049 
G01 X2.0740 Y2.7620 
G01 X2.0594 Y2.7766 
G01 X2.0594 Y2.8118 
G01 X2.0843 Y2.8367 
G01 X2.1195 Y2.8367 
G01 X2.1444 Y2.8118 
G01 X2.1444 Y2.7766 
G01 X2.1230 Y2.7552 
G01 X2.1230 Y2.7053 
G00 Z0.1000 
G00 X2.1760 Y2.8557 
G01 Z-0.0070 F10.00 
G01 X2.1739 Y2.8557 F20.00 
G01 X2.1604 Y2.8422 
G01 X2.1585 Y2.8403 
G01 X2.1561 Y2.8389 
G01 X2.1534 Y2.8382 
G01 X2.1507 Y2.8382 
G01 X2.1480 Y2.8389 
G01 X2.1456 Y2.8403 
G01 X2.1437 Y2.8422 
G01 X2.1284 Y2.8575 
G01 X2.1282 Y2.8577 
G01 X2.0756 Y2.8577 
G01 X2.0384 Y2.8205 
G01 X2.0384 Y2.7679 
G01 X2.0466 Y2.7596 
G01 X2.0494 Y2.7568 
G01 X2.0497 Y2.7566 
G01 X2.0509 Y2.7554 
G01 X2.0523 Y2.7530 
G01 X2.0530 Y2.7503 
G01 X2.0530 Y2.7166 
G01 X2.0523 Y2.7139 
G01 X2.0509 Y2.7115 
G01 X2.0497 Y2.7103 
G01 X2.0466 Y2.7073 
G01 X2.0352 Y2.6958 
G01 X2.0352 Y2.6923 
G01 X2.0344 Y2.6897 
G01 X2.0331 Y2.6873 
G01 X2.0311 Y2.6853 
G01 X2.0287 Y2.6839 
G01 X2.0260 Y2.6832 
G01 X1.9719 Y2.6832 
G01 X1.9571 Y2.6684 
G01 X1.9540 Y2.6653 
G01 X1.9528 Y2.6641 
G01 X1.9504 Y2.6627 
G01 X1.9477 Y2.6620 
G01 X1.8168 Y2.6620 
G01 X1.8141 Y2.6627 
G01 X1.8117 Y2.6641 
G01 X1.8105 Y2.6653 
G01 X1.8075 Y2.6684 
G01 X1.7641 Y2.7118 
G01 X1.7508 Y2.7251 
G01 X1.7376 Y2.7305 
G01 X1.7341 Y2.7320 
G01 X0.6629 Y2.7320 
G01 X0.6594 Y2.7305 
G01 X0.6462 Y2.7251 
G01 X0.6185 Y2.6974 
G01 X0.6142 Y2.6930 
G01 X0.6128 Y2.6916 
G01 X0.6122 Y2.6911 
G01 X0.5951 Y2.6739 
G01 X0.5711 Y2.6499 
G01 X0.3744 Y2.4533 
G01 X0.3733 Y2.4521 
G01 X0.3709 Y2.4507 
G01 X0.3682 Y2.4500 
G01 X0.1883 Y2.4500 
G01 X0.1856 Y2.4507 
G01 X0.1832 Y2.4521 
G01 X0.1813 Y2.4541 
G01 X0.1799 Y2.4564 
G01 X0.1792 Y2.4591 
G01 X0.1792 Y2.4619 
G01 X0.1799 Y2.4646 
G01 X0.1813 Y2.4669 
G01 X0.1832 Y2.4689 
G01 X0.1910 Y2.4766 
G01 X0.1940 Y2.4797 
G01 X0.2450 Y2.5306 
G01 X0.2586 Y2.5442 
G01 X0.2642 Y2.5577 
G01 X0.2655 Y2.5609 
G01 X0.2655 Y2.8151 
G01 X0.2654 Y2.8161 
G01 X0.2655 Y2.8172 
G01 X0.2655 Y2.8317 
G01 X0.2655 Y2.8318 
G01 X0.2662 Y2.8344 
G01 X0.2676 Y2.8367 
G01 X0.2696 Y2.8387 
G01 X0.2719 Y2.8401 
G01 X0.2746 Y2.8408 
G01 X0.2774 Y2.8408 
G01 X0.2775 Y2.8408 
G01 X0.2801 Y2.8401 
G01 X0.2824 Y2.8388 
G01 X0.2844 Y2.8368 
G01 X0.2908 Y2.8303 
G01 X0.3098 Y2.8225 
G01 X0.3302 Y2.8225 
G01 X0.3492 Y2.8303 
G01 X0.3538 Y2.8349 
G01 X0.3568 Y2.8380 
G01 X0.3596 Y2.8408 
G01 X0.3599 Y2.8410 
G01 X0.3636 Y2.8447 
G01 X0.3659 Y2.8461 
G01 X0.3686 Y2.8468 
G01 X0.3714 Y2.8468 
G01 X0.3739 Y2.8461 
G01 X0.3741 Y2.8461 
G01 X0.3764 Y2.8447 
G01 X0.3784 Y2.8428 
G01 X0.3801 Y2.8410 
G01 X0.3832 Y2.8380 
G01 X0.3908 Y2.8303 
G01 X0.4098 Y2.8225 
G01 X0.4302 Y2.8225 
G01 X0.4492 Y2.8303 
G01 X0.4636 Y2.8447 
G01 X0.4659 Y2.8461 
G01 X0.4686 Y2.8468 
G01 X0.4714 Y2.8468 
G01 X0.4739 Y2.8461 
G01 X0.4741 Y2.8461 
G01 X0.4764 Y2.8447 
G01 X0.4784 Y2.8428 
G01 X0.4908 Y2.8303 
G01 X0.5054 Y2.8243 
G01 X0.5098 Y2.8225 
G01 X0.5302 Y2.8225 
G01 X0.5346 Y2.8243 
G01 X0.5492 Y2.8303 
G01 X0.5636 Y2.8447 
G01 X0.5659 Y2.8461 
G01 X0.5686 Y2.8468 
G01 X0.5714 Y2.8468 
G01 X0.5739 Y2.8461 
G01 X0.5741 Y2.8461 
G01 X0.5764 Y2.8447 
G01 X0.5784 Y2.8428 
G01 X0.5908 Y2.8303 
G01 X0.6054 Y2.8243 
G01 X0.6098 Y2.8225 
G01 X0.6302 Y2.8225 
G01 X0.6346 Y2.8243 
G01 X0.6492 Y2.8303 
G01 X0.6636 Y2.8447 
G01 X0.6659 Y2.8461 
G01 X0.6686 Y2.8468 
G01 X0.6714 Y2.8468 
G01 X0.6739 Y2.8461 
G01 X0.6741 Y2.8461 
G01 X0.6764 Y2.8447 
G01 X0.6784 Y2.8428 
G01 X0.6908 Y2.8303 
G01 X0.7054 Y2.8243 
G01 X0.7098 Y2.8225 
G01 X0.7302 Y2.8225 
G01 X0.7346 Y2.8243 
G01 X0.7492 Y2.8303 
G01 X0.7636 Y2.8447 
G01 X0.7659 Y2.8461 
G01 X0.7686 Y2.8468 
G01 X0.7714 Y2.8468 
G01 X0.7739 Y2.8461 
G01 X0.7741 Y2.8461 
G01 X0.7764 Y2.8447 
G01 X0.7784 Y2.8428 
G01 X0.7908 Y2.8303 
G01 X0.8054 Y2.8243 
G01 X0.8098 Y2.8225 
G01 X0.8302 Y2.8225 
G01 X0.8346 Y2.8243 
G01 X0.8492 Y2.8303 
G01 X0.8561 Y2.8372 
G01 X0.8569 Y2.8382 
G01 X0.8576 Y2.8388 
G01 X0.8637 Y2.8448 
G01 X0.8654 Y2.8491 
G01 X0.8656 Y2.8498 
G01 X0.8660 Y2.8504 
G01 X0.8662 Y2.8510 
G01 X0.8666 Y2.8516 
G01 X0.8670 Y2.8522 
G01 X0.8675 Y2.8526 
G01 X0.8679 Y2.8532 
G01 X0.8685 Y2.8536 
G01 X0.8689 Y2.8541 
G01 X0.8695 Y2.8545 
G01 X0.8701 Y2.8549 
G01 X0.8707 Y2.8551 
G01 X0.8713 Y2.8555 
G01 X0.8720 Y2.8557 
G01 X0.8726 Y2.8559 
G01 X0.8733 Y2.8560 
G01 X0.8740 Y2.8562 
G01 X0.8747 Y2.8562 
G01 X0.8754 Y2.8563 
G01 X0.8761 Y2.8562 
G01 X0.8768 Y2.8562 
G01 X0.8774 Y2.8560 
G01 X0.8781 Y2.8559 
G01 X0.8788 Y2.8557 
G01 X0.8794 Y2.8555 
G01 X0.8800 Y2.8551 
G01 X0.8807 Y2.8549 
G01 X0.8812 Y2.8545 
G01 X0.8818 Y2.8541 
G01 X0.8823 Y2.8536 
G01 X0.8829 Y2.8532 
G01 X0.8833 Y2.8526 
G01 X0.8953 Y2.8407 
G01 X0.9030 Y2.8407 
G01 X0.9025 Y2.8415 
G01 X0.9024 Y2.8417 
G01 X0.9023 Y2.8419 
G01 X0.9017 Y2.8443 
G01 X0.9011 Y2.8467 
G01 X0.9011 Y2.8469 
G01 X0.9010 Y2.8472 
G01 X0.9011 Y2.8496 
G01 X0.9011 Y2.8500 
G01 X0.9006 Y2.8503 
G01 X0.8963 Y2.8546 
G01 X0.8930 Y2.8596 
G01 X0.8907 Y2.8651 
G01 X0.8895 Y2.8710 
G01 X0.8895 Y2.8761 
G01 X0.8791 Y2.8866 
G01 X0.8791 Y2.9218 
G01 X0.8903 Y2.9330 
G01 X0.8907 Y2.9349 
G01 X0.8930 Y2.9404 
G01 X0.8963 Y2.9454 
G01 X0.8979 Y2.9471 
G01 X0.8979 Y3.0067 
G01 X0.8956 Y3.0090 
G01 X0.8919 Y3.0147 
G01 X0.8893 Y3.0210 
G01 X0.8879 Y3.0276 
G01 X0.8879 Y3.0382 
G01 X0.8807 Y3.0454 
G01 X0.8807 Y3.0806 
G01 X0.8879 Y3.0878 
G01 X0.8879 Y3.0944 
G01 X0.8893 Y3.1011 
G01 X0.8919 Y3.1074 
G01 X0.8935 Y3.1098 
G01 X0.8935 Y3.1231 
G01 X0.8877 Y3.1173 
G01 X0.8873 Y3.1167 
G01 X0.8867 Y3.1163 
G01 X0.8862 Y3.1158 
G01 X0.8856 Y3.1154 
G01 X0.8851 Y3.1150 
G01 X0.8844 Y3.1148 
G01 X0.8838 Y3.1144 
G01 X0.8832 Y3.1142 
G01 X0.8825 Y3.1140 
G01 X0.8818 Y3.1139 
G01 X0.8812 Y3.1137 
G01 X0.8805 Y3.1137 
G01 X0.8798 Y3.1136 
G01 X0.8791 Y3.1137 
G01 X0.8784 Y3.1137 
G01 X0.8777 Y3.1139 
G01 X0.8770 Y3.1140 
G01 X0.8764 Y3.1142 
G01 X0.8757 Y3.1144 
G01 X0.8751 Y3.1148 
G01 X0.8745 Y3.1150 
G01 X0.8739 Y3.1154 
G01 X0.8733 Y3.1158 
G01 X0.8728 Y3.1163 
G01 X0.8723 Y3.1167 
G01 X0.8719 Y3.1173 
G01 X0.8714 Y3.1178 
G01 X0.8710 Y3.1184 
G01 X0.8706 Y3.1189 
G01 X0.8703 Y3.1195 
G01 X0.8700 Y3.1201 
G01 X0.8698 Y3.1208 
G01 X0.8671 Y3.1275 
G01 X0.8514 Y3.1431 
G01 X0.8507 Y3.1434 
G01 X0.8496 Y3.1437 
G01 X0.8487 Y3.1443 
G01 X0.8350 Y3.1499 
G01 X0.8310 Y3.1516 
G01 X0.8090 Y3.1516 
G01 X0.8037 Y3.1494 
G01 X0.7886 Y3.1431 
G01 X0.7832 Y3.1378 
G01 X0.7801 Y3.1347 
G01 X0.7784 Y3.1330 
G01 X0.7767 Y3.1312 
G01 X0.7764 Y3.1310 
G01 X0.7741 Y3.1296 
G01 X0.7714 Y3.1289 
G01 X0.7686 Y3.1289 
G01 X0.7661 Y3.1296 
G01 X0.7659 Y3.1296 
G01 X0.7636 Y3.1310 
G01 X0.7616 Y3.1330 
G01 X0.7599 Y3.1347 
G01 X0.7514 Y3.1431 
G01 X0.7310 Y3.1516 
G01 X0.7090 Y3.1516 
G01 X0.6886 Y3.1431 
G01 X0.6832 Y3.1378 
G01 X0.6802 Y3.1348 
G01 X0.6784 Y3.1330 
G01 X0.6767 Y3.1312 
G01 X0.6764 Y3.1310 
G01 X0.6741 Y3.1296 
G01 X0.6714 Y3.1289 
G01 X0.6686 Y3.1289 
G01 X0.6661 Y3.1296 
G01 X0.6659 Y3.1296 
G01 X0.6636 Y3.1310 
G01 X0.6616 Y3.1330 
G01 X0.6599 Y3.1347 
G01 X0.6568 Y3.1377 
G01 X0.6514 Y3.1431 
G01 X0.6310 Y3.1516 
G01 X0.6090 Y3.1516 
G01 X0.6040 Y3.1495 
G01 X0.5895 Y3.1435 
G01 X0.5886 Y3.1431 
G01 X0.5829 Y3.1375 
G01 X0.5806 Y3.1361 
G01 X0.5779 Y3.1354 
G01 X0.5751 Y3.1354 
G01 X0.5724 Y3.1361 
G01 X0.5711 Y3.1369 
G01 X0.5701 Y3.1375 
G01 X0.5681 Y3.1395 
G01 X0.5667 Y3.1418 
G01 X0.5660 Y3.1445 
G01 X0.5660 Y3.1516 
G01 X0.5591 Y3.1683 
G01 X0.5455 Y3.1819 
G01 X0.5424 Y3.1849 
G01 X0.5340 Y3.1934 
G01 X0.5221 Y3.2053 
G01 X0.5063 Y3.2210 
G01 X0.5058 Y3.2216 
G01 X0.4891 Y3.2285 
G01 X0.4709 Y3.2285 
G01 X0.4663 Y3.2266 
G01 X0.4657 Y3.2262 
G01 X0.4650 Y3.2260 
G01 X0.4644 Y3.2258 
G01 X0.4637 Y3.2257 
G01 X0.4630 Y3.2255 
G01 X0.4623 Y3.2255 
G01 X0.4616 Y3.2254 
G01 X0.4609 Y3.2255 
G01 X0.0869 Y3.2255 
G01 X0.0823 Y3.2236 
G01 X0.0817 Y3.2232 
G01 X0.0810 Y3.2230 
G01 X0.0804 Y3.2228 
G01 X0.0797 Y3.2227 
G01 X0.0790 Y3.2225 
G01 X0.0783 Y3.2225 
G01 X0.0776 Y3.2224 
G01 X0.0769 Y3.2225 
G01 X0.0269 Y3.2225 
G01 X0.0102 Y3.2156 
G01 X-0.0037 Y3.2017 
G01 X-0.0120 Y3.1934 
G01 X-0.0150 Y3.1903 
G01 X-0.0329 Y3.1725 
G01 X-0.0406 Y3.1647 
G01 X-0.0419 Y3.1634 
G01 X-0.0426 Y3.1628 
G01 X-0.0449 Y3.1614 
G01 X-0.0476 Y3.1607 
G01 X-0.0504 Y3.1607 
G01 X-0.0529 Y3.1614 
G01 X-0.0531 Y3.1614 
G01 X-0.0554 Y3.1628 
G01 X-0.0574 Y3.1647 
G01 X-0.0588 Y3.1671 
G01 X-0.0595 Y3.1698 
G01 X-0.0595 Y3.1916 
G01 X-0.0613 Y3.1934 
G01 X-0.0812 Y3.2133 
G01 X-0.0826 Y3.2157 
G01 X-0.0833 Y3.2184 
G01 X-0.0833 Y3.2211 
G01 X-0.0827 Y3.2237 
G01 X-0.0826 Y3.2238 
G01 X-0.0812 Y3.2262 
G01 X-0.0793 Y3.2282 
G01 X-0.0664 Y3.2410 
G01 X-0.0961 Y3.2410 
G01 X-0.1081 Y3.2290 
G01 X-0.1409 Y3.2290 
G01 X-0.1640 Y3.2521 
G01 X-0.1640 Y3.2560 
G01 X-0.1850 Y3.2560 
G01 X-0.1850 Y3.2434 
G01 X-0.1705 Y3.2289 
G01 X-0.1691 Y3.2266 
G01 X-0.1684 Y3.2239 
G01 X-0.1684 Y3.2211 
G01 X-0.1691 Y3.2186 
G01 X-0.1691 Y3.2184 
G01 X-0.1705 Y3.2161 
G01 X-0.1725 Y3.2141 
G01 X-0.1749 Y3.2127 
G01 X-0.1775 Y3.2120 
G01 X-0.3181 Y3.2120 
G01 X-0.3332 Y3.2057 
G01 X-0.3346 Y3.2052 
G01 X-0.3357 Y3.2047 
G01 X-0.3371 Y3.2045 
G01 X-0.3385 Y3.2043 
G01 X-0.3398 Y3.2045 
G01 X-0.3680 Y3.2045 
G01 X-0.3932 Y3.1941 
G01 X-0.4004 Y3.1868 
G01 X-0.4035 Y3.1838 
G01 X-0.4125 Y3.1748 
G01 X-0.4207 Y3.1549 
G01 X-0.4229 Y3.1496 
G01 X-0.4229 Y3.0364 
G01 X-0.4224 Y3.0352 
G01 X-0.4167 Y3.0213 
G01 X-0.4161 Y3.0204 
G01 X-0.4158 Y3.0193 
G01 X-0.4154 Y3.0183 
G01 X-0.4131 Y3.0127 
G01 X-0.4127 Y3.0121 
G01 X-0.4125 Y3.0114 
G01 X-0.4123 Y3.0107 
G01 X-0.4122 Y3.0101 
G01 X-0.4120 Y3.0094 
G01 X-0.4120 Y3.0087 
G01 X-0.4119 Y3.0080 
G01 X-0.4120 Y3.0073 
G01 X-0.4120 Y3.0066 
G01 X-0.4122 Y3.0059 
G01 X-0.4123 Y3.0053 
G01 X-0.4125 Y3.0046 
G01 X-0.4127 Y3.0039 
G01 X-0.4131 Y3.0033 
G01 X-0.4133 Y3.0027 
G01 X-0.4138 Y3.0022 
G01 X-0.4141 Y3.0016 
G01 X-0.4146 Y3.0011 
G01 X-0.4150 Y3.0005 
G01 X-0.4156 Y3.0001 
G01 X-0.4161 Y2.9996 
G01 X-0.4167 Y2.9993 
G01 X-0.4172 Y2.9988 
G01 X-0.4178 Y2.9986 
G01 X-0.4184 Y2.9982 
G01 X-0.4191 Y2.9980 
G01 X-0.4198 Y2.9978 
G01 X-0.4204 Y2.9977 
G01 X-0.4211 Y2.9975 
G01 X-0.4218 Y2.9975 
G01 X-0.4225 Y2.9974 
G01 X-0.4232 Y2.9975 
G01 X-0.4304 Y2.9975 
G01 X-0.4315 Y2.9974 
G01 X-0.4326 Y2.9975 
G01 X-0.5124 Y2.9975 
G01 X-0.5135 Y2.9974 
G01 X-0.5146 Y2.9975 
G01 X-0.5506 Y2.9975 
G01 X-0.5515 Y2.9978 
G01 X-0.5532 Y2.9982 
G01 X-0.5538 Y2.9986 
G01 X-0.5556 Y2.9996 
G01 X-0.5576 Y3.0016 
G01 X-0.5590 Y3.0039 
G01 X-0.5594 Y3.0055 
G01 X-0.5597 Y3.0066 
G01 X-0.5597 Y3.0094 
G01 X-0.5594 Y3.0103 
G01 X-0.5590 Y3.0121 
G01 X-0.5586 Y3.0126 
G01 X-0.5576 Y3.0144 
G01 X-0.5556 Y3.0164 
G01 X-0.5536 Y3.0184 
G01 X-0.5491 Y3.0246 
G01 X-0.5457 Y3.0314 
G01 X-0.5433 Y3.0386 
G01 X-0.5421 Y3.0462 
G01 X-0.5421 Y3.0806 
G01 X-0.5431 Y3.0806 
G01 X-0.5431 Y3.0463 
G01 X-0.5443 Y3.0389 
G01 X-0.5466 Y3.0318 
G01 X-0.5500 Y3.0251 
G01 X-0.5544 Y3.0191 
G01 X-0.5597 Y3.0138 
G01 X-0.5657 Y3.0094 
G01 X-0.5724 Y3.0060 
G01 X-0.5795 Y3.0037 
G01 X-0.5869 Y3.0025 
G01 X-0.5943 Y3.0025 
G01 X-0.6017 Y3.0037 
G01 X-0.6088 Y3.0060 
G01 X-0.6155 Y3.0094 
G01 X-0.6216 Y3.0138 
G01 X-0.6256 Y3.0178 
G01 X-0.6263 Y3.0171 
G01 X-0.6222 Y3.0130 
G01 X-0.6212 Y3.0122 
G01 X-0.6211 Y3.0121 
G01 X-0.6210 Y3.0120 
G01 X-0.6202 Y3.0111 
G01 X-0.6194 Y3.0101 
G01 X-0.6194 Y3.0100 
G01 X-0.6193 Y3.0099 
G01 X-0.6188 Y3.0087 
G01 X-0.6183 Y3.0076 
G01 X-0.6183 Y3.0074 
G01 X-0.6182 Y3.0073 
G01 X-0.6181 Y3.0061 
G01 X-0.6179 Y3.0048 
G01 X-0.6179 Y3.0047 
G01 X-0.6179 Y3.0046 
G01 X-0.6180 Y3.0033 
G01 X-0.6181 Y3.0021 
G01 X-0.6182 Y3.0020 
G01 X-0.6182 Y3.0018 
G01 X-0.6187 Y3.0007 
G01 X-0.6191 Y2.9995 
G01 X-0.6192 Y2.9994 
G01 X-0.6193 Y2.9993 
G01 X-0.6200 Y2.9983 
G01 X-0.6208 Y2.9973 
G01 X-0.6209 Y2.9972 
G01 X-0.6210 Y2.9971 
G01 X-0.6219 Y2.9963 
G01 X-0.6229 Y2.9955 
G01 X-0.6230 Y2.9955 
G01 X-0.6231 Y2.9954 
G01 X-0.6243 Y2.9949 
G01 X-0.6254 Y2.9944 
G01 X-0.6256 Y2.9944 
G01 X-0.6348 Y2.9906 
G01 X-0.6563 Y2.9690 
G01 X-0.6578 Y2.9675 
G01 X-0.6594 Y2.9660 
G01 X-0.6851 Y2.9403 
G01 X-0.6853 Y2.9400 
G01 X-0.6867 Y2.9387 
G01 X-0.6884 Y2.9370 
G01 X-0.7001 Y2.9253 
G01 X-0.7070 Y2.9086 
G01 X-0.7070 Y2.1897 
G01 X-0.7076 Y2.1876 
G01 X-0.7077 Y2.1870 
G01 X-0.7087 Y2.1853 
G01 X-0.7091 Y2.1846 
G01 X-0.7101 Y2.1836 
G01 X-0.7122 Y2.1785 
G01 X-0.7122 Y2.1784 
G01 X-0.7127 Y2.1773 
G01 X-0.7132 Y2.1761 
G01 X-0.7133 Y2.1760 
G01 X-0.7134 Y2.1759 
G01 X-0.7141 Y2.1749 
G01 X-0.7149 Y2.1739 
G01 X-0.7150 Y2.1738 
G01 X-0.7151 Y2.1737 
G01 X-0.7161 Y2.1730 
G01 X-0.7171 Y2.1722 
G01 X-0.7172 Y2.1722 
G01 X-0.7173 Y2.1721 
G01 X-0.7185 Y2.1716 
G01 X-0.7196 Y2.1712 
G01 X-0.7198 Y2.1712 
G01 X-0.7199 Y2.1711 
G01 X-0.7212 Y2.1710 
G01 X-0.7224 Y2.1708 
G01 X-0.7225 Y2.1708 
G01 X-0.7227 Y2.1708 
G01 X-0.7239 Y2.1710 
G01 X-0.7251 Y2.1712 
G01 X-0.7253 Y2.1712 
G01 X-0.7254 Y2.1712 
G01 X-0.7265 Y2.1718 
G01 X-0.7277 Y2.1722 
G01 X-0.7278 Y2.1723 
G01 X-0.7279 Y2.1724 
G01 X-0.7289 Y2.1732 
G01 X-0.7299 Y2.1739 
G01 X-0.7300 Y2.1740 
G01 X-0.7301 Y2.1741 
G01 X-0.7308 Y2.1751 
G01 X-0.7312 Y2.1757 
G01 X-0.7354 Y2.1799 
G01 X-0.7360 Y2.1803 
G01 X-0.7360 Y2.1790 
G01 X-0.7314 Y2.1744 
G01 X-0.7273 Y2.1683 
G01 X-0.7244 Y2.1614 
G01 X-0.7230 Y2.1542 
G01 X-0.7230 Y2.0808 
G01 X-0.7244 Y2.0736 
G01 X-0.7273 Y2.0667 
G01 X-0.7314 Y2.0606 
G01 X-0.7366 Y2.0554 
G01 X-0.7427 Y2.0513 
G01 X-0.7450 Y2.0503 
G01 X-0.7450 Y2.0492 
G01 X-0.7403 Y2.0516 
G01 X-0.7354 Y2.0551 
G01 X-0.7312 Y2.0593 
G01 X-0.7308 Y2.0599 
G01 X-0.7301 Y2.0609 
G01 X-0.7300 Y2.0610 
G01 X-0.7299 Y2.0611 
G01 X-0.7289 Y2.0618 
G01 X-0.7279 Y2.0626 
G01 X-0.7278 Y2.0627 
G01 X-0.7277 Y2.0628 
G01 X-0.7265 Y2.0632 
G01 X-0.7254 Y2.0638 
G01 X-0.7253 Y2.0638 
G01 X-0.7251 Y2.0638 
G01 X-0.7239 Y2.0640 
G01 X-0.7227 Y2.0642 
G01 X-0.7225 Y2.0642 
G01 X-0.7224 Y2.0642 
G01 X-0.7212 Y2.0640 
G01 X-0.7199 Y2.0639 
G01 X-0.7198 Y2.0638 
G01 X-0.7196 Y2.0638 
G01 X-0.7185 Y2.0634 
G01 X-0.7173 Y2.0629 
G01 X-0.7172 Y2.0628 
G01 X-0.7171 Y2.0628 
G01 X-0.7161 Y2.0620 
G01 X-0.7151 Y2.0613 
G01 X-0.7150 Y2.0612 
G01 X-0.7149 Y2.0611 
G01 X-0.7141 Y2.0601 
G01 X-0.7134 Y2.0591 
G01 X-0.7133 Y2.0590 
G01 X-0.7132 Y2.0589 
G01 X-0.7127 Y2.0577 
G01 X-0.7122 Y2.0566 
G01 X-0.7122 Y2.0565 
G01 X-0.7101 Y2.0514 
G01 X-0.7004 Y2.0416 
G01 X-0.6973 Y2.0386 
G01 X-0.6936 Y2.0349 
G01 X-0.6843 Y2.0310 
G01 X-0.6721 Y2.0260 
G01 X-0.6489 Y2.0260 
G01 X-0.6367 Y2.0310 
G01 X-0.6274 Y2.0349 
G01 X-0.6109 Y2.0514 
G01 X-0.6070 Y2.0607 
G01 X-0.6020 Y2.0729 
G01 X-0.6020 Y2.1487 
G01 X-0.6013 Y2.1514 
G01 X-0.5999 Y2.1538 
G01 X-0.5979 Y2.1557 
G01 X-0.5956 Y2.1571 
G01 X-0.5929 Y2.1578 
G01 X-0.5901 Y2.1578 
G01 X-0.5874 Y2.1571 
G01 X-0.5851 Y2.1557 
G01 X-0.5831 Y2.1538 
G01 X-0.5754 Y2.1460 
G01 X-0.5723 Y2.1430 
G01 X-0.5528 Y2.1234 
G01 X-0.5516 Y2.1223 
G01 X-0.5502 Y2.1199 
G01 X-0.5502 Y2.1197 
G01 X-0.5495 Y2.1172 
G01 X-0.5495 Y1.9205 
G01 X-0.5495 Y1.9204 
G01 X-0.5502 Y1.9179 
G01 X-0.5516 Y1.9155 
G01 X-0.5536 Y1.9135 
G01 X-0.5559 Y1.9122 
G01 X-0.5586 Y1.9114 
G01 X-0.5614 Y1.9114 
G01 X-0.5615 Y1.9114 
G01 X-0.5641 Y1.9121 
G01 X-0.5664 Y1.9135 
G01 X-0.5684 Y1.9155 
G01 X-0.5761 Y1.9232 
G01 X-0.5764 Y1.9235 
G01 X-0.6266 Y1.9235 
G01 X-0.6352 Y1.9149 
G01 X-0.6380 Y1.9121 
G01 X-0.6383 Y1.9118 
G01 X-0.6395 Y1.9106 
G01 X-0.6419 Y1.9092 
G01 X-0.6445 Y1.9085 
G01 X-0.8062 Y1.9085 
G01 X-0.8089 Y1.9092 
G01 X-0.8113 Y1.9106 
G01 X-0.8132 Y1.9126 
G01 X-0.8209 Y1.9202 
G01 X-0.8223 Y1.9226 
G01 X-0.8230 Y1.9253 
G01 X-0.8230 Y2.0363 
G01 X-0.8223 Y2.0390 
G01 X-0.8209 Y2.0414 
G01 X-0.8189 Y2.0433 
G01 X-0.8109 Y2.0514 
G01 X-0.8088 Y2.0565 
G01 X-0.8088 Y2.0566 
G01 X-0.8083 Y2.0577 
G01 X-0.8078 Y2.0589 
G01 X-0.8077 Y2.0590 
G01 X-0.8076 Y2.0591 
G01 X-0.8069 Y2.0601 
G01 X-0.8061 Y2.0611 
G01 X-0.8060 Y2.0612 
G01 X-0.8059 Y2.0613 
G01 X-0.8049 Y2.0620 
G01 X-0.8039 Y2.0628 
G01 X-0.8038 Y2.0628 
G01 X-0.8037 Y2.0629 
G01 X-0.8025 Y2.0634 
G01 X-0.8014 Y2.0638 
G01 X-0.8012 Y2.0638 
G01 X-0.8011 Y2.0639 
G01 X-0.7998 Y2.0640 
G01 X-0.7986 Y2.0642 
G01 X-0.7985 Y2.0642 
G01 X-0.7983 Y2.0642 
G01 X-0.7971 Y2.0640 
G01 X-0.7959 Y2.0638 
G01 X-0.7957 Y2.0638 
G01 X-0.7956 Y2.0638 
G01 X-0.7945 Y2.0632 
G01 X-0.7933 Y2.0628 
G01 X-0.7932 Y2.0627 
G01 X-0.7931 Y2.0626 
G01 X-0.7921 Y2.0618 
G01 X-0.7911 Y2.0611 
G01 X-0.7910 Y2.0610 
G01 X-0.7909 Y2.0609 
G01 X-0.7902 Y2.0599 
G01 X-0.7898 Y2.0593 
G01 X-0.7856 Y2.0551 
G01 X-0.7807 Y2.0516 
G01 X-0.7760 Y2.0492 
G01 X-0.7760 Y2.0503 
G01 X-0.7783 Y2.0513 
G01 X-0.7844 Y2.0554 
G01 X-0.7896 Y2.0606 
G01 X-0.7937 Y2.0667 
G01 X-0.7966 Y2.0736 
G01 X-0.7980 Y2.0808 
G01 X-0.7980 Y2.1542 
G01 X-0.7966 Y2.1614 
G01 X-0.7937 Y2.1683 
G01 X-0.7896 Y2.1744 
G01 X-0.7850 Y2.1790 
G01 X-0.7850 Y2.1803 
G01 X-0.7856 Y2.1799 
G01 X-0.7898 Y2.1757 
G01 X-0.7902 Y2.1751 
G01 X-0.7909 Y2.1741 
G01 X-0.7910 Y2.1740 
G01 X-0.7911 Y2.1739 
G01 X-0.7921 Y2.1732 
G01 X-0.7931 Y2.1724 
G01 X-0.7932 Y2.1723 
G01 X-0.7933 Y2.1722 
G01 X-0.7945 Y2.1718 
G01 X-0.7956 Y2.1712 
G01 X-0.7957 Y2.1712 
G01 X-0.7959 Y2.1712 
G01 X-0.7971 Y2.1710 
G01 X-0.7983 Y2.1708 
G01 X-0.7985 Y2.1708 
G01 X-0.7986 Y2.1708 
G01 X-0.7998 Y2.1710 
G01 X-0.8011 Y2.1711 
G01 X-0.8012 Y2.1712 
G01 X-0.8014 Y2.1712 
G01 X-0.8025 Y2.1716 
G01 X-0.8037 Y2.1721 
G01 X-0.8038 Y2.1722 
G01 X-0.8039 Y2.1722 
G01 X-0.8049 Y2.1730 
G01 X-0.8059 Y2.1737 
G01 X-0.8060 Y2.1738 
G01 X-0.8061 Y2.1739 
G01 X-0.8069 Y2.1749 
G01 X-0.8076 Y2.1759 
G01 X-0.8077 Y2.1760 
G01 X-0.8078 Y2.1761 
G01 X-0.8083 Y2.1773 
G01 X-0.8088 Y2.1784 
G01 X-0.8088 Y2.1785 
G01 X-0.8109 Y2.1836 
G01 X-0.8179 Y2.1906 
G01 X-0.8193 Y2.1930 
G01 X-0.8200 Y2.1957 
G01 X-0.8200 Y3.2917 
G01 X-0.8193 Y3.2944 
G01 X-0.8179 Y3.2968 
G01 X-0.8167 Y3.2979 
G01 X-0.8136 Y3.3010 
G01 X-0.7944 Y3.3202 
G01 X-0.7933 Y3.3214 
G01 X-0.7909 Y3.3228 
G01 X-0.7882 Y3.3235 
G01 X-0.5667 Y3.3235 
G01 X-0.5662 Y3.3236 
G01 X-0.5653 Y3.3235 
G01 X-0.5645 Y3.3235 
G01 X-0.5640 Y3.3234 
G01 X-0.5634 Y3.3233 
G01 X-0.5626 Y3.3230 
G01 X-0.5618 Y3.3228 
G01 X-0.5614 Y3.3225 
G01 X-0.5608 Y3.3223 
G01 X-0.5602 Y3.3218 
G01 X-0.5594 Y3.3214 
G01 X-0.5590 Y3.3210 
G01 X-0.5586 Y3.3207 
G01 X-0.5581 Y3.3200 
G01 X-0.5575 Y3.3194 
G01 X-0.5572 Y3.3190 
G01 X-0.5569 Y3.3185 
G01 X-0.5565 Y3.3178 
G01 X-0.5561 Y3.3171 
G01 X-0.5560 Y3.3165 
G01 X-0.5557 Y3.3160 
G01 X-0.5556 Y3.3152 
G01 X-0.5554 Y3.3144 
G01 X-0.5554 Y3.3138 
G01 X-0.5553 Y3.3133 
G01 X-0.5554 Y3.3124 
G01 X-0.5554 Y3.3116 
G01 X-0.5555 Y3.3111 
G01 X-0.5556 Y3.3105 
G01 X-0.5559 Y3.3098 
G01 X-0.5559 Y3.3096 
G01 X-0.5560 Y3.3094 
G01 X-0.5561 Y3.3089 
G01 X-0.5564 Y3.3085 
G01 X-0.5566 Y3.3079 
G01 X-0.5570 Y3.3074 
G01 X-0.5604 Y3.3006 
G01 X-0.5625 Y3.2944 
G01 X-0.5619 Y3.2944 
G01 X-0.5613 Y3.2947 
G01 X-0.5595 Y3.3002 
G01 X-0.5561 Y3.3069 
G01 X-0.5517 Y3.3129 
G01 X-0.5464 Y3.3182 
G01 X-0.5404 Y3.3226 
G01 X-0.5337 Y3.3260 
G01 X-0.5266 Y3.3283 
G01 X-0.5192 Y3.3295 
G01 X-0.4258 Y3.3295 
G01 X-0.4184 Y3.3283 
G01 X-0.4113 Y3.3260 
G01 X-0.4046 Y3.3226 
G01 X-0.3986 Y3.3182 
G01 X-0.3933 Y3.3129 
G01 X-0.3889 Y3.3069 
G01 X-0.3879 Y3.3050 
G01 X-0.3868 Y3.3050 
G01 X-0.3880 Y3.3074 
G01 X-0.3884 Y3.3079 
G01 X-0.3886 Y3.3085 
G01 X-0.3889 Y3.3089 
G01 X-0.3890 Y3.3093 
G01 X-0.3891 Y3.3096 
G01 X-0.3891 Y3.3098 
G01 X-0.3894 Y3.3105 
G01 X-0.3895 Y3.3111 
G01 X-0.3896 Y3.3116 
G01 X-0.3896 Y3.3124 
G01 X-0.3897 Y3.3133 
G01 X-0.3896 Y3.3138 
G01 X-0.3896 Y3.3144 
G01 X-0.3894 Y3.3152 
G01 X-0.3893 Y3.3160 
G01 X-0.3890 Y3.3165 
G01 X-0.3889 Y3.3171 
G01 X-0.3885 Y3.3178 
G01 X-0.3881 Y3.3185 
G01 X-0.3878 Y3.3190 
G01 X-0.3875 Y3.3194 
G01 X-0.3869 Y3.3200 
G01 X-0.3864 Y3.3207 
G01 X-0.3860 Y3.3210 
G01 X-0.3856 Y3.3214 
G01 X-0.3848 Y3.3218 
G01 X-0.3842 Y3.3223 
G01 X-0.3836 Y3.3225 
G01 X-0.3832 Y3.3228 
G01 X-0.3824 Y3.3230 
G01 X-0.3816 Y3.3233 
G01 X-0.3810 Y3.3234 
G01 X-0.3805 Y3.3235 
G01 X-0.3797 Y3.3235 
G01 X-0.3788 Y3.3236 
G01 X-0.3783 Y3.3235 
G01 X-0.1790 Y3.3235 
G01 X-0.1764 Y3.3228 
G01 X-0.1740 Y3.3214 
G01 X-0.1720 Y3.3194 
G01 X-0.1706 Y3.3171 
G01 X-0.1699 Y3.3144 
G01 X-0.1699 Y3.3116 
G01 X-0.1706 Y3.3089 
G01 X-0.1720 Y3.3066 
G01 X-0.1736 Y3.3050 
G01 X-0.1439 Y3.3050 
G01 X-0.1409 Y3.3080 
G01 X-0.1081 Y3.3080 
G01 X-0.1013 Y3.3011 
G01 X-0.0989 Y3.2995 
G01 X-0.0955 Y3.2961 
G01 X-0.0939 Y3.2937 
G01 X-0.0901 Y3.2900 
G01 X-0.0640 Y3.2900 
G01 X-0.0640 Y3.2936 
G01 X-0.0770 Y3.3066 
G01 X-0.0784 Y3.3089 
G01 X-0.0791 Y3.3116 
G01 X-0.0791 Y3.3144 
G01 X-0.0784 Y3.3169 
G01 X-0.0784 Y3.3171 
G01 X-0.0770 Y3.3194 
G01 X-0.0750 Y3.3214 
G01 X-0.0726 Y3.3228 
G01 X-0.0700 Y3.3235 
G01 X0.8817 Y3.3235 
G01 X0.8844 Y3.3228 
G01 X0.8868 Y3.3214 
G01 X0.8887 Y3.3194 
G01 X0.9299 Y3.2783 
G01 X0.9313 Y3.2759 
G01 X0.9320 Y3.2732 
G01 X0.9320 Y3.2440 
G01 X0.9404 Y3.2236 
G01 X0.9561 Y3.2079 
G01 X0.9670 Y3.2034 
G01 X0.9684 Y3.2028 
G01 X0.9695 Y3.2024 
G01 X0.9707 Y3.2015 
G01 X0.9717 Y3.2007 
G01 X0.9725 Y3.1997 
G01 X0.9734 Y3.1985 
G01 X0.9740 Y3.1972 
G01 X0.9745 Y3.1959 
G01 X0.9747 Y3.1945 
G01 X0.9748 Y3.1932 
G01 X0.9747 Y3.1919 
G01 X0.9745 Y3.1907 
G01 X0.9745 Y3.1255 
G01 X0.9745 Y3.1254 
G01 X0.9738 Y3.1228 
G01 X0.9724 Y3.1205 
G01 X0.9704 Y3.1185 
G01 X0.9681 Y3.1171 
G01 X0.9654 Y3.1164 
G01 X0.9626 Y3.1164 
G01 X0.9625 Y3.1164 
G01 X0.9599 Y3.1171 
G01 X0.9576 Y3.1184 
G01 X0.9556 Y3.1204 
G01 X0.9495 Y3.1265 
G01 X0.9425 Y3.1265 
G01 X0.9425 Y3.1191 
G01 X0.9444 Y3.1178 
G01 X0.9492 Y3.1130 
G01 X0.9530 Y3.1074 
G01 X0.9556 Y3.1011 
G01 X0.9569 Y3.0944 
G01 X0.9569 Y3.0894 
G01 X0.9657 Y3.0806 
G01 X0.9657 Y3.0454 
G01 X0.9569 Y3.0366 
G01 X0.9569 Y3.0276 
G01 X0.9556 Y3.0210 
G01 X0.9530 Y3.0147 
G01 X0.9492 Y3.0090 
G01 X0.9469 Y3.0067 
G01 X0.9469 Y2.9406 
G01 X0.9470 Y2.9404 
G01 X0.9482 Y2.9377 
G01 X0.9641 Y2.9218 
G01 X0.9641 Y2.8866 
G01 X0.9505 Y2.8730 
G01 X0.9505 Y2.8710 
G01 X0.9493 Y2.8651 
G01 X0.9470 Y2.8596 
G01 X0.9443 Y2.8554 
G01 X0.9532 Y2.8460 
G01 X0.9576 Y2.8504 
G01 X0.9580 Y2.8510 
G01 X0.9586 Y2.8514 
G01 X0.9591 Y2.8519 
G01 X0.9597 Y2.8522 
G01 X0.9602 Y2.8527 
G01 X0.9609 Y2.8529 
G01 X0.9615 Y2.8533 
G01 X0.9622 Y2.8534 
G01 X0.9628 Y2.8537 
G01 X0.9635 Y2.8538 
G01 X0.9642 Y2.8540 
G01 X0.9648 Y2.8540 
G01 X0.9655 Y2.8541 
G01 X0.9662 Y2.8540 
G01 X0.9669 Y2.8540 
G01 X0.9676 Y2.8538 
G01 X0.9683 Y2.8537 
G01 X0.9689 Y2.8534 
G01 X0.9696 Y2.8533 
G01 X0.9702 Y2.8529 
G01 X0.9708 Y2.8527 
G01 X0.9714 Y2.8522 
G01 X0.9720 Y2.8519 
G01 X0.9725 Y2.8514 
G01 X0.9730 Y2.8510 
G01 X0.9734 Y2.8504 
G01 X0.9739 Y2.8499 
G01 X0.9743 Y2.8493 
G01 X0.9747 Y2.8488 
G01 X0.9750 Y2.8481 
G01 X0.9753 Y2.8475 
G01 X0.9755 Y2.8469 
G01 X0.9763 Y2.8448 
G01 X0.9882 Y2.8330 
G01 X1.0518 Y2.8330 
G01 X1.0636 Y2.8447 
G01 X1.0659 Y2.8461 
G01 X1.0686 Y2.8468 
G01 X1.0714 Y2.8468 
G01 X1.0739 Y2.8461 
G01 X1.0741 Y2.8461 
G01 X1.0764 Y2.8447 
G01 X1.0784 Y2.8428 
G01 X1.0882 Y2.8330 
G01 X1.1518 Y2.8330 
G01 X1.1616 Y2.8428 
G01 X1.1636 Y2.8447 
G01 X1.1659 Y2.8461 
G01 X1.1686 Y2.8468 
G01 X1.1714 Y2.8468 
G01 X1.1741 Y2.8461 
G01 X1.1751 Y2.8455 
G01 X1.1764 Y2.8447 
G01 X1.1773 Y2.8438 
G01 X1.1882 Y2.8330 
G01 X1.2518 Y2.8330 
G01 X1.2636 Y2.8447 
G01 X1.2659 Y2.8461 
G01 X1.2686 Y2.8468 
G01 X1.2714 Y2.8468 
G01 X1.2739 Y2.8461 
G01 X1.2741 Y2.8461 
G01 X1.2764 Y2.8447 
G01 X1.2784 Y2.8428 
G01 X1.2882 Y2.8330 
G01 X1.3518 Y2.8330 
G01 X1.3636 Y2.8447 
G01 X1.3659 Y2.8461 
G01 X1.3686 Y2.8468 
G01 X1.3714 Y2.8468 
G01 X1.3739 Y2.8461 
G01 X1.3741 Y2.8461 
G01 X1.3764 Y2.8447 
G01 X1.3784 Y2.8428 
G01 X1.3882 Y2.8330 
G01 X1.4518 Y2.8330 
G01 X1.4636 Y2.8447 
G01 X1.4659 Y2.8461 
G01 X1.4686 Y2.8468 
G01 X1.4714 Y2.8468 
G01 X1.4739 Y2.8461 
G01 X1.4741 Y2.8461 
G01 X1.4764 Y2.8447 
G01 X1.4784 Y2.8428 
G01 X1.4882 Y2.8330 
G01 X1.5518 Y2.8330 
G01 X1.5636 Y2.8447 
G01 X1.5659 Y2.8461 
G01 X1.5686 Y2.8468 
G01 X1.5714 Y2.8468 
G01 X1.5739 Y2.8461 
G01 X1.5741 Y2.8461 
G01 X1.5764 Y2.8447 
G01 X1.5784 Y2.8428 
G01 X1.5882 Y2.8330 
G01 X1.6518 Y2.8330 
G01 X1.6636 Y2.8447 
G01 X1.6659 Y2.8461 
G01 X1.6686 Y2.8468 
G01 X1.6714 Y2.8468 
G01 X1.6739 Y2.8461 
G01 X1.6741 Y2.8461 
G01 X1.6764 Y2.8447 
G01 X1.6784 Y2.8428 
G01 X1.6882 Y2.8330 
G01 X1.7518 Y2.8330 
G01 X1.7636 Y2.8447 
G01 X1.7659 Y2.8461 
G01 X1.7686 Y2.8468 
G01 X1.7714 Y2.8468 
G01 X1.7739 Y2.8461 
G01 X1.7741 Y2.8461 
G01 X1.7764 Y2.8447 
G01 X1.7784 Y2.8428 
G01 X1.7882 Y2.8330 
G01 X1.8377 Y2.8330 
G01 X1.8395 Y2.8356 
G01 X1.8903 Y2.8864 
G01 X1.8903 Y2.9265 
G01 X1.8676 Y2.9492 
G01 X1.8662 Y2.9516 
G01 X1.8655 Y2.9543 
G01 X1.8655 Y2.9981 
G01 X1.8654 Y2.9988 
G01 X1.8655 Y2.9995 
G01 X1.8655 Y3.0002 
G01 X1.8657 Y3.0008 
G01 X1.8658 Y3.0015 
G01 X1.8660 Y3.0022 
G01 X1.8662 Y3.0028 
G01 X1.8666 Y3.0034 
G01 X1.8755 Y3.0250 
G01 X1.8755 Y3.0317 
G01 X1.8762 Y3.0344 
G01 X1.8776 Y3.0368 
G01 X1.8796 Y3.0387 
G01 X1.8824 Y3.0416 
G01 X1.8824 Y3.0942 
G01 X1.8819 Y3.0947 
G01 X1.8789 Y3.0977 
G01 X1.8776 Y3.0990 
G01 X1.8762 Y3.1014 
G01 X1.8755 Y3.1040 
G01 X1.8755 Y3.1071 
G01 X1.8728 Y3.1137 
G01 X1.8722 Y3.1146 
G01 X1.8719 Y3.1157 
G01 X1.8715 Y3.1167 
G01 X1.8692 Y3.1223 
G01 X1.8688 Y3.1229 
G01 X1.8687 Y3.1236 
G01 X1.8684 Y3.1243 
G01 X1.8683 Y3.1249 
G01 X1.8681 Y3.1256 
G01 X1.8681 Y3.1263 
G01 X1.8680 Y3.1270 
G01 X1.8681 Y3.1277 
G01 X1.8681 Y3.1284 
G01 X1.8683 Y3.1291 
G01 X1.8684 Y3.1297 
G01 X1.8687 Y3.1304 
G01 X1.8688 Y3.1311 
G01 X1.8692 Y3.1317 
G01 X1.8695 Y3.1323 
G01 X1.8699 Y3.1328 
G01 X1.8702 Y3.1334 
G01 X1.8707 Y3.1339 
G01 X1.8711 Y3.1345 
G01 X1.8717 Y3.1349 
G01 X1.8722 Y3.1354 
G01 X1.8728 Y3.1357 
G01 X1.8733 Y3.1362 
G01 X1.8740 Y3.1364 
G01 X1.8746 Y3.1368 
G01 X1.8752 Y3.1370 
G01 X1.8759 Y3.1372 
G01 X1.8766 Y3.1373 
G01 X1.8772 Y3.1375 
G01 X1.8779 Y3.1375 
G01 X1.8786 Y3.1376 
G01 X1.8793 Y3.1375 
G01 X1.8865 Y3.1375 
G01 X1.8876 Y3.1376 
G01 X1.8887 Y3.1375 
G01 X2.2503 Y3.1375 
G01 X2.2511 Y3.1376 
G01 X2.2524 Y3.1375 
G01 X2.2593 Y3.1375 
G01 X2.2609 Y3.1376 
G01 X2.2615 Y3.1375 
G01 X2.2618 Y3.1375 
G01 X2.2628 Y3.1376 
G01 X2.2631 Y3.1375 
G01 X2.2635 Y3.1375 
G01 X2.2645 Y3.1372 
G01 X2.2655 Y3.1371 
G01 X2.2658 Y3.1369 
G01 X2.2662 Y3.1368 
G01 X2.2671 Y3.1363 
G01 X2.2680 Y3.1358 
G01 X2.2682 Y3.1356 
G01 X2.2686 Y3.1354 
G01 X2.2693 Y3.1347 
G01 X2.2695 Y3.1345 
G01 X2.2700 Y3.1342 
G01 X2.2711 Y3.1331 
G01 X2.3111 Y3.0985 
G01 X2.3123 Y3.0976 
G01 X2.3128 Y3.0971 
G01 X2.3133 Y3.0966 
G01 X2.3336 Y3.0790 
G01 X2.3339 Y3.0788 
G01 X2.3347 Y3.0781 
G01 X2.3354 Y3.0774 
G01 X2.3356 Y3.0771 
G01 X2.3359 Y3.0769 
G01 X2.3364 Y3.0760 
G01 X2.3370 Y3.0752 
G01 X2.3371 Y3.0748 
G01 X2.3373 Y3.0745 
G01 X2.3375 Y3.0735 
G01 X2.3379 Y3.0725 
G01 X2.3379 Y3.0722 
G01 X2.3380 Y3.0718 
G01 X2.3380 Y3.0708 
G01 X2.3381 Y3.0698 
G01 X2.3380 Y3.0694 
G01 X2.3380 Y3.0085 
G01 X2.3381 Y3.0081 
G01 X2.3385 Y3.0071 
G01 X2.3388 Y3.0055 
G01 X2.3392 Y3.0039 
G01 X2.3392 Y3.0028 
G01 X2.3394 Y3.0018 
G01 X2.3392 Y3.0002 
G01 X2.3392 Y2.5409 
G01 X2.3405 Y2.5391 
G01 X2.3423 Y2.5346 
G01 X2.3432 Y2.5299 
G01 X2.3432 Y2.5251 
G01 X2.3423 Y2.5204 
G01 X2.3405 Y2.5159 
G01 X2.3392 Y2.5141 
G01 X2.3392 Y2.5029 
G01 X2.3380 Y2.4982 
G01 X2.3380 Y2.4499 
G01 X2.3381 Y2.4493 
G01 X2.3380 Y2.4486 
G01 X2.3380 Y2.4479 
G01 X2.3378 Y2.4472 
G01 X2.3377 Y2.4465 
G01 X2.3375 Y2.4459 
G01 X2.3373 Y2.4452 
G01 X2.3369 Y2.4446 
G01 X2.3365 Y2.4436 
G01 X2.3365 Y2.4411 
G01 X2.3365 Y2.4389 
G01 X2.3365 Y2.1953 
G01 X2.3358 Y2.1926 
G01 X2.3344 Y2.1902 
G01 X2.3332 Y2.1891 
G01 X2.3301 Y2.1860 
G01 X2.3245 Y2.1804 
G01 X2.3214 Y2.1773 
G01 X2.3203 Y2.1761 
G01 X2.3179 Y2.1747 
G01 X2.3152 Y2.1740 
G01 X2.2926 Y2.1740 
G01 X2.2899 Y2.1747 
G01 X2.2876 Y2.1761 
G01 X2.2856 Y2.1781 
G01 X2.2842 Y2.1804 
G01 X2.2835 Y2.1831 
G01 X2.2835 Y2.3266 
G01 X2.2766 Y2.3433 
G01 X2.2599 Y2.3599 
G01 X2.2068 Y2.4131 
G01 X2.2013 Y2.4153 
G01 X2.2002 Y2.4156 
G01 X2.1993 Y2.4162 
G01 X2.1983 Y2.4166 
G01 X2.1901 Y2.4200 
G01 X2.0393 Y2.4200 
G01 X2.0366 Y2.4207 
G01 X2.0342 Y2.4221 
G01 X2.0323 Y2.4241 
G01 X1.9862 Y2.4701 
G01 X1.9834 Y2.4713 
G01 X1.9794 Y2.4740 
G01 X1.9760 Y2.4774 
G01 X1.9257 Y2.5277 
G01 X1.9249 Y2.5280 
G01 X0.8531 Y2.5280 
G01 X0.8472 Y2.5256 
G01 X0.8339 Y2.5123 
G01 X0.8320 Y2.5103 
G01 X0.7814 Y2.4598 
G01 X0.7745 Y2.4431 
G01 X0.7745 Y2.3526 
G01 X0.7738 Y2.3499 
G01 X0.7724 Y2.3475 
G01 X0.7704 Y2.3456 
G01 X0.7681 Y2.3442 
G01 X0.7654 Y2.3435 
G01 X0.7626 Y2.3435 
G01 X0.7599 Y2.3442 
G01 X0.7576 Y2.3456 
G01 X0.7556 Y2.3475 
G01 X0.7417 Y2.3614 
G01 X0.7405 Y2.3614 
G01 X0.7405 Y2.3486 
G01 X0.7437 Y2.3454 
G01 X0.7470 Y2.3404 
G01 X0.7493 Y2.3349 
G01 X0.7505 Y2.3290 
G01 X0.7505 Y2.3229 
G01 X0.7579 Y2.3155 
G01 X0.7579 Y2.2803 
G01 X0.7505 Y2.2728 
G01 X0.7505 Y2.2710 
G01 X0.7493 Y2.2651 
G01 X0.7470 Y2.2596 
G01 X0.7437 Y2.2546 
G01 X0.7405 Y2.2514 
G01 X0.7405 Y2.2344 
G01 X0.7417 Y2.2344 
G01 X0.7577 Y2.2503 
G01 X0.7581 Y2.2509 
G01 X0.7586 Y2.2513 
G01 X0.7591 Y2.2518 
G01 X0.7597 Y2.2521 
G01 X0.7603 Y2.2525 
G01 X0.7609 Y2.2528 
G01 X0.7615 Y2.2532 
G01 X0.7622 Y2.2533 
G01 X0.7628 Y2.2536 
G01 X0.7635 Y2.2537 
G01 X0.7642 Y2.2539 
G01 X0.7649 Y2.2539 
G01 X0.7656 Y2.2540 
G01 X0.7663 Y2.2539 
G01 X0.7670 Y2.2539 
G01 X0.7676 Y2.2537 
G01 X0.7683 Y2.2536 
G01 X0.7690 Y2.2533 
G01 X0.7696 Y2.2532 
G01 X0.7702 Y2.2528 
G01 X0.7709 Y2.2525 
G01 X0.7714 Y2.2521 
G01 X0.7720 Y2.2518 
G01 X0.7725 Y2.2513 
G01 X0.7731 Y2.2509 
G01 X0.7735 Y2.2503 
G01 X0.7740 Y2.2498 
G01 X0.7743 Y2.2492 
G01 X0.7748 Y2.2487 
G01 X0.7750 Y2.2480 
G01 X0.7754 Y2.2474 
G01 X0.7755 Y2.2468 
G01 X0.7763 Y2.2448 
G01 X0.7881 Y2.2330 
G01 X0.7908 Y2.2303 
G01 X0.7981 Y2.2273 
G01 X0.8098 Y2.2225 
G01 X0.8302 Y2.2225 
G01 X0.8492 Y2.2303 
G01 X0.8556 Y2.2368 
G01 X0.8574 Y2.2386 
G01 X0.8576 Y2.2387 
G01 X0.8599 Y2.2401 
G01 X0.8626 Y2.2408 
G01 X0.8654 Y2.2408 
G01 X0.8679 Y2.2401 
G01 X0.8681 Y2.2401 
G01 X0.8704 Y2.2387 
G01 X0.8724 Y2.2368 
G01 X0.8738 Y2.2344 
G01 X0.8745 Y2.2317 
G01 X0.8745 Y2.2172 
G01 X0.8746 Y2.2161 
G01 X0.8745 Y2.2151 
G01 X0.8745 Y2.2116 
G01 X0.8814 Y2.1949 
G01 X0.8919 Y2.1844 
G01 X0.8923 Y2.1839 
G01 X0.8950 Y2.1813 
G01 X0.8987 Y2.1776 
G01 X0.8992 Y2.1766 
G01 X0.9001 Y2.1752 
G01 X0.9008 Y2.1725 
G01 X0.9008 Y2.1698 
G01 X0.9001 Y2.1671 
G01 X0.8996 Y2.1662 
G01 X0.8987 Y2.1647 
G01 X0.8967 Y2.1628 
G01 X0.8950 Y2.1610 
G01 X0.8945 Y2.1605 
G01 X0.8945 Y2.1079 
G01 X0.9025 Y2.0998 
G01 X0.9034 Y2.0992 
G01 X0.9039 Y2.0985 
G01 X0.9042 Y2.0983 
G01 X0.9046 Y2.0977 
G01 X0.9048 Y2.0975 
G01 X0.9051 Y2.0972 
G01 X0.9054 Y2.0966 
G01 X0.9059 Y2.0961 
G01 X0.9060 Y2.0957 
G01 X0.9061 Y2.0954 
G01 X0.9065 Y2.0948 
G01 X0.9066 Y2.0944 
G01 X0.9070 Y2.0938 
G01 X0.9073 Y2.0927 
G01 X0.9133 Y2.0781 
G01 X0.9137 Y2.0775 
G01 X0.9141 Y2.0769 
G01 X0.9144 Y2.0763 
G01 X0.9147 Y2.0757 
G01 X0.9148 Y2.0753 
G01 X0.9152 Y2.0746 
G01 X0.9155 Y2.0735 
G01 X0.9169 Y2.0701 
G01 X0.9326 Y2.0544 
G01 X0.9530 Y2.0460 
G01 X0.9750 Y2.0460 
G01 X0.9954 Y2.0544 
G01 X1.0008 Y2.0598 
G01 X1.0038 Y2.0628 
G01 X1.0056 Y2.0646 
G01 X1.0073 Y2.0663 
G01 X1.0076 Y2.0666 
G01 X1.0099 Y2.0679 
G01 X1.0126 Y2.0687 
G01 X1.0154 Y2.0687 
G01 X1.0179 Y2.0680 
G01 X1.0181 Y2.0679 
G01 X1.0204 Y2.0666 
G01 X1.0224 Y2.0646 
G01 X1.0241 Y2.0629 
G01 X1.0272 Y2.0599 
G01 X1.0326 Y2.0544 
G01 X1.0530 Y2.0460 
G01 X1.0750 Y2.0460 
G01 X1.0878 Y2.0513 
G01 X1.0954 Y2.0544 
G01 X1.1061 Y2.0651 
G01 X1.1079 Y2.0669 
G01 X1.1098 Y2.0688 
G01 X1.1122 Y2.0702 
G01 X1.1149 Y2.0709 
G01 X1.1176 Y2.0709 
G01 X1.1203 Y2.0702 
G01 X1.1227 Y2.0688 
G01 X1.1247 Y2.0669 
G01 X1.1264 Y2.0651 
G01 X1.1295 Y2.0621 
G01 X1.1347 Y2.0569 
G01 X1.1386 Y2.0529 
G01 X1.1462 Y2.0498 
G01 X1.1590 Y2.0445 
G01 X1.1810 Y2.0445 
G01 X1.2014 Y2.0529 
G01 X1.2068 Y2.0583 
G01 X1.2098 Y2.0613 
G01 X1.2116 Y2.0631 
G01 X1.2133 Y2.0648 
G01 X1.2136 Y2.0651 
G01 X1.2159 Y2.0664 
G01 X1.2186 Y2.0672 
G01 X1.2214 Y2.0672 
G01 X1.2239 Y2.0665 
G01 X1.2241 Y2.0664 
G01 X1.2264 Y2.0651 
G01 X1.2284 Y2.0631 
G01 X1.2301 Y2.0614 
G01 X1.2332 Y2.0584 
G01 X1.2386 Y2.0529 
G01 X1.2590 Y2.0445 
G01 X1.2810 Y2.0445 
G01 X1.3014 Y2.0529 
G01 X1.3171 Y2.0686 
G01 X1.3255 Y2.0890 
G01 X1.3255 Y2.0937 
G01 X1.3255 Y2.0938 
G01 X1.3262 Y2.0963 
G01 X1.3276 Y2.0987 
G01 X1.3288 Y2.0999 
G01 X1.3319 Y2.1030 
G01 X1.3359 Y2.1070 
G01 X1.3395 Y2.1107 
G01 X1.3419 Y2.1121 
G01 X1.3420 Y2.1121 
G01 X1.3446 Y2.1128 
G01 X1.3474 Y2.1128 
G01 X1.3500 Y2.1121 
G01 X1.3524 Y2.1107 
G01 X1.3544 Y2.1087 
G01 X1.3561 Y2.1070 
G01 X1.3592 Y2.1039 
G01 X1.3612 Y2.1019 
G01 X1.3624 Y2.1007 
G01 X1.3638 Y2.0983 
G01 X1.3645 Y2.0956 
G01 X1.3645 Y2.0939 
G01 X1.3645 Y2.0918 
G01 X1.3645 Y2.0890 
G01 X1.3729 Y2.0686 
G01 X1.3886 Y2.0529 
G01 X1.4090 Y2.0445 
G01 X1.4310 Y2.0445 
G01 X1.4514 Y2.0529 
G01 X1.4568 Y2.0583 
G01 X1.4598 Y2.0613 
G01 X1.4616 Y2.0631 
G01 X1.4633 Y2.0648 
G01 X1.4636 Y2.0651 
G01 X1.4659 Y2.0664 
G01 X1.4686 Y2.0672 
G01 X1.4714 Y2.0672 
G01 X1.4739 Y2.0665 
G01 X1.4741 Y2.0664 
G01 X1.4764 Y2.0651 
G01 X1.4784 Y2.0631 
G01 X1.4801 Y2.0614 
G01 X1.4832 Y2.0584 
G01 X1.4886 Y2.0529 
G01 X1.5090 Y2.0445 
G01 X1.5310 Y2.0445 
G01 X1.5514 Y2.0529 
G01 X1.5568 Y2.0583 
G01 X1.5598 Y2.0613 
G01 X1.5616 Y2.0631 
G01 X1.5633 Y2.0648 
G01 X1.5636 Y2.0651 
G01 X1.5659 Y2.0664 
G01 X1.5686 Y2.0672 
G01 X1.5714 Y2.0672 
G01 X1.5739 Y2.0665 
G01 X1.5741 Y2.0664 
G01 X1.5764 Y2.0651 
G01 X1.5784 Y2.0631 
G01 X1.5801 Y2.0614 
G01 X1.5832 Y2.0584 
G01 X1.5886 Y2.0529 
G01 X1.6090 Y2.0445 
G01 X1.6310 Y2.0445 
G01 X1.6514 Y2.0529 
G01 X1.6568 Y2.0583 
G01 X1.6598 Y2.0613 
G01 X1.6616 Y2.0631 
G01 X1.6633 Y2.0648 
G01 X1.6636 Y2.0651 
G01 X1.6659 Y2.0664 
G01 X1.6686 Y2.0672 
G01 X1.6714 Y2.0672 
G01 X1.6739 Y2.0665 
G01 X1.6741 Y2.0664 
G01 X1.6764 Y2.0651 
G01 X1.6784 Y2.0631 
G01 X1.6801 Y2.0614 
G01 X1.6832 Y2.0584 
G01 X1.6886 Y2.0529 
G01 X1.7090 Y2.0445 
G01 X1.7310 Y2.0445 
G01 X1.7438 Y2.0498 
G01 X1.7514 Y2.0529 
G01 X1.7669 Y2.0684 
G01 X1.7672 Y2.0690 
G01 X1.7676 Y2.0700 
G01 X1.7700 Y2.0756 
G01 X1.7702 Y2.0763 
G01 X1.7705 Y2.0769 
G01 X1.7708 Y2.0775 
G01 X1.7712 Y2.0781 
G01 X1.7715 Y2.0787 
G01 X1.7720 Y2.0792 
G01 X1.7724 Y2.0797 
G01 X1.7730 Y2.0801 
G01 X1.7735 Y2.0806 
G01 X1.7741 Y2.0810 
G01 X1.7746 Y2.0814 
G01 X1.7753 Y2.0817 
G01 X1.7759 Y2.0820 
G01 X1.7766 Y2.0822 
G01 X1.7772 Y2.0825 
G01 X1.7779 Y2.0826 
G01 X1.7786 Y2.0827 
G01 X1.7792 Y2.0827 
G01 X1.7799 Y2.0828 
G01 X1.7806 Y2.0827 
G01 X1.7813 Y2.0827 
G01 X1.7820 Y2.0826 
G01 X1.7827 Y2.0825 
G01 X1.7833 Y2.0822 
G01 X1.7840 Y2.0820 
G01 X1.7846 Y2.0817 
G01 X1.7852 Y2.0814 
G01 X1.7858 Y2.0810 
G01 X1.7864 Y2.0806 
G01 X1.7869 Y2.0801 
G01 X1.7874 Y2.0797 
G01 X1.7878 Y2.0792 
G01 X1.7922 Y2.0748 
G01 X1.7929 Y2.0741 
G01 X1.7938 Y2.0734 
G01 X1.7945 Y2.0725 
G01 X1.8016 Y2.0654 
G01 X1.8174 Y2.0653 
G01 X1.8201 Y2.0646 
G01 X1.8224 Y2.0632 
G01 X1.8244 Y2.0613 
G01 X1.8306 Y2.0550 
G01 X1.8313 Y2.0544 
G01 X1.8321 Y2.0537 
G01 X1.8324 Y2.0534 
G01 X1.8328 Y2.0528 
G01 X1.8336 Y2.0520 
G01 X1.8341 Y2.0511 
G01 X1.8366 Y2.0480 
G01 X1.8368 Y2.0479 
G01 X1.8379 Y2.0472 
G01 X1.8391 Y2.0465 
G01 X1.8401 Y2.0455 
G01 X1.8411 Y2.0446 
G01 X1.8412 Y2.0444 
G01 X1.8449 Y2.0429 
G01 X1.8460 Y2.0426 
G01 X1.8469 Y2.0421 
G01 X1.8476 Y2.0418 
G01 X1.8480 Y2.0416 
G01 X1.8488 Y2.0410 
G01 X1.8818 Y2.0222 
G01 X1.8837 Y2.0211 
G01 X1.8855 Y2.0201 
G01 X1.8867 Y2.0194 
G01 X1.8879 Y2.0187 
G01 X1.8889 Y2.0177 
G01 X1.8899 Y2.0168 
G01 X1.8906 Y2.0155 
G01 X1.8913 Y2.0144 
G01 X1.8916 Y2.0130 
G01 X1.8920 Y2.0117 
G01 X1.8920 Y2.0103 
G01 X1.8920 Y2.0089 
G01 X1.8926 Y2.0076 
G01 X1.8993 Y1.9913 
G01 X1.8999 Y1.9904 
G01 X1.9001 Y1.9893 
G01 X1.9004 Y1.9886 
G01 X1.9161 Y1.9729 
G01 X1.9365 Y1.9645 
G01 X1.9373 Y1.9645 
G01 X1.9400 Y1.9638 
G01 X1.9424 Y1.9624 
