(.../pcb-gcode-3.6.0.4/pcb-gcode.ulp)
(Copyright 2005 - 2012 by John Johnson)
(See readme.txt for licensing terms.)
(This file generated from the board:)
(.../PCB-DAQ/Step-by-Step-DAQ/DAQ.brd)
(Current profile is .../pcb-gcode-3.6.0.4/profiles/emc.pp  )
(This file generated 15/06/2019 0:13)
(Settings from pcb-machine.h)
(  Tool Size)
(0.0070 )
(Z Axis Settings)
(  High     Up        Down     Drill)
(0.5000 	0.1000 	-0.0070 	-0.0320 )
(spindle on time = 3.0000)
(milling depth = -0.0100)
(text depth = -0.0050)
(tool change at 0.5000 0.6000 1.0000 )
(feed rate xy = F20.00 )
(feed rate z  = F10.00 )
(Settings from pcb-defaults.h)
(isolate min = 0.0010)
(isolate max = 0.0200)
(isolate step = 0.0050)
(Generated bottom outlines, bottom drill, )
(Unit of measure: inch)
( Tool|       Size       |  Min Sub |  Max Sub |   Count )
( T01 | 3.302mm 0.1300in | 0.0000in | 0.0000in |       0 )
( T02 | 0.500mm 0.0197in | 0.0000in | 0.0000in |       0 )
( T03 | 0.600mm 0.0236in | 0.0000in | 0.0000in |       0 )
( T04 | 0.610mm 0.0240in | 0.0000in | 0.0000in |       0 )
( T05 | 0.800mm 0.0315in | 0.0000in | 0.0000in |       0 )
( T06 | 0.813mm 0.0320in | 0.0000in | 0.0000in |       0 )
( T07 | 0.950mm 0.0374in | 0.0000in | 0.0000in |       0 )
( T08 | 1.000mm 0.0394in | 0.0000in | 0.0000in |       0 )
( T09 | 1.016mm 0.0400in | 0.0000in | 0.0000in |       0 )
( T10 | 1.100mm 0.0433in | 0.0000in | 0.0000in |       0 )
( T11 | 1.118mm 0.0440in | 0.0000in | 0.0000in |       0 )
( T12 | 2.300mm 0.0906in | 0.0000in | 0.0000in |       0 )
(Inch Mode)
G20
(Absolute Coordinates)
G90
M05
G00 Z1.0000 
G00 X0.5000 Y0.6000 
M06 T01 (0.1300 )
G01 Z0.0000 F10.00 
M06 T01 (0.1300 )
G00 Z0.1000 
M03
G04 P3.000000
G82 X-0.7605 Y1.5275 Z-0.0320 F10.00 R0.1000 P1.000000
M05
G00 Z1.0000 
M06 T02 (0.0197 )
G01 Z0.0000 F10.00 
M06 T02 (0.0197 )
G00 Z0.1000 
M03
G04 P3.000000
G82 X1.2732 Y2.1342 Z-0.0320 F10.00 R0.1000 P1.000000
G82 X1.3157 Y2.2979 
G82 X1.3217 Y2.9042 
G82 X1.3217 Y3.0679 
G82 X1.4187 Y2.1342 
G82 X1.4187 Y2.2979 
G82 X1.4187 Y2.9042 
G82 X1.4187 Y3.0679 
G82 X1.5157 Y2.2979 
G82 X1.5218 Y2.1342 
G82 X1.5218 Y2.9042 
G82 X1.5218 Y3.0679 
G82 X1.6188 Y2.1342 
G82 X1.6188 Y2.2979 
G82 X1.6228 Y2.9042 
G82 X1.6249 Y3.0679 
G82 X1.7158 Y2.2979 
G82 X1.7219 Y2.1342 
G82 X1.7219 Y2.9002 
G82 X1.7219 Y3.0679 
G82 X0.0182 Y2.2979 
G82 X0.0182 Y2.9042 
G82 X1.8189 Y3.0679 
G82 X1.8228 Y2.3000 
G82 X1.8268 Y2.9002 
G82 X1.8280 Y2.1288 
G82 X0.1829 Y2.1115 
G82 X1.9780 Y1.8408 
G82 X1.9780 Y2.0166 
G82 X1.9982 Y2.6197 
G82 X2.0013 Y3.0204 
G82 X0.2012 Y3.0679 
G82 X2.0934 Y2.2522 
G82 X2.0964 Y2.9904 
G82 X2.0987 Y2.6695 
G82 X2.1019 Y2.7942 
G82 X0.2183 Y2.2979 
G82 X2.2002 Y2.7922 
G82 X0.2204 Y2.9042 
G82 X2.2048 Y2.9889 
G82 X2.2326 Y1.8408 
G82 X2.2326 Y2.0227 
G82 X2.2330 Y2.1323 
G82 X0.2867 Y2.1085 
G82 X0.3043 Y3.0679 
G82 X0.3153 Y2.2979 
G82 X0.3153 Y2.9042 
G82 X0.4183 Y2.2979 
G82 X0.4183 Y2.9042 
G82 X0.4669 Y1.8795 
G82 X0.4729 Y1.9826 
G82 X0.4729 Y2.1220 
G82 X0.5214 Y2.2979 
G82 X0.5214 Y2.9042 
G82 X0.5214 Y3.0679 
G82 X0.6184 Y2.2979 
G82 X0.6184 Y2.9042 
G82 X0.6245 Y3.0739 
G82 X0.6669 Y1.8795 
G82 X0.6669 Y1.9765 
G82 X0.6730 Y2.1160 
G82 X0.7154 Y2.2979 
G82 X0.7215 Y2.9020 
G82 X0.7215 Y3.0679 
G82 X0.8185 Y2.2979 
G82 X0.8206 Y2.9020 
G82 X0.8246 Y3.0679 
G82 X0.0859 Y2.1115 
G82 X0.9155 Y2.2979 
G82 X0.9216 Y2.9042 
G82 X0.9232 Y3.0630 
G82 X0.9580 Y2.1342 
G82 X1.0186 Y2.2979 
G82 X1.0186 Y2.9042 
G82 X1.0217 Y3.0630 
G82 X0.1042 Y3.0679 
G82 X1.0610 Y2.1342 
G82 X1.1177 Y2.2979 
G82 X1.1177 Y2.9020 
G82 X1.1217 Y3.0679 
G82 X0.1152 Y2.2979 
G82 X1.1702 Y2.1342 
G82 X0.1173 Y2.9042 
G82 X1.2187 Y2.2979 
G82 X1.2187 Y2.9042 
G82 X1.2187 Y3.0679 
G82 X-0.2860 Y2.5525 
G82 X-0.2885 Y2.6490 
G82 X-0.2910 Y2.1342 
G82 X-0.2971 Y2.0311 
G82 X-0.3843 Y2.6515 
G82 X-0.3865 Y2.5506 
G82 X-0.0788 Y2.1160 
G82 X-0.0788 Y2.2979 
G82 X-0.0849 Y2.9042 
M05
G00 Z1.0000 
M06 T03 (0.0236 )
G01 Z0.0000 F10.00 
M06 T03 (0.0236 )
G00 Z0.1000 
M03
G04 P3.000000
G82 X0.4125 Y3.0630 Z-0.0320 F10.00 R0.1000 P1.000000
G82 X-0.1245 Y3.2685 
G82 X-0.4065 Y1.8585 
G82 X-0.6015 Y1.8630 
G82 X-0.1200 Y3.1665 
M05
G00 Z1.0000 
M06 T04 (0.0240 )
G01 Z0.0000 F10.00 
M06 T04 (0.0240 )
G00 Z0.1000 
M03
G04 P3.000000
G82 X0.4700 Y2.1200 Z-0.0320 F10.00 R0.1000 P1.000000
G82 X0.6700 Y2.1200 
M05
G00 Z1.0000 
M06 T05 (0.0315 )
G01 Z0.0000 F10.00 
M06 T05 (0.0315 )
G00 Z0.1000 
M03
G04 P3.000000
G82 X-0.4725 Y3.2820 Z-0.0320 F10.00 R0.1000 P1.000000
G82 X-0.5906 Y3.0930 
M05
G00 Z1.0000 
M06 T06 (0.0320 )
G01 Z0.0000 F10.00 
M06 T06 (0.0320 )
G00 Z0.1000 
M03
G04 P3.000000
G82 X1.3200 Y2.3000 Z-0.0320 F10.00 R0.1000 P1.000000
G82 X1.3200 Y2.9000 
G82 X1.4200 Y2.3000 
G82 X1.4200 Y2.9000 
G82 X1.5200 Y2.3000 
G82 X1.5200 Y2.9000 
G82 X1.6200 Y2.3000 
G82 X1.6200 Y2.9000 
G82 X1.7200 Y2.3000 
G82 X1.7200 Y2.9000 
G82 X1.8200 Y2.3000 
G82 X1.8200 Y2.9000 
G82 X1.8350 Y2.1285 
G82 X0.0200 Y2.3000 
G82 X0.0200 Y2.9000 
G82 X2.0020 Y2.6165 
G82 X2.0020 Y3.0165 
G82 X2.0985 Y2.2615 
G82 X2.0985 Y2.6615 
G82 X2.1005 Y2.7940 
G82 X2.1015 Y2.9865 
G82 X0.2200 Y2.3000 
G82 X0.2200 Y2.9000 
G82 X2.2005 Y2.7940 
G82 X2.2015 Y2.9865 
G82 X2.2350 Y2.1285 
G82 X0.3200 Y2.3000 
G82 X0.3200 Y2.9000 
G82 X0.4200 Y2.3000 
G82 X0.4200 Y2.9000 
G82 X0.4700 Y1.8800 
G82 X0.4700 Y1.9800 
G82 X0.5200 Y2.3000 
G82 X0.5200 Y2.9000 
G82 X0.6200 Y2.3000 
G82 X0.6200 Y2.9000 
G82 X0.6700 Y1.8800 
G82 X0.6700 Y1.9800 
G82 X0.7200 Y2.3000 
G82 X0.7200 Y2.9000 
G82 X0.8200 Y2.3000 
G82 X0.8200 Y2.9000 
G82 X0.9200 Y2.3000 
G82 X0.9200 Y2.9000 
G82 X1.0200 Y2.3000 
G82 X1.0200 Y2.9000 
G82 X1.1200 Y2.3000 
G82 X1.1200 Y2.9000 
G82 X0.1200 Y2.3000 
G82 X0.1200 Y2.9000 
G82 X1.2200 Y2.3000 
G82 X1.2200 Y2.9000 
G82 X-0.1260 Y3.1690 
G82 X-0.1260 Y3.2690 
G82 X-0.2900 Y2.0350 
G82 X-0.2900 Y2.1350 
G82 X-0.4040 Y1.8630 
G82 X-0.6040 Y1.8630 
G82 X-0.0800 Y2.3000 
G82 X-0.0800 Y2.9000 
M05
G00 Z1.0000 
M06 T07 (0.0374 )
G01 Z0.0000 F10.00 
M06 T07 (0.0374 )
G00 Z0.1000 
M03
G04 P3.000000
G82 X-0.2936 Y2.5508 Z-0.0320 F10.00 R0.1000 P1.000000
G82 X-0.2936 Y2.6492 
G82 X-0.3723 Y2.5508 
G82 X-0.3723 Y2.6492 
M05
G00 Z1.0000 
M06 T08 (0.0394 )
G01 Z0.0000 F10.00 
M06 T08 (0.0394 )
G00 Z0.1000 
M03
G04 P3.000000
G82 X-0.3544 Y3.0930 Z-0.0320 F10.00 R0.1000 P1.000000
M05
G00 Z1.0000 
M06 T09 (0.0400 )
G01 Z0.0000 F10.00 
M06 T09 (0.0400 )
G00 Z0.1000 
M03
G04 P3.000000
G82 X1.2700 Y2.1300 Z-0.0320 F10.00 R0.1000 P1.000000
G82 X1.3200 Y3.0661 
G82 X1.4200 Y2.1300 
G82 X1.4200 Y3.0661 
G82 X1.5200 Y2.1300 
G82 X1.5200 Y3.0661 
G82 X1.6200 Y2.1300 
G82 X1.6200 Y3.0661 
G82 X1.7200 Y2.1300 
G82 X1.7200 Y3.0661 
G82 X1.8200 Y3.0661 
G82 X0.1840 Y2.1095 
G82 X1.9775 Y1.8420 
G82 X1.9775 Y2.0200 
G82 X0.2020 Y3.0661 
G82 X2.2335 Y1.8420 
G82 X2.2335 Y2.0200 
G82 X0.2865 Y2.1090 
G82 X0.3020 Y3.0661 
G82 X0.4110 Y3.0675 
G82 X0.5200 Y3.0661 
G82 X0.6200 Y3.0661 
G82 X0.7200 Y3.0661 
G82 X0.8200 Y3.0661 
G82 X0.0840 Y2.1095 
G82 X0.9224 Y3.0610 
G82 X0.9640 Y2.1315 
G82 X0.9875 Y3.2850 
G82 X0.1020 Y3.0661 
G82 X1.0224 Y3.0610 
G82 X1.0640 Y2.1315 
G82 X1.0875 Y3.2850 
G82 X1.1200 Y3.0661 
G82 X1.1700 Y2.1300 
G82 X1.1875 Y3.2850 
G82 X1.2200 Y3.0661 
G82 X-0.0780 Y2.1135 
M05
G00 Z1.0000 
M06 T10 (0.0433 )
G01 Z0.0000 F10.00 
M06 T10 (0.0433 )
G00 Z0.1000 
M03
G04 P3.000000
G82 X-0.4784 Y2.3642 Z-0.0320 F10.00 R0.1000 P1.000000
G82 X-0.4784 Y2.8366 
M05
G00 Z1.0000 
M06 T11 (0.0440 )
G01 Z0.0000 F10.00 
M06 T11 (0.0440 )
G00 Z0.1000 
M03
G04 P3.000000
G82 X-0.6605 Y2.1175 Z-0.0320 F10.00 R0.1000 P1.000000
G82 X-0.7605 Y2.1175 
G82 X-0.8605 Y2.1175 
M05
G00 Z1.0000 
M06 T12 (0.0906 )
G01 Z0.0000 F10.00 
M06 T12 (0.0906 )
G00 Z0.1000 
M03
G04 P3.000000
G82 X-0.4790 Y2.3630 Z-0.0320 F10.00 R0.1000 P1.000000
G82 X-0.4790 Y2.8370 
T01 
G00 Z0.5000 
M05
M02
